; generated by PrusaSlicer 2.6.1+linux-x64-GTK3 on 2023-09-25 at 21:39:33 UTC


;
;

;
;
; 

; external perimeters extrusion width = 0.45mm
; perimeters extrusion width = 0.45mm
; infill extrusion width = 0.45mm
; solid infill extrusion width = 0.45mm
; top infill extrusion width = 0.40mm
; first layer extrusion width = 0.42mm

M73 P0 R38
M201 X2500 Y2500 Z400 E5000 ; sets maximum accelerations, mm/sec^2
M203 X180 Y180 Z12 E80 ; sets maximum feedrates, mm / sec
M204 P2000 R1250 T2500 ; sets acceleration (P, T) and retract acceleration (R), mm/sec^2
M205 X8.00 Y8.00 Z2.00 E10.00 ; sets the jerk limits, mm/sec
M205 S0 T0 ; sets the minimum extruding and travel feed rate, mm/sec
;TYPE:Custom
M862.3 P "MINI" ; printer model check
G90 ; use absolute coordinates
M83 ; extruder relative mode
M104 S170 ; set extruder temp for bed leveling
M140 S60 ; set bed temp
M109 R170 ; wait for bed leveling temp
M190 S60 ; wait for bed temp
M204 T1250 ; set travel acceleration
G28 ; home all without mesh bed level
G29 ; mesh bed leveling 
M204 T2500 ; restore travel acceleration
M104 S215 ; set extruder temp
G92 E0
G1 Y-2 X179 F2400
G1 Z3 F720
M109 S215 ; wait for extruder temp

; intro line
G1 X170 F1000
G1 Z0.2 F720
G1 X110 E8 F900
G1 X40 E10 F700
G92 E0

M221 S95 ; set flow
G21 ; set units to millimeters
G90 ; use absolute coordinates
M83 ; use relative distances for extrusion
M900 K0.2 ; Filament gcode LA 1.5
; ; Filament gcode LA 1.0
M107
;LAYER_CHANGE
;Z:0.2
;HEIGHT:0.2
;BEFORE_LAYER_CHANGE
G92 E0.0
;0.2


G1 E-3.2 F4200
G1 Z.2 F720
;AFTER_LAYER_CHANGE
;0.2
G1 Z.4
G1 X46.59 Y50.718 F9000
G1 Z.2 F720
G1 E3.2 F2400
M204 P600
;TYPE:Skirt/Brim
;WIDTH:0.42
G1 F1200
G1 X47.635 Y49.842 E.04275
G1 X48.575 Y49.648 E.03009
G1 X131.425 Y49.648 E2.5977
G1 X132.732 Y50.04 E.04278
G1 X133.608 Y51.085 E.04275
G1 X133.802 Y52.025 E.03009
G1 X133.802 Y127.975 E2.38136
G1 X133.41 Y129.282 E.04278
M73 P1 R38
G1 X132.365 Y130.158 E.04275
G1 X131.425 Y130.352 E.03009
G1 X48.575 Y130.352 E2.5977
G1 X47.268 Y129.96 E.04278
G1 X46.392 Y128.915 E.04275
G1 X46.198 Y127.975 E.03009
G1 X46.198 Y52.025 E2.38136
G1 X46.572 Y50.775 E.04091
M204 P1000
; printing object rf_shield.stl id:0 copy 7
G1 E-2.24 F4200
;WIPE_START
G1 F7200
G1 X47.635 Y49.842 E-.7838
G1 X47.946 Y49.778 E-.1762
;WIPE_END
G1 Z.4 F720
G1 X70.313 Y108.537 F9000
G1 Z.2 F720
G1 E3.2 F2400
M204 P600
;TYPE:Perimeter
;WIDTH:0.419999
G1 F1200
G1 X70.313 Y126.863 E.5746
G1 X49.687 Y126.863 E.64671
G1 X49.687 Y108.537 E.5746
G1 X70.253 Y108.537 E.64483
M204 P1000
G1 X70.69 Y108.16 F9000
M204 P600
;TYPE:External perimeter
G1 F1200
G1 X70.69 Y127.24 E.59824
G1 X49.31 Y127.24 E.67035
G1 X49.31 Y108.16 E.59824
G1 X70.63 Y108.16 E.66847
M204 P1000
G1 X70.579 Y108.544 F9000
G1 X70.143 Y109.479
M204 P600
;TYPE:Solid infill
;WIDTH:0.42484
G1 F1200
G1 X69.54 Y108.876 E.02708
G1 X69 Y108.876 E.01715
G1 X69.974 Y109.85 E.04374
G1 X69.974 Y110.39 E.01715
G1 X68.46 Y108.876 E.068
G1 X67.92 Y108.876 E.01715
G1 X69.974 Y110.93 E.09225
G1 X69.974 Y111.47 E.01715
M73 P1 R37
G1 X67.38 Y108.876 E.1165
G1 X66.84 Y108.876 E.01715
G1 X69.974 Y112.01 E.14075
G1 X69.974 Y112.55 E.01715
G1 X66.3 Y108.876 E.165
G1 X65.76 Y108.876 E.01715
G1 X69.974 Y113.09 E.18925
G1 X69.974 Y113.631 E.01718
G1 X65.219 Y108.876 E.21355
G1 X64.679 Y108.876 E.01715
G1 X69.974 Y114.171 E.2378
G1 X69.974 Y114.711 E.01715
G1 X64.139 Y108.876 E.26205
G1 X63.599 Y108.876 E.01715
G1 X69.974 Y115.251 E.28631
G1 X69.974 Y115.791 E.01715
G1 X63.059 Y108.876 E.31056
G1 X62.519 Y108.876 E.01715
G1 X69.974 Y116.331 E.33481
G1 X69.974 Y116.871 E.01715
G1 X61.979 Y108.876 E.35906
G1 X61.439 Y108.876 E.01715
M73 P2 R37
G1 X69.974 Y117.411 E.38331
G1 X69.974 Y117.951 E.01715
G1 X60.899 Y108.876 E.40757
G1 X60.358 Y108.876 E.01718
G1 X69.974 Y118.492 E.43186
G1 X69.974 Y119.032 E.01715
G1 X59.818 Y108.876 E.45611
G1 X59.278 Y108.876 E.01715
G1 X69.974 Y119.572 E.48037
G1 X69.974 Y120.112 E.01715
G1 X58.738 Y108.876 E.50462
G1 X58.198 Y108.876 E.01715
G1 X69.974 Y120.652 E.52887
G1 X69.974 Y121.192 E.01715
G1 X57.658 Y108.876 E.55312
G1 X57.118 Y108.876 E.01715
G1 X69.974 Y121.732 E.57737
G1 X69.974 Y122.272 E.01715
G1 X56.578 Y108.876 E.60163
G1 X56.037 Y108.876 E.01718
G1 X69.974 Y122.813 E.62592
G1 X69.974 Y123.353 E.01715
G1 X55.497 Y108.876 E.65017
G1 X54.957 Y108.876 E.01715
G1 X69.974 Y123.893 E.67443
G1 X69.974 Y124.433 E.01715
G1 X54.417 Y108.876 E.69868
G1 X53.877 Y108.876 E.01715
G1 X69.974 Y124.973 E.72293
G1 X69.974 Y125.513 E.01715
G1 X53.337 Y108.876 E.74718
G1 X52.797 Y108.876 E.01715
G1 X69.974 Y126.053 E.77143
G1 X69.974 Y126.524 E.01496
G1 X69.904 Y126.524 E.00222
G1 X52.257 Y108.876 E.79256
G1 X51.717 Y108.876 E.01715
G1 X69.364 Y126.524 E.79256
G1 X68.824 Y126.524 E.01715
G1 X51.176 Y108.876 E.79259
G1 X50.636 Y108.876 E.01715
G1 X68.283 Y126.524 E.79256
G1 X67.743 Y126.524 E.01715
G1 X50.096 Y108.876 E.79256
G1 X50.026 Y108.876 E.00222
G1 X50.026 Y109.347 E.01496
G1 X67.203 Y126.524 E.77143
G1 X66.663 Y126.524 E.01715
M73 P3 R37
G1 X50.026 Y109.887 E.74718
G1 X50.026 Y110.427 E.01715
G1 X66.123 Y126.524 E.72293
G1 X65.583 Y126.524 E.01715
G1 X50.026 Y110.967 E.69868
G1 X50.026 Y111.507 E.01715
G1 X65.043 Y126.524 E.67443
G1 X64.503 Y126.524 E.01715
G1 X50.026 Y112.047 E.65017
G1 X50.026 Y112.588 E.01718
G1 X63.962 Y126.524 E.62588
G1 X63.422 Y126.524 E.01715
G1 X50.026 Y113.128 E.60163
G1 X50.026 Y113.668 E.01715
G1 X62.882 Y126.524 E.57737
G1 X62.342 Y126.524 E.01715
G1 X50.026 Y114.208 E.55312
G1 X50.026 Y114.748 E.01715
G1 X61.802 Y126.524 E.52887
G1 X61.262 Y126.524 E.01715
G1 X50.026 Y115.288 E.50462
G1 X50.026 Y115.828 E.01715
G1 X60.722 Y126.524 E.48037
G1 X60.182 Y126.524 E.01715
G1 X50.026 Y116.368 E.45611
G1 X50.026 Y116.908 E.01715
G1 X59.642 Y126.524 E.43186
G1 X59.101 Y126.524 E.01718
G1 X50.026 Y117.449 E.40757
G1 X50.026 Y117.989 E.01715
G1 X58.561 Y126.524 E.38331
G1 X58.021 Y126.524 E.01715
G1 X50.026 Y118.529 E.35906
G1 X50.026 Y119.069 E.01715
G1 X57.481 Y126.524 E.33481
G1 X56.941 Y126.524 E.01715
G1 X50.026 Y119.609 E.31056
G1 X50.026 Y120.149 E.01715
G1 X56.401 Y126.524 E.28631
G1 X55.861 Y126.524 E.01715
G1 X50.026 Y120.689 E.26205
G1 X50.026 Y121.229 E.01715
G1 X55.321 Y126.524 E.2378
G1 X54.781 Y126.524 E.01715
G1 X50.026 Y121.769 E.21355
G1 X50.026 Y122.31 E.01718
G1 X54.24 Y126.524 E.18925
G1 X53.7 Y126.524 E.01715
G1 X50.026 Y122.85 E.165
G1 X50.026 Y123.39 E.01715
G1 X53.16 Y126.524 E.14075
G1 X52.62 Y126.524 E.01715
G1 X50.026 Y123.93 E.1165
G1 X50.026 Y124.47 E.01715
G1 X52.08 Y126.524 E.09225
G1 X51.54 Y126.524 E.01715
G1 X50.026 Y125.01 E.068
G1 X50.026 Y125.55 E.01715
G1 X51 Y126.524 E.04374
G1 X50.46 Y126.524 E.01715
G1 X49.857 Y125.921 E.02708
M204 P1000
; stop printing object rf_shield.stl id:0 copy 7
; printing object rf_shield.stl id:0 copy 6
G1 E-2.24 F4200
;WIPE_START
G1 F7200
G1 X50.46 Y126.524 E-.47258
G1 X51 Y126.524 E-.29925
G1 X50.76 Y126.284 E-.18817
;WIPE_END
G1 Z.4 F720
G1 X70.313 Y80.837 F9000
G1 Z.2 F720
G1 E3.2 F2400
M204 P600
;TYPE:Perimeter
;WIDTH:0.419999
G1 F1200
G1 X70.313 Y99.163 E.5746
G1 X49.687 Y99.163 E.64671
G1 X49.687 Y80.837 E.5746
M73 P4 R37
G1 X70.253 Y80.837 E.64483
M204 P1000
G1 X70.69 Y80.46 F9000
M204 P600
;TYPE:External perimeter
G1 F1200
G1 X70.69 Y99.54 E.59824
G1 X49.31 Y99.54 E.67035
G1 X49.31 Y80.46 E.59824
G1 X70.63 Y80.46 E.66847
M204 P1000
G1 X70.579 Y80.844 F9000
G1 X70.143 Y81.779
M204 P600
;TYPE:Solid infill
;WIDTH:0.42484
G1 F1200
G1 X69.54 Y81.176 E.02708
G1 X69 Y81.176 E.01715
G1 X69.974 Y82.15 E.04374
G1 X69.974 Y82.69 E.01715
G1 X68.46 Y81.176 E.068
G1 X67.92 Y81.176 E.01715
G1 X69.974 Y83.23 E.09225
G1 X69.974 Y83.77 E.01715
G1 X67.38 Y81.176 E.1165
G1 X66.84 Y81.176 E.01715
G1 X69.974 Y84.31 E.14075
G1 X69.974 Y84.85 E.01715
G1 X66.3 Y81.176 E.165
G1 X65.76 Y81.176 E.01715
G1 X69.974 Y85.39 E.18925
G1 X69.974 Y85.931 E.01718
G1 X65.219 Y81.176 E.21355
G1 X64.679 Y81.176 E.01715
G1 X69.974 Y86.471 E.2378
G1 X69.974 Y87.011 E.01715
M73 P4 R36
G1 X64.139 Y81.176 E.26205
G1 X63.599 Y81.176 E.01715
G1 X69.974 Y87.551 E.28631
G1 X69.974 Y88.091 E.01715
G1 X63.059 Y81.176 E.31056
G1 X62.519 Y81.176 E.01715
G1 X69.974 Y88.631 E.33481
G1 X69.974 Y89.171 E.01715
G1 X61.979 Y81.176 E.35906
G1 X61.439 Y81.176 E.01715
G1 X69.974 Y89.711 E.38331
G1 X69.974 Y90.251 E.01715
G1 X60.899 Y81.176 E.40757
G1 X60.358 Y81.176 E.01718
G1 X69.974 Y90.792 E.43186
G1 X69.974 Y91.332 E.01715
G1 X59.818 Y81.176 E.45611
G1 X59.278 Y81.176 E.01715
G1 X69.974 Y91.872 E.48037
G1 X69.974 Y92.412 E.01715
G1 X58.738 Y81.176 E.50462
G1 X58.198 Y81.176 E.01715
G1 X69.974 Y92.952 E.52887
G1 X69.974 Y93.492 E.01715
G1 X57.658 Y81.176 E.55312
G1 X57.118 Y81.176 E.01715
G1 X69.974 Y94.032 E.57737
G1 X69.974 Y94.572 E.01715
G1 X56.578 Y81.176 E.60163
G1 X56.037 Y81.176 E.01718
G1 X69.974 Y95.113 E.62592
G1 X69.974 Y95.653 E.01715
G1 X55.497 Y81.176 E.65017
G1 X54.957 Y81.176 E.01715
G1 X69.974 Y96.193 E.67443
G1 X69.974 Y96.733 E.01715
M73 P5 R36
G1 X54.417 Y81.176 E.69868
G1 X53.877 Y81.176 E.01715
G1 X69.974 Y97.273 E.72293
G1 X69.974 Y97.813 E.01715
G1 X53.337 Y81.176 E.74718
G1 X52.797 Y81.176 E.01715
G1 X69.974 Y98.353 E.77143
G1 X69.974 Y98.824 E.01496
G1 X69.904 Y98.824 E.00222
G1 X52.257 Y81.176 E.79256
G1 X51.717 Y81.176 E.01715
G1 X69.364 Y98.824 E.79256
G1 X68.824 Y98.824 E.01715
G1 X51.176 Y81.176 E.79259
G1 X50.636 Y81.176 E.01715
G1 X68.283 Y98.824 E.79256
G1 X67.743 Y98.824 E.01715
G1 X50.096 Y81.176 E.79256
G1 X50.026 Y81.176 E.00222
G1 X50.026 Y81.647 E.01496
G1 X67.203 Y98.824 E.77143
G1 X66.663 Y98.824 E.01715
G1 X50.026 Y82.187 E.74718
G1 X50.026 Y82.727 E.01715
G1 X66.123 Y98.824 E.72293
G1 X65.583 Y98.824 E.01715
G1 X50.026 Y83.267 E.69868
G1 X50.026 Y83.807 E.01715
G1 X65.043 Y98.824 E.67443
G1 X64.503 Y98.824 E.01715
G1 X50.026 Y84.347 E.65017
G1 X50.026 Y84.888 E.01718
G1 X63.962 Y98.824 E.62588
G1 X63.422 Y98.824 E.01715
G1 X50.026 Y85.428 E.60163
G1 X50.026 Y85.968 E.01715
G1 X62.882 Y98.824 E.57737
G1 X62.342 Y98.824 E.01715
G1 X50.026 Y86.508 E.55312
G1 X50.026 Y87.048 E.01715
G1 X61.802 Y98.824 E.52887
G1 X61.262 Y98.824 E.01715
G1 X50.026 Y87.588 E.50462
M73 P6 R36
G1 X50.026 Y88.128 E.01715
G1 X60.722 Y98.824 E.48037
G1 X60.182 Y98.824 E.01715
G1 X50.026 Y88.668 E.45611
G1 X50.026 Y89.208 E.01715
G1 X59.642 Y98.824 E.43186
G1 X59.101 Y98.824 E.01718
G1 X50.026 Y89.749 E.40757
G1 X50.026 Y90.289 E.01715
G1 X58.561 Y98.824 E.38331
G1 X58.021 Y98.824 E.01715
G1 X50.026 Y90.829 E.35906
G1 X50.026 Y91.369 E.01715
G1 X57.481 Y98.824 E.33481
G1 X56.941 Y98.824 E.01715
G1 X50.026 Y91.909 E.31056
G1 X50.026 Y92.449 E.01715
G1 X56.401 Y98.824 E.28631
G1 X55.861 Y98.824 E.01715
G1 X50.026 Y92.989 E.26205
G1 X50.026 Y93.529 E.01715
G1 X55.321 Y98.824 E.2378
G1 X54.781 Y98.824 E.01715
G1 X50.026 Y94.069 E.21355
G1 X50.026 Y94.61 E.01718
G1 X54.24 Y98.824 E.18925
G1 X53.7 Y98.824 E.01715
G1 X50.026 Y95.15 E.165
G1 X50.026 Y95.69 E.01715
G1 X53.16 Y98.824 E.14075
G1 X52.62 Y98.824 E.01715
G1 X50.026 Y96.23 E.1165
G1 X50.026 Y96.77 E.01715
G1 X52.08 Y98.824 E.09225
G1 X51.54 Y98.824 E.01715
G1 X50.026 Y97.31 E.068
G1 X50.026 Y97.85 E.01715
G1 X51 Y98.824 E.04374
G1 X50.46 Y98.824 E.01715
G1 X49.857 Y98.221 E.02708
M204 P1000
; stop printing object rf_shield.stl id:0 copy 6
; printing object rf_shield.stl id:0 copy 8
G1 E-2.24 F4200
;WIPE_START
G1 F7200
G1 X50.46 Y98.824 E-.47258
G1 X51 Y98.824 E-.29925
G1 X50.76 Y98.584 E-.18817
;WIPE_END
G1 Z.4 F720
G1 X70.313 Y53.137 F9000
G1 Z.2 F720
G1 E3.2 F2400
M204 P600
;TYPE:Perimeter
;WIDTH:0.419999
G1 F1200
G1 X70.313 Y71.463 E.5746
G1 X49.687 Y71.463 E.64671
G1 X49.687 Y53.137 E.5746
G1 X70.253 Y53.137 E.64483
M204 P1000
G1 X70.69 Y52.76 F9000
M204 P600
;TYPE:External perimeter
G1 F1200
G1 X70.69 Y71.84 E.59824
G1 X49.31 Y71.84 E.67035
G1 X49.31 Y52.76 E.59824
G1 X70.63 Y52.76 E.66847
M204 P1000
G1 X70.579 Y53.144 F9000
G1 X70.143 Y54.079
M204 P600
;TYPE:Solid infill
;WIDTH:0.42484
G1 F1200
G1 X69.54 Y53.476 E.02708
G1 X69 Y53.476 E.01715
G1 X69.974 Y54.45 E.04374
G1 X69.974 Y54.99 E.01715
G1 X68.46 Y53.476 E.068
G1 X67.92 Y53.476 E.01715
G1 X69.974 Y55.53 E.09225
G1 X69.974 Y56.07 E.01715
G1 X67.38 Y53.476 E.1165
G1 X66.84 Y53.476 E.01715
G1 X69.974 Y56.61 E.14075
G1 X69.974 Y57.15 E.01715
G1 X66.3 Y53.476 E.165
G1 X65.76 Y53.476 E.01715
G1 X69.974 Y57.69 E.18925
G1 X69.974 Y58.231 E.01718
G1 X65.219 Y53.476 E.21355
G1 X64.679 Y53.476 E.01715
G1 X69.974 Y58.771 E.2378
G1 X69.974 Y59.311 E.01715
G1 X64.139 Y53.476 E.26205
G1 X63.599 Y53.476 E.01715
G1 X69.974 Y59.851 E.28631
G1 X69.974 Y60.391 E.01715
G1 X63.059 Y53.476 E.31056
G1 X62.519 Y53.476 E.01715
G1 X69.974 Y60.931 E.33481
G1 X69.974 Y61.471 E.01715
M73 P6 R35
G1 X61.979 Y53.476 E.35906
G1 X61.439 Y53.476 E.01715
M73 P7 R35
G1 X69.974 Y62.011 E.38331
G1 X69.974 Y62.551 E.01715
G1 X60.899 Y53.476 E.40757
G1 X60.358 Y53.476 E.01718
G1 X69.974 Y63.092 E.43186
G1 X69.974 Y63.632 E.01715
G1 X59.818 Y53.476 E.45611
G1 X59.278 Y53.476 E.01715
G1 X69.974 Y64.172 E.48037
G1 X69.974 Y64.712 E.01715
G1 X58.738 Y53.476 E.50462
G1 X58.198 Y53.476 E.01715
G1 X69.974 Y65.252 E.52887
G1 X69.974 Y65.792 E.01715
G1 X57.658 Y53.476 E.55312
G1 X57.118 Y53.476 E.01715
G1 X69.974 Y66.332 E.57737
G1 X69.974 Y66.872 E.01715
G1 X56.578 Y53.476 E.60163
G1 X56.037 Y53.476 E.01718
G1 X69.974 Y67.413 E.62592
G1 X69.974 Y67.953 E.01715
G1 X55.497 Y53.476 E.65017
G1 X54.957 Y53.476 E.01715
G1 X69.974 Y68.493 E.67443
G1 X69.974 Y69.033 E.01715
G1 X54.417 Y53.476 E.69868
G1 X53.877 Y53.476 E.01715
G1 X69.974 Y69.573 E.72293
G1 X69.974 Y70.113 E.01715
G1 X53.337 Y53.476 E.74718
G1 X52.797 Y53.476 E.01715
G1 X69.974 Y70.653 E.77143
G1 X69.974 Y71.124 E.01496
G1 X69.904 Y71.124 E.00222
G1 X52.257 Y53.476 E.79256
G1 X51.717 Y53.476 E.01715
G1 X69.364 Y71.124 E.79256
G1 X68.824 Y71.124 E.01715
G1 X51.176 Y53.476 E.79259
G1 X50.636 Y53.476 E.01715
G1 X68.283 Y71.124 E.79256
G1 X67.743 Y71.124 E.01715
G1 X50.096 Y53.476 E.79256
G1 X50.026 Y53.476 E.00222
G1 X50.026 Y53.947 E.01496
G1 X67.203 Y71.124 E.77143
G1 X66.663 Y71.124 E.01715
M73 P8 R35
G1 X50.026 Y54.487 E.74718
G1 X50.026 Y55.027 E.01715
G1 X66.123 Y71.124 E.72293
G1 X65.583 Y71.124 E.01715
G1 X50.026 Y55.567 E.69868
G1 X50.026 Y56.107 E.01715
G1 X65.043 Y71.124 E.67443
G1 X64.503 Y71.124 E.01715
G1 X50.026 Y56.647 E.65017
G1 X50.026 Y57.188 E.01718
G1 X63.962 Y71.124 E.62588
G1 X63.422 Y71.124 E.01715
G1 X50.026 Y57.728 E.60163
G1 X50.026 Y58.268 E.01715
G1 X62.882 Y71.124 E.57737
G1 X62.342 Y71.124 E.01715
G1 X50.026 Y58.808 E.55312
G1 X50.026 Y59.348 E.01715
G1 X61.802 Y71.124 E.52887
G1 X61.262 Y71.124 E.01715
G1 X50.026 Y59.888 E.50462
G1 X50.026 Y60.428 E.01715
G1 X60.722 Y71.124 E.48037
G1 X60.182 Y71.124 E.01715
G1 X50.026 Y60.968 E.45611
G1 X50.026 Y61.508 E.01715
G1 X59.642 Y71.124 E.43186
G1 X59.101 Y71.124 E.01718
G1 X50.026 Y62.049 E.40757
G1 X50.026 Y62.589 E.01715
G1 X58.561 Y71.124 E.38331
G1 X58.021 Y71.124 E.01715
G1 X50.026 Y63.129 E.35906
G1 X50.026 Y63.669 E.01715
G1 X57.481 Y71.124 E.33481
G1 X56.941 Y71.124 E.01715
G1 X50.026 Y64.209 E.31056
G1 X50.026 Y64.749 E.01715
G1 X56.401 Y71.124 E.28631
G1 X55.861 Y71.124 E.01715
G1 X50.026 Y65.289 E.26205
G1 X50.026 Y65.829 E.01715
G1 X55.321 Y71.124 E.2378
G1 X54.781 Y71.124 E.01715
G1 X50.026 Y66.369 E.21355
G1 X50.026 Y66.91 E.01718
G1 X54.24 Y71.124 E.18925
G1 X53.7 Y71.124 E.01715
G1 X50.026 Y67.45 E.165
G1 X50.026 Y67.99 E.01715
G1 X53.16 Y71.124 E.14075
G1 X52.62 Y71.124 E.01715
G1 X50.026 Y68.53 E.1165
G1 X50.026 Y69.07 E.01715
G1 X52.08 Y71.124 E.09225
G1 X51.54 Y71.124 E.01715
G1 X50.026 Y69.61 E.068
G1 X50.026 Y70.15 E.01715
G1 X51 Y71.124 E.04374
G1 X50.46 Y71.124 E.01715
G1 X49.857 Y70.521 E.02708
M204 P1000
; stop printing object rf_shield.stl id:0 copy 8
; printing object rf_shield.stl id:0 copy 5
G1 E-2.24 F4200
;WIPE_START
G1 F7200
G1 X50.46 Y71.124 E-.47258
G1 X51 Y71.124 E-.29925
G1 X50.76 Y70.884 E-.18817
;WIPE_END
G1 Z.4 F720
G1 X100.313 Y53.137 F9000
G1 Z.2 F720
G1 E3.2 F2400
M204 P600
;TYPE:Perimeter
;WIDTH:0.419999
G1 F1200
