; generated by PrusaSlicer 2.6.0+linux-x64-GTK3 on 2023-08-02 at 11:08:02 UTC


;
;

;
;
; 

; external perimeters extrusion width = 0.45mm
; perimeters extrusion width = 0.45mm
; infill extrusion width = 0.45mm
; solid infill extrusion width = 0.45mm
; top infill extrusion width = 0.40mm
; first layer extrusion width = 0.42mm

M73 P0 R17
M201 X2500 Y2500 Z400 E5000 ; sets maximum accelerations, mm/sec^2
M203 X180 Y180 Z12 E80 ; sets maximum feedrates, mm / sec
M204 P2000 R1250 T2500 ; sets acceleration (P, T) and retract acceleration (R), mm/sec^2
M205 X8.00 Y8.00 Z2.00 E10.00 ; sets the jerk limits, mm/sec
M205 S0 T0 ; sets the minimum extruding and travel feed rate, mm/sec
;TYPE:Custom
M862.3 P "MINI" ; printer model check
G90 ; use absolute coordinates
M83 ; extruder relative mode
M104 S170 ; set extruder temp for bed leveling
M140 S60 ; set bed temp
M109 R170 ; wait for bed leveling temp
M190 S60 ; wait for bed temp
M204 T1250 ; set travel acceleration
G28 ; home all without mesh bed level
G29 ; mesh bed leveling 
M204 T2500 ; restore travel acceleration
M104 S215 ; set extruder temp
G92 E0
G1 Y-2 X179 F2400
G1 Z3 F720
M109 S215 ; wait for extruder temp

; intro line
G1 X170 F1000
G1 Z0.2 F720
G1 X110 E8 F900
G1 X40 E10 F700
G92 E0

M221 S95 ; set flow
G21 ; set units to millimeters
G90 ; use absolute coordinates
M83 ; use relative distances for extrusion
M900 K0.2 ; Filament gcode LA 1.5
; ; Filament gcode LA 1.0
M107
;LAYER_CHANGE
;Z:0.2
;HEIGHT:0.2
;BEFORE_LAYER_CHANGE
G92 E0.0
;0.2


G1 E-3.2 F4200
M73 P1 R17
G1 Z.2 F720
;AFTER_LAYER_CHANGE
;0.2
G1 Z.4
G1 X61.59 Y64.568 F9000
G1 Z.2 F720
G1 E3.2 F2400
M204 P600
;TYPE:Skirt/Brim
;WIDTH:0.42
G1 F1200
G1 X62.635 Y63.692 E.04275
G1 X63.575 Y63.498 E.03009
G1 X116.425 Y63.498 E1.65707
G1 X117.732 Y63.89 E.04278
G1 X118.608 Y64.935 E.04275
G1 X118.802 Y65.875 E.03009
G1 X118.802 Y114.125 E1.51284
G1 X118.41 Y115.432 E.04278
M73 P2 R17
G1 X117.365 Y116.308 E.04275
G1 X116.425 Y116.502 E.03009
G1 X63.575 Y116.502 E1.65707
G1 X62.268 Y116.11 E.04278
M73 P2 R16
G1 X61.392 Y115.065 E.04275
G1 X61.198 Y114.125 E.03009
G1 X61.198 Y65.875 E1.51284
G1 X61.572 Y64.625 E.04091
M204 P1000
; printing object rf_shield.stl id:0 copy 2
G1 E-2.24 F4200
;WIPE_START
G1 F7200
G1 X62.635 Y63.692 E-.7838
G1 X62.946 Y63.628 E-.1762
;WIPE_END
G1 Z.4 F720
G1 X115.313 Y94.687 F9000
G1 Z.2 F720
G1 E3.2 F2400
M204 P600
;TYPE:Perimeter
;WIDTH:0.419999
G1 F1200
G1 X115.313 Y113.013 E.5746
G1 X94.687 Y113.013 E.64671
G1 X94.687 Y94.687 E.5746
G1 X115.253 Y94.687 E.64483
M204 P1000
G1 X115.69 Y94.31 F9000
M204 P600
;TYPE:External perimeter
M73 P3 R16
G1 F1200
G1 X115.69 Y113.39 E.59824
G1 X94.31 Y113.39 E.67035
G1 X94.31 Y94.31 E.59824
G1 X115.63 Y94.31 E.66847
M204 P1000
G1 X115.579 Y94.694 F9000
G1 X115.143 Y95.629
M204 P600
;TYPE:Solid infill
;WIDTH:0.42484
G1 F1200
G1 X114.54 Y95.026 E.02708
G1 X114 Y95.026 E.01715
G1 X114.974 Y96 E.04374
G1 X114.974 Y96.54 E.01715
G1 X113.46 Y95.026 E.068
G1 X112.92 Y95.026 E.01715
G1 X114.974 Y97.08 E.09225
G1 X114.974 Y97.62 E.01715
G1 X112.38 Y95.026 E.1165
G1 X111.84 Y95.026 E.01715
G1 X114.974 Y98.16 E.14075
G1 X114.974 Y98.7 E.01715
G1 X111.3 Y95.026 E.165
G1 X110.76 Y95.026 E.01715
G1 X114.974 Y99.24 E.18925
G1 X114.974 Y99.781 E.01718
G1 X110.219 Y95.026 E.21355
G1 X109.679 Y95.026 E.01715
G1 X114.974 Y100.321 E.2378
G1 X114.974 Y100.861 E.01715
G1 X109.139 Y95.026 E.26205
G1 X108.599 Y95.026 E.01715
G1 X114.974 Y101.401 E.28631
G1 X114.974 Y101.941 E.01715
G1 X108.059 Y95.026 E.31056
G1 X107.519 Y95.026 E.01715
G1 X114.974 Y102.481 E.33481
G1 X114.974 Y103.021 E.01715
G1 X106.979 Y95.026 E.35906
G1 X106.439 Y95.026 E.01715
G1 X114.974 Y103.561 E.38331
G1 X114.974 Y104.101 E.01715
M73 P4 R16
G1 X105.899 Y95.026 E.40757
G1 X105.358 Y95.026 E.01718
G1 X114.974 Y104.642 E.43186
G1 X114.974 Y105.182 E.01715
G1 X104.818 Y95.026 E.45611
G1 X104.278 Y95.026 E.01715
G1 X114.974 Y105.722 E.48037
G1 X114.974 Y106.262 E.01715
G1 X103.738 Y95.026 E.50462
G1 X103.198 Y95.026 E.01715
G1 X114.974 Y106.802 E.52887
G1 X114.974 Y107.342 E.01715
G1 X102.658 Y95.026 E.55312
G1 X102.118 Y95.026 E.01715
G1 X114.974 Y107.882 E.57737
G1 X114.974 Y108.422 E.01715
G1 X101.578 Y95.026 E.60163
G1 X101.037 Y95.026 E.01718
G1 X114.974 Y108.963 E.62592
G1 X114.974 Y109.503 E.01715
G1 X100.497 Y95.026 E.65017
G1 X99.957 Y95.026 E.01715
G1 X114.974 Y110.043 E.67443
G1 X114.974 Y110.583 E.01715
M73 P5 R16
G1 X99.417 Y95.026 E.69868
G1 X98.877 Y95.026 E.01715
G1 X114.974 Y111.123 E.72293
G1 X114.974 Y111.663 E.01715
G1 X98.337 Y95.026 E.74718
G1 X97.797 Y95.026 E.01715
G1 X114.974 Y112.203 E.77143
G1 X114.974 Y112.674 E.01496
G1 X114.904 Y112.674 E.00222
G1 X97.257 Y95.026 E.79256
G1 X96.717 Y95.026 E.01715
G1 X114.364 Y112.674 E.79256
G1 X113.824 Y112.674 E.01715
G1 X96.176 Y95.026 E.79259
G1 X95.636 Y95.026 E.01715
G1 X113.283 Y112.674 E.79256
G1 X112.743 Y112.674 E.01715
G1 X95.096 Y95.026 E.79256
G1 X95.026 Y95.026 E.00222
M73 P6 R16
G1 X95.026 Y95.497 E.01496
G1 X112.203 Y112.674 E.77143
G1 X111.663 Y112.674 E.01715
G1 X95.026 Y96.037 E.74718
G1 X95.026 Y96.577 E.01715
G1 X111.123 Y112.674 E.72293
G1 X110.583 Y112.674 E.01715
G1 X95.026 Y97.117 E.69868
G1 X95.026 Y97.657 E.01715
G1 X110.043 Y112.674 E.67443
G1 X109.503 Y112.674 E.01715
G1 X95.026 Y98.197 E.65017
G1 X95.026 Y98.738 E.01718
G1 X108.962 Y112.674 E.62588
G1 X108.422 Y112.674 E.01715
G1 X95.026 Y99.278 E.60163
G1 X95.026 Y99.818 E.01715
G1 X107.882 Y112.674 E.57737
G1 X107.342 Y112.674 E.01715
M73 P7 R16
G1 X95.026 Y100.358 E.55312
G1 X95.026 Y100.898 E.01715
G1 X106.802 Y112.674 E.52887
G1 X106.262 Y112.674 E.01715
G1 X95.026 Y101.438 E.50462
G1 X95.026 Y101.978 E.01715
G1 X105.722 Y112.674 E.48037
G1 X105.182 Y112.674 E.01715
G1 X95.026 Y102.518 E.45611
G1 X95.026 Y103.058 E.01715
G1 X104.642 Y112.674 E.43186
G1 X104.101 Y112.674 E.01718
G1 X95.026 Y103.599 E.40757
G1 X95.026 Y104.139 E.01715
G1 X103.561 Y112.674 E.38331
G1 X103.021 Y112.674 E.01715
G1 X95.026 Y104.679 E.35906
G1 X95.026 Y105.219 E.01715
G1 X102.481 Y112.674 E.33481
G1 X101.941 Y112.674 E.01715
G1 X95.026 Y105.759 E.31056
G1 X95.026 Y106.299 E.01715
G1 X101.401 Y112.674 E.28631
G1 X100.861 Y112.674 E.01715
G1 X95.026 Y106.839 E.26205
G1 X95.026 Y107.379 E.01715
G1 X100.321 Y112.674 E.2378
G1 X99.781 Y112.674 E.01715
G1 X95.026 Y107.919 E.21355
G1 X95.026 Y108.46 E.01718
M73 P8 R16
G1 X99.24 Y112.674 E.18925
G1 X98.7 Y112.674 E.01715
G1 X95.026 Y109 E.165
G1 X95.026 Y109.54 E.01715
M73 P8 R15
G1 X98.16 Y112.674 E.14075
G1 X97.62 Y112.674 E.01715
G1 X95.026 Y110.08 E.1165
G1 X95.026 Y110.62 E.01715
G1 X97.08 Y112.674 E.09225
G1 X96.54 Y112.674 E.01715
G1 X95.026 Y111.16 E.068
G1 X95.026 Y111.7 E.01715
G1 X96 Y112.674 E.04374
G1 X95.46 Y112.674 E.01715
G1 X94.857 Y112.071 E.02708
M204 P1000
; stop printing object rf_shield.stl id:0 copy 2
; printing object rf_shield.stl id:0 copy 3
G1 E-2.24 F4200
;WIPE_START
G1 F7200
G1 X95.46 Y112.674 E-.47258
G1 X96 Y112.674 E-.29925
G1 X95.76 Y112.434 E-.18817
;WIPE_END
G1 Z.4 F720
G1 X115.313 Y66.987 F9000
G1 Z.2 F720
G1 E3.2 F2400
M204 P600
;TYPE:Perimeter
;WIDTH:0.419999
G1 F1200
G1 X115.313 Y85.313 E.5746
G1 X94.687 Y85.313 E.64671
G1 X94.687 Y66.987 E.5746
G1 X115.253 Y66.987 E.64483
M204 P1000
G1 X115.69 Y66.61 F9000
M204 P600
;TYPE:External perimeter
G1 F1200
G1 X115.69 Y85.69 E.59824
G1 X94.31 Y85.69 E.67035
G1 X94.31 Y66.61 E.59824
G1 X115.63 Y66.61 E.66847
M204 P1000
G1 X115.579 Y66.994 F9000
M73 P9 R15
G1 X115.143 Y67.929
M204 P600
;TYPE:Solid infill
;WIDTH:0.42484
G1 F1200
G1 X114.54 Y67.326 E.02708
G1 X114 Y67.326 E.01715
G1 X114.974 Y68.3 E.04374
G1 X114.974 Y68.84 E.01715
G1 X113.46 Y67.326 E.068
G1 X112.92 Y67.326 E.01715
G1 X114.974 Y69.38 E.09225
G1 X114.974 Y69.92 E.01715
G1 X112.38 Y67.326 E.1165
G1 X111.84 Y67.326 E.01715
G1 X114.974 Y70.46 E.14075
G1 X114.974 Y71 E.01715
G1 X111.3 Y67.326 E.165
G1 X110.76 Y67.326 E.01715
G1 X114.974 Y71.54 E.18925
G1 X114.974 Y72.081 E.01718
G1 X110.219 Y67.326 E.21355
G1 X109.679 Y67.326 E.01715
G1 X114.974 Y72.621 E.2378
G1 X114.974 Y73.161 E.01715
G1 X109.139 Y67.326 E.26205
G1 X108.599 Y67.326 E.01715
G1 X114.974 Y73.701 E.28631
G1 X114.974 Y74.241 E.01715
G1 X108.059 Y67.326 E.31056
G1 X107.519 Y67.326 E.01715
G1 X114.974 Y74.781 E.33481
G1 X114.974 Y75.321 E.01715
G1 X106.979 Y67.326 E.35906
G1 X106.439 Y67.326 E.01715
G1 X114.974 Y75.861 E.38331
G1 X114.974 Y76.401 E.01715
G1 X105.899 Y67.326 E.40757
G1 X105.358 Y67.326 E.01718
G1 X114.974 Y76.942 E.43186
G1 X114.974 Y77.482 E.01715
G1 X104.818 Y67.326 E.45611
G1 X104.278 Y67.326 E.01715
G1 X114.974 Y78.022 E.48037
G1 X114.974 Y78.562 E.01715
G1 X103.738 Y67.326 E.50462
G1 X103.198 Y67.326 E.01715
G1 X114.974 Y79.102 E.52887
G1 X114.974 Y79.642 E.01715
M73 P10 R15
G1 X102.658 Y67.326 E.55312
G1 X102.118 Y67.326 E.01715
G1 X114.974 Y80.182 E.57737
G1 X114.974 Y80.722 E.01715
G1 X101.578 Y67.326 E.60163
G1 X101.037 Y67.326 E.01718
G1 X114.974 Y81.263 E.62592
G1 X114.974 Y81.803 E.01715
G1 X100.497 Y67.326 E.65017
G1 X99.957 Y67.326 E.01715
G1 X114.974 Y82.343 E.67443
G1 X114.974 Y82.883 E.01715
G1 X99.417 Y67.326 E.69868
G1 X98.877 Y67.326 E.01715
G1 X114.974 Y83.423 E.72293
G1 X114.974 Y83.963 E.01715
G1 X98.337 Y67.326 E.74718
G1 X97.797 Y67.326 E.01715
G1 X114.974 Y84.503 E.77143
G1 X114.974 Y84.974 E.01496
M73 P11 R15
G1 X114.904 Y84.974 E.00222
G1 X97.257 Y67.326 E.79256
G1 X96.717 Y67.326 E.01715
G1 X114.364 Y84.974 E.79256
G1 X113.824 Y84.974 E.01715
G1 X96.176 Y67.326 E.79259
G1 X95.636 Y67.326 E.01715
G1 X113.283 Y84.974 E.79256
G1 X112.743 Y84.974 E.01715
G1 X95.096 Y67.326 E.79256
G1 X95.026 Y67.326 E.00222
G1 X95.026 Y67.797 E.01496
G1 X112.203 Y84.974 E.77143
G1 X111.663 Y84.974 E.01715
G1 X95.026 Y68.337 E.74718
G1 X95.026 Y68.877 E.01715
G1 X111.123 Y84.974 E.72293
G1 X110.583 Y84.974 E.01715
M73 P12 R15
G1 X95.026 Y69.417 E.69868
G1 X95.026 Y69.957 E.01715
G1 X110.043 Y84.974 E.67443
G1 X109.503 Y84.974 E.01715
G1 X95.026 Y70.497 E.65017
G1 X95.026 Y71.038 E.01718
G1 X108.962 Y84.974 E.62588
G1 X108.422 Y84.974 E.01715
G1 X95.026 Y71.578 E.60163
G1 X95.026 Y72.118 E.01715
G1 X107.882 Y84.974 E.57737
G1 X107.342 Y84.974 E.01715
G1 X95.026 Y72.658 E.55312
G1 X95.026 Y73.198 E.01715
G1 X106.802 Y84.974 E.52887
G1 X106.262 Y84.974 E.01715
G1 X95.026 Y73.738 E.50462
G1 X95.026 Y74.278 E.01715
G1 X105.722 Y84.974 E.48037
G1 X105.182 Y84.974 E.01715
G1 X95.026 Y74.818 E.45611
G1 X95.026 Y75.358 E.01715
M73 P13 R15
G1 X104.642 Y84.974 E.43186
G1 X104.101 Y84.974 E.01718
G1 X95.026 Y75.899 E.40757
G1 X95.026 Y76.439 E.01715
G1 X103.561 Y84.974 E.38331
G1 X103.021 Y84.974 E.01715
G1 X95.026 Y76.979 E.35906
G1 X95.026 Y77.519 E.01715
G1 X102.481 Y84.974 E.33481
G1 X101.941 Y84.974 E.01715
G1 X95.026 Y78.059 E.31056
G1 X95.026 Y78.599 E.01715
G1 X101.401 Y84.974 E.28631
G1 X100.861 Y84.974 E.01715
G1 X95.026 Y79.139 E.26205
G1 X95.026 Y79.679 E.01715
G1 X100.321 Y84.974 E.2378
G1 X99.781 Y84.974 E.01715
G1 X95.026 Y80.219 E.21355
G1 X95.026 Y80.76 E.01718
G1 X99.24 Y84.974 E.18925
G1 X98.7 Y84.974 E.01715
G1 X95.026 Y81.3 E.165
G1 X95.026 Y81.84 E.01715
G1 X98.16 Y84.974 E.14075
G1 X97.62 Y84.974 E.01715
G1 X95.026 Y82.38 E.1165
G1 X95.026 Y82.92 E.01715
G1 X97.08 Y84.974 E.09225
G1 X96.54 Y84.974 E.01715
G1 X95.026 Y83.46 E.068
G1 X95.026 Y84 E.01715
G1 X96 Y84.974 E.04374
G1 X95.46 Y84.974 E.01715
G1 X94.857 Y84.371 E.02708
M204 P1000
; stop printing object rf_shield.stl id:0 copy 3
; printing object rf_shield.stl id:0 copy 0
G1 E-2.24 F4200
;WIPE_START
G1 F7200
G1 X95.46 Y84.974 E-.47258
G1 X96 Y84.974 E-.29925
G1 X95.76 Y84.734 E-.18817
;WIPE_END
G1 Z.4 F720
G1 X85.313 Y66.987 F9000
G1 Z.2 F720
G1 E3.2 F2400
M204 P600
;TYPE:Perimeter
;WIDTH:0.419999
G1 F1200
G1 X85.313 Y85.313 E.5746
G1 X64.687 Y85.313 E.64671
M73 P13 R14
G1 X64.687 Y66.987 E.5746
G1 X85.253 Y66.987 E.64483
M204 P1000
M73 P14 R14
G1 X85.69 Y66.61 F9000
M204 P600
;TYPE:External perimeter
G1 F1200
G1 X85.69 Y85.69 E.59824
G1 X64.31 Y85.69 E.67035
G1 X64.31 Y66.61 E.59824
G1 X85.63 Y66.61 E.66847
M204 P1000
G1 X85.579 Y66.994 F9000
G1 X85.143 Y67.929
M204 P600
;TYPE:Solid infill
;WIDTH:0.42484
G1 F1200
G1 X84.54 Y67.326 E.02708
G1 X84 Y67.326 E.01715
G1 X84.974 Y68.3 E.04374
G1 X84.974 Y68.84 E.01715
G1 X83.46 Y67.326 E.068
G1 X82.92 Y67.326 E.01715
G1 X84.974 Y69.38 E.09225
G1 X84.974 Y69.92 E.01715
G1 X82.38 Y67.326 E.1165
G1 X81.84 Y67.326 E.01715
G1 X84.974 Y70.46 E.14075
G1 X84.974 Y71 E.01715
G1 X81.3 Y67.326 E.165
G1 X80.76 Y67.326 E.01715
G1 X84.974 Y71.54 E.18925
G1 X84.974 Y72.081 E.01718
G1 X80.219 Y67.326 E.21355
G1 X79.679 Y67.326 E.01715
G1 X84.974 Y72.621 E.2378
G1 X84.974 Y73.161 E.01715
G1 X79.139 Y67.326 E.26205
G1 X78.599 Y67.326 E.01715
G1 X84.974 Y73.701 E.28631
G1 X84.974 Y74.241 E.01715
G1 X78.059 Y67.326 E.31056
G1 X77.519 Y67.326 E.01715
G1 X84.974 Y74.781 E.33481
G1 X84.974 Y75.321 E.01715
G1 X76.979 Y67.326 E.35906
G1 X76.439 Y67.326 E.01715
M73 P15 R14
G1 X84.974 Y75.861 E.38331
G1 X84.974 Y76.401 E.01715
G1 X75.899 Y67.326 E.40757
G1 X75.358 Y67.326 E.01718
G1 X84.974 Y76.942 E.43186
G1 X84.974 Y77.482 E.01715
G1 X74.818 Y67.326 E.45611
G1 X74.278 Y67.326 E.01715
G1 X84.974 Y78.022 E.48037
G1 X84.974 Y78.562 E.01715
G1 X73.738 Y67.326 E.50462
G1 X73.198 Y67.326 E.01715
G1 X84.974 Y79.102 E.52887
G1 X84.974 Y79.642 E.01715
G1 X72.658 Y67.326 E.55312
G1 X72.118 Y67.326 E.01715
G1 X84.974 Y80.182 E.57737
G1 X84.974 Y80.722 E.01715
G1 X71.578 Y67.326 E.60163
G1 X71.037 Y67.326 E.01718
G1 X84.974 Y81.263 E.62592
G1 X84.974 Y81.803 E.01715
G1 X70.497 Y67.326 E.65017
G1 X69.957 Y67.326 E.01715
M73 P16 R14
G1 X84.974 Y82.343 E.67443
G1 X84.974 Y82.883 E.01715
G1 X69.417 Y67.326 E.69868
G1 X68.877 Y67.326 E.01715
G1 X84.974 Y83.423 E.72293
G1 X84.974 Y83.963 E.01715
G1 X68.337 Y67.326 E.74718
G1 X67.797 Y67.326 E.01715
G1 X84.974 Y84.503 E.77143
G1 X84.974 Y84.974 E.01496
G1 X84.904 Y84.974 E.00222
G1 X67.257 Y67.326 E.79256
G1 X66.717 Y67.326 E.01715
G1 X84.364 Y84.974 E.79256
G1 X83.824 Y84.974 E.01715
G1 X66.176 Y67.326 E.79259
G1 X65.636 Y67.326 E.01715
G1 X83.283 Y84.974 E.79256
G1 X82.743 Y84.974 E.01715
M73 P17 R14
G1 X65.096 Y67.326 E.79256
G1 X65.026 Y67.326 E.00222
G1 X65.026 Y67.797 E.01496
G1 X82.203 Y84.974 E.77143
G1 X81.663 Y84.974 E.01715
G1 X65.026 Y68.337 E.74718
G1 X65.026 Y68.877 E.01715
G1 X81.123 Y84.974 E.72293
G1 X80.583 Y84.974 E.01715
G1 X65.026 Y69.417 E.69868
G1 X65.026 Y69.957 E.01715
G1 X80.043 Y84.974 E.67443
G1 X79.503 Y84.974 E.01715
G1 X65.026 Y70.497 E.65017
G1 X65.026 Y71.038 E.01718
G1 X78.962 Y84.974 E.62588
G1 X78.422 Y84.974 E.01715
G1 X65.026 Y71.578 E.60163
G1 X65.026 Y72.118 E.01715
M73 P18 R14
G1 X77.882 Y84.974 E.57737
G1 X77.342 Y84.974 E.01715
G1 X65.026 Y72.658 E.55312
G1 X65.026 Y73.198 E.01715
G1 X76.802 Y84.974 E.52887
G1 X76.262 Y84.974 E.01715
G1 X65.026 Y73.738 E.50462
G1 X65.026 Y74.278 E.01715
G1 X75.722 Y84.974 E.48037
G1 X75.182 Y84.974 E.01715
G1 X65.026 Y74.818 E.45611
G1 X65.026 Y75.358 E.01715
G1 X74.642 Y84.974 E.43186
G1 X74.101 Y84.974 E.01718
G1 X65.026 Y75.899 E.40757
G1 X65.026 Y76.439 E.01715
G1 X73.561 Y84.974 E.38331
G1 X73.021 Y84.974 E.01715
G1 X65.026 Y76.979 E.35906
G1 X65.026 Y77.519 E.01715
G1 X72.481 Y84.974 E.33481
G1 X71.941 Y84.974 E.01715
G1 X65.026 Y78.059 E.31056
G1 X65.026 Y78.599 E.01715
G1 X71.401 Y84.974 E.28631
G1 X70.861 Y84.974 E.01715
G1 X65.026 Y79.139 E.26205
G1 X65.026 Y79.679 E.01715
M73 P19 R14
G1 X70.321 Y84.974 E.2378
G1 X69.781 Y84.974 E.01715
G1 X65.026 Y80.219 E.21355
G1 X65.026 Y80.76 E.01718
G1 X69.24 Y84.974 E.18925
G1 X68.7 Y84.974 E.01715
G1 X65.026 Y81.3 E.165
G1 X65.026 Y81.84 E.01715
G1 X68.16 Y84.974 E.14075
G1 X67.62 Y84.974 E.01715
G1 X65.026 Y82.38 E.1165
G1 X65.026 Y82.92 E.01715
G1 X67.08 Y84.974 E.09225
G1 X66.54 Y84.974 E.01715
G1 X65.026 Y83.46 E.068
G1 X65.026 Y84 E.01715
G1 X66 Y84.974 E.04374
G1 X65.46 Y84.974 E.01715
G1 X64.857 Y84.371 E.02708
M204 P1000
; stop printing object rf_shield.stl id:0 copy 0
; printing object rf_shield.stl id:0 copy 1
G1 E-2.24 F4200
