; generated by PrusaSlicer 2.6.0+linux-x64-GTK3 on 2023-08-03 at 14:19:50 UTC


;
;

;
;
; 

; external perimeters extrusion width = 0.45mm
; perimeters extrusion width = 0.45mm
; infill extrusion width = 0.45mm
; solid infill extrusion width = 0.45mm
; top infill extrusion width = 0.40mm
; first layer extrusion width = 0.42mm

M73 P0 R43
M201 X2500 Y2500 Z400 E5000 ; sets maximum accelerations, mm/sec^2
M203 X180 Y180 Z12 E80 ; sets maximum feedrates, mm / sec
M204 P2000 R1250 T2500 ; sets acceleration (P, T) and retract acceleration (R), mm/sec^2
M205 X8.00 Y8.00 Z2.00 E10.00 ; sets the jerk limits, mm/sec
M205 S0 T0 ; sets the minimum extruding and travel feed rate, mm/sec
;TYPE:Custom
M862.3 P "MINI" ; printer model check
G90 ; use absolute coordinates
M83 ; extruder relative mode
M104 S170 ; set extruder temp for bed leveling
M140 S60 ; set bed temp
M109 R170 ; wait for bed leveling temp
M190 S60 ; wait for bed temp
M204 T1250 ; set travel acceleration
G28 ; home all without mesh bed level
G29 ; mesh bed leveling 
M204 T2500 ; restore travel acceleration
M104 S215 ; set extruder temp
G92 E0
G1 Y-2 X179 F2400
G1 Z3 F720
M109 S215 ; wait for extruder temp

; intro line
G1 X170 F1000
G1 Z0.2 F720
G1 X110 E8 F900
G1 X40 E10 F700
G92 E0

M221 S95 ; set flow
G21 ; set units to millimeters
G90 ; use absolute coordinates
M83 ; use relative distances for extrusion
M900 K0.2 ; Filament gcode LA 1.5
; ; Filament gcode LA 1.0
M107
;LAYER_CHANGE
;Z:0.2
;HEIGHT:0.2
;BEFORE_LAYER_CHANGE
G92 E0.0
;0.2


M73 P0 R42
G1 E-3.2 F4200
G1 Z.2 F720
;AFTER_LAYER_CHANGE
;0.2
G1 Z.4
G1 X52.219 Y61.619 F9000
G1 Z.2 F720
G1 E3.2 F2400
M204 P600
;TYPE:Skirt/Brim
;WIDTH:0.42
G1 F1200
G1 X53.9 Y60.923 E.05705
G1 X126.1 Y60.923 E2.26378
G1 X127.781 Y61.619 E.05705
G1 X128.281 Y62.119 E.02217
G1 X128.977 Y63.8 E.05705
G1 X128.977 Y116.2 E1.64297
G1 X128.281 Y117.881 E.05705
G1 X127.781 Y118.381 E.02217
G1 X126.1 Y119.077 E.05705
G1 X53.9 Y119.077 E2.26378
G1 X52.219 Y118.381 E.05705
M73 P1 R42
G1 X51.719 Y117.881 E.02217
G1 X51.023 Y116.2 E.05705
G1 X51.023 Y63.8 E1.64297
G1 X51.719 Y62.119 E.05705
G1 X52.177 Y61.662 E.02029
M204 P1000
; printing object tfsik_box.stl id:0 copy 0
G1 E-2.24 F4200
;WIPE_START
G1 F7200
G1 X53.769 Y60.979 E-.96
;WIPE_END
G1 Z.4 F720
G1 X106.852 Y64.723 F9000
G1 Z.2 F720
G1 E3.2 F2400
M204 P600
;TYPE:Perimeter
;WIDTH:0.419999
G1 F1200
G1 X106.887 Y64.621 E.00338
G1 X106.887 Y64.487 E.0042
G1 X113.113 Y64.487 E.19521
G1 X113.113 Y64.621 E.0042
G1 X113.235 Y64.972 E.01165
G1 X113.423 Y65.126 E.00762
G1 X113.679 Y65.187 E.00825
G1 X121.121 Y65.187 E.23334
G1 X121.357 Y65.136 E.00757
G1 X121.593 Y64.934 E.00974
G1 X121.687 Y64.621 E.01025
G1 X121.687 Y64.487 E.0042
G1 X125.413 Y64.487 E.11683
G1 X125.413 Y115.513 E1.59988
G1 X94.587 Y115.513 E.96653
G1 X94.587 Y64.487 E1.59988
G1 X98.313 Y64.487 E.11683
G1 X98.313 Y64.621 E.0042
G1 X98.407 Y64.934 E.01025
G1 X98.643 Y65.136 E.00974
G1 X98.879 Y65.187 E.00757
G1 X106.321 Y65.187 E.23334
G1 X106.515 Y65.153 E.00618
G1 X106.765 Y64.972 E.00968
G1 X106.832 Y64.78 E.00638
M204 P1000
G1 X106.51 Y64.621 F9000
M204 P600
;TYPE:External perimeter
G1 F1200
G1 X106.51 Y64.11 E.01602
G1 X113.49 Y64.11 E.21885
G1 X113.49 Y64.621 E.01602
G1 X113.531 Y64.738 E.00389
G1 X113.679 Y64.81 E.00516
G1 X121.121 Y64.81 E.23334
G1 X121.243 Y64.765 E.00408
G1 X121.31 Y64.621 E.00498
G1 X121.31 Y64.11 E.01602
G1 X125.79 Y64.11 E.14047
G1 X125.79 Y115.89 E1.62352
G1 X94.21 Y115.89 E.99017
G1 X94.21 Y64.11 E1.62352
G1 X98.69 Y64.11 E.14047
G1 X98.69 Y64.621 E.01602
G1 X98.757 Y64.765 E.00498
G1 X98.879 Y64.81 E.00408
G1 X106.321 Y64.81 E.23334
G1 X106.431 Y64.775 E.00362
G1 X106.483 Y64.675 E.00353
M204 P1000
G1 X106.896 Y64.518 F9000
G1 E-2.24 F4200
;WIPE_START
G1 F7200
G1 X106.51 Y64.11 E-.31346
G1 X107.677 Y64.11 E-.64654
;WIPE_END
G1 Z.4 F720
G1 X125.243 Y65.421 F9000
G1 Z.2 F720
G1 E3.2 F2400
M204 P600
;TYPE:Solid infill
;WIDTH:0.420889
G1 F1200
G1 X124.649 Y64.826 E.02642
G1 X124.114 Y64.826 E.01681
G1 X125.074 Y65.786 E.04267
G1 X125.074 Y66.32 E.01678
G1 X123.58 Y64.826 E.0664
G1 X123.045 Y64.826 E.01681
G1 X125.074 Y66.855 E.09018
G1 X125.074 Y67.389 E.01678
G1 X122.511 Y64.826 E.11392
G1 X121.976 Y64.826 E.01681
G1 X125.074 Y67.924 E.13769
G1 X125.074 Y68.458 E.01678
G1 X121.811 Y65.196 E.14501
G1 X121.708 Y65.313 E.0049
G1 X121.516 Y65.435 E.00715
G1 X125.074 Y68.993 E.15814
G1 X125.074 Y69.527 E.01678
G1 X121.073 Y65.526 E.17783
G1 X120.538 Y65.526 E.01681
G1 X125.074 Y70.062 E.20161
G1 X125.074 Y70.597 E.01681
G1 X120.003 Y65.526 E.22539
G1 X119.469 Y65.526 E.01678
G1 X125.074 Y71.131 E.24912
G1 X125.074 Y71.666 E.01681
G1 X118.934 Y65.526 E.2729
G1 X118.399 Y65.526 E.01681
G1 X125.074 Y72.2 E.29666
G1 X125.074 Y72.735 E.01681
M73 P2 R42
G1 X117.865 Y65.526 E.32041
G1 X117.33 Y65.526 E.01681
G1 X125.074 Y73.269 E.34417
G1 X125.074 Y73.804 E.01681
G1 X116.795 Y65.526 E.36795
G1 X116.261 Y65.525 E.01678
G1 X125.074 Y74.338 E.3917
G1 X125.074 Y74.873 E.01681
G1 X115.726 Y65.525 E.41548
G1 X115.192 Y65.525 E.01678
G1 X125.074 Y75.407 E.43922
G1 X125.074 Y75.942 E.01681
G1 X114.657 Y65.525 E.463
G1 X114.122 Y65.525 E.01681
G1 X125.074 Y76.476 E.48675
G1 X125.074 Y77.011 E.01681
G1 X113.581 Y65.519 E.5108
G1 X113.436 Y65.494 E.00462
G1 X113.271 Y65.43 E.00556
G1 X113.149 Y65.356 E.00448
G1 X112.956 Y65.173 E.00836
G1 X112.836 Y64.826 E.01154
G1 X112.355 Y64.826 E.01512
G1 X125.074 Y77.545 E.56531
G1 X125.074 Y78.08 E.01681
G1 X111.82 Y64.826 E.58909
G1 X111.286 Y64.826 E.01678
G1 X125.074 Y78.614 E.61282
G1 X125.074 Y79.149 E.01681
G1 X110.751 Y64.826 E.6366
G1 X110.216 Y64.826 E.01681
G1 X125.074 Y79.684 E.66038
G1 X125.074 Y80.218 E.01678
G1 X109.682 Y64.826 E.68412
G1 X109.147 Y64.826 E.01681
G1 X125.074 Y80.753 E.7079
G1 X125.074 Y81.287 E.01678
G1 X108.613 Y64.826 E.73163
G1 X108.078 Y64.826 E.01681
G1 X125.074 Y81.822 E.75541
G1 X125.074 Y82.356 E.01678
M73 P2 R41
G1 X107.544 Y64.826 E.77914
G1 X107.164 Y64.826 E.01194
G1 X107.124 Y64.941 E.00383
G1 X125.074 Y82.891 E.79781
G1 X125.074 Y83.425 E.01678
G1 X106.93 Y65.281 E.80643
G1 X106.851 Y65.356 E.00342
G1 X106.727 Y65.431 E.00455
G1 X106.594 Y65.48 E.00445
G1 X125.074 Y83.96 E.82137
G1 X125.074 Y84.494 E.01678
G1 X106.106 Y65.526 E.84306
G1 X105.571 Y65.526 E.01681
G1 X125.074 Y85.029 E.86684
G1 X125.074 Y85.563 E.01678
G1 X105.037 Y65.526 E.89057
G1 X104.502 Y65.526 E.01681
M73 P3 R41
G1 X125.074 Y86.098 E.91435
G1 X125.074 Y86.632 E.01678
G1 X103.968 Y65.526 E.93808
G1 X103.433 Y65.526 E.01681
G1 X125.074 Y87.167 E.96186
G1 X125.074 Y87.701 E.01678
G1 X102.899 Y65.526 E.9856
G1 X102.364 Y65.526 E.01681
G1 X125.074 Y88.236 E1.00937
G1 X125.074 Y88.77 E.01678
G1 X101.83 Y65.526 E1.03311
G1 X101.295 Y65.526 E.01681
G1 X125.074 Y89.305 E1.05689
G1 X125.074 Y89.84 E.01681
G1 X100.76 Y65.526 E1.08067
G1 X100.226 Y65.526 E.01678
G1 X125.074 Y90.374 E1.1044
G1 X125.074 Y90.909 E.01681
G1 X99.691 Y65.526 E1.12818
G1 X99.157 Y65.526 E.01678
G1 X125.074 Y91.443 E1.15191
G1 X125.074 Y91.978 E.01681
G1 X97.922 Y64.826 E1.2068
G1 X97.388 Y64.826 E.01678
G1 X125.074 Y92.512 E1.23054
G1 X125.074 Y93.047 E.01681
G1 X96.853 Y64.826 E1.25432
G1 X96.319 Y64.826 E.01678
G1 X125.074 Y93.581 E1.27805
G1 X125.074 Y94.116 E.01681
M73 P4 R41
G1 X95.784 Y64.826 E1.30183
G1 X95.25 Y64.826 E.01678
G1 X125.074 Y94.65 E1.32557
G1 X125.074 Y95.185 E.01681
G1 X94.926 Y65.038 E1.33994
G1 X94.926 Y65.572 E.01678
G1 X125.074 Y95.719 E1.33994
G1 X125.074 Y96.254 E.01681
G1 X94.926 Y66.107 E1.33994
G1 X94.926 Y66.641 E.01678
G1 X125.074 Y96.788 E1.33994
G1 X125.074 Y97.323 E.01681
G1 X94.926 Y67.176 E1.33994
G1 X94.926 Y67.71 E.01678
G1 X125.074 Y97.857 E1.33994
G1 X125.074 Y98.392 E.01681
G1 X94.926 Y68.245 E1.33994
G1 X94.926 Y68.779 E.01678
G1 X125.074 Y98.927 E1.33997
G1 X125.074 Y99.461 E.01678
G1 X94.926 Y69.314 E1.33994
G1 X94.926 Y69.848 E.01678
M73 P4 R40
G1 X125.074 Y99.996 E1.33997
G1 X125.074 Y100.53 E.01678
M73 P5 R40
G1 X94.926 Y70.383 E1.33994
G1 X94.926 Y70.918 E.01681
G1 X125.074 Y101.065 E1.33994
G1 X125.074 Y101.599 E.01678
G1 X94.926 Y71.452 E1.33994
G1 X94.926 Y71.987 E.01681
G1 X125.074 Y102.134 E1.33994
G1 X125.074 Y102.668 E.01678
G1 X94.926 Y72.521 E1.33994
G1 X94.926 Y73.056 E.01681
G1 X125.074 Y103.203 E1.33994
G1 X125.074 Y103.737 E.01678
G1 X94.926 Y73.59 E1.33994
G1 X94.926 Y74.125 E.01681
G1 X125.074 Y104.272 E1.33994
G1 X125.074 Y104.806 E.01678
G1 X94.926 Y74.659 E1.33994
G1 X94.926 Y75.194 E.01681
G1 X125.074 Y105.341 E1.33994
G1 X125.074 Y105.875 E.01678
G1 X94.926 Y75.728 E1.33994
G1 X94.926 Y76.263 E.01681
G1 X125.074 Y106.41 E1.33994
G1 X125.074 Y106.944 E.01678
M73 P6 R40
G1 X94.926 Y76.797 E1.33994
G1 X94.926 Y77.332 E.01681
G1 X125.074 Y107.479 E1.33994
G1 X125.074 Y108.014 E.01681
G1 X94.926 Y77.866 E1.33997
G1 X94.926 Y78.401 E.01681
G1 X125.074 Y108.548 E1.33994
G1 X125.074 Y109.083 E.01681
G1 X94.926 Y78.935 E1.33997
G1 X94.926 Y79.47 E.01681
G1 X125.074 Y109.617 E1.33994
G1 X125.074 Y110.152 E.01681
G1 X94.926 Y80.005 E1.33994
G1 X94.926 Y80.539 E.01678
G1 X125.074 Y110.686 E1.33994
G1 X125.074 Y111.221 E.01681
G1 X94.926 Y81.074 E1.33994
G1 X94.926 Y81.608 E.01678
G1 X125.074 Y111.755 E1.33994
G1 X125.074 Y112.29 E.01681
G1 X94.926 Y82.143 E1.33994
G1 X94.926 Y82.677 E.01678
G1 X125.074 Y112.824 E1.33994
G1 X125.074 Y113.359 E.01681
M73 P7 R40
G1 X94.926 Y83.212 E1.33994
G1 X94.926 Y83.746 E.01678
G1 X125.074 Y113.893 E1.33994
G1 X125.074 Y114.428 E.01681
G1 X94.926 Y84.281 E1.33994
G1 X94.926 Y84.815 E.01678
M73 P7 R39
G1 X125.074 Y114.962 E1.33994
G1 X125.074 Y115.174 E.00666
G1 X124.75 Y115.174 E.01018
G1 X94.926 Y85.35 E1.32557
G1 X94.926 Y85.884 E.01678
G1 X124.216 Y115.174 E1.30183
G1 X123.681 Y115.174 E.01681
G1 X94.926 Y86.419 E1.27805
G1 X94.926 Y86.953 E.01678
G1 X123.147 Y115.174 E1.25432
G1 X122.612 Y115.174 E.01681
G1 X94.926 Y87.488 E1.23054
G1 X94.926 Y88.022 E.01678
G1 X122.078 Y115.174 E1.2068
G1 X121.543 Y115.174 E.01681
G1 X94.926 Y88.557 E1.18303
G1 X94.926 Y89.092 E.01681
G1 X121.008 Y115.174 E1.15925
G1 X120.474 Y115.174 E.01678
M73 P8 R39
G1 X94.926 Y89.626 E1.13551
G1 X94.926 Y90.161 E.01681
G1 X119.939 Y115.174 E1.11173
G1 X119.405 Y115.174 E.01678
G1 X94.926 Y90.695 E1.088
G1 X94.926 Y91.23 E.01681
G1 X118.87 Y115.174 E1.06422
G1 X118.336 Y115.174 E.01678
G1 X94.926 Y91.764 E1.04049
G1 X94.926 Y92.299 E.01681
G1 X117.801 Y115.174 E1.01671
G1 X117.267 Y115.174 E.01678
G1 X94.926 Y92.833 E.99297
G1 X94.926 Y93.368 E.01681
G1 X116.732 Y115.174 E.9692
G1 X116.198 Y115.174 E.01678
G1 X94.926 Y93.902 E.94546
G1 X94.926 Y94.437 E.01681
G1 X115.663 Y115.174 E.92168
G1 X115.129 Y115.174 E.01678
G1 X94.926 Y94.971 E.89795
G1 X94.926 Y95.506 E.01681
G1 X114.594 Y115.174 E.87417
G1 X114.06 Y115.174 E.01678
G1 X94.926 Y96.04 E.85043
G1 X94.926 Y96.575 E.01681
G1 X113.525 Y115.174 E.82666
G1 X112.991 Y115.174 E.01678
G1 X94.926 Y97.109 E.80292
G1 X94.926 Y97.644 E.01681
G1 X112.456 Y115.174 E.77914
G1 X111.921 Y115.174 E.01681
G1 X94.926 Y98.179 E.75536
G1 X94.926 Y98.713 E.01678
M73 P9 R39
G1 X111.387 Y115.174 E.73163
G1 X110.852 Y115.174 E.01681
G1 X94.926 Y99.248 E.70785
G1 X94.926 Y99.782 E.01678
G1 X110.318 Y115.174 E.68412
G1 X109.783 Y115.174 E.01681
G1 X94.926 Y100.317 E.66034
G1 X94.926 Y100.851 E.01678
G1 X109.249 Y115.174 E.6366
G1 X108.714 Y115.174 E.01681
G1 X94.926 Y101.386 E.61282
G1 X94.926 Y101.92 E.01678
G1 X108.18 Y115.174 E.58909
G1 X107.645 Y115.174 E.01681
G1 X94.926 Y102.455 E.56531
G1 X94.926 Y102.989 E.01678
G1 X107.111 Y115.174 E.54158
G1 X106.576 Y115.174 E.01681
G1 X94.926 Y103.524 E.5178
G1 X94.926 Y104.058 E.01678
G1 X106.042 Y115.174 E.49406
G1 X105.507 Y115.174 E.01681
G1 X94.926 Y104.593 E.47029
G1 X94.926 Y105.127 E.01678
G1 X104.973 Y115.174 E.44655
G1 X104.438 Y115.174 E.01681
G1 X94.926 Y105.662 E.42277
G1 X94.926 Y106.196 E.01678
G1 X103.904 Y115.174 E.39904
G1 X103.369 Y115.174 E.01681
M73 P9 R38
G1 X94.926 Y106.731 E.37526
G1 X94.926 Y107.266 E.01681
G1 X102.835 Y115.174 E.3515
G1 X102.3 Y115.174 E.01681
G1 X94.926 Y107.8 E.32775
G1 X94.926 Y108.335 E.01681
G1 X101.765 Y115.174 E.30397
G1 X101.231 Y115.174 E.01678
G1 X94.926 Y108.869 E.28023
G1 X94.926 Y109.404 E.01681
G1 X100.696 Y115.174 E.25645
G1 X100.162 Y115.174 E.01678
G1 X94.926 Y109.938 E.23272
G1 X94.926 Y110.473 E.01681
G1 X99.627 Y115.174 E.20894
G1 X99.093 Y115.174 E.01678
G1 X94.926 Y111.007 E.18521
G1 X94.926 Y111.542 E.01681
G1 X98.558 Y115.174 E.16143
G1 X98.024 Y115.174 E.01678
G1 X94.926 Y112.076 E.13769
G1 X94.926 Y112.611 E.01681
G1 X97.489 Y115.174 E.11392
G1 X96.955 Y115.174 E.01678
G1 X94.926 Y113.145 E.09018
G1 X94.926 Y113.68 E.01681
G1 X96.42 Y115.174 E.0664
G1 X95.886 Y115.174 E.01678
G1 X94.926 Y114.214 E.04267
G1 X94.926 Y114.749 E.01681
G1 X95.521 Y115.343 E.02642
M204 P1000
G1 E-2.24 F4200
;WIPE_START
G1 F7200
G1 X94.926 Y114.749 E-.46592
G1 X94.926 Y114.214 E-.29648
G1 X95.178 Y114.466 E-.1976
;WIPE_END
G1 Z.4 F720
G1 X85.413 Y115.513 F9000
G1 Z.2 F720
G1 E3.2 F2400
M204 P600
;TYPE:Perimeter
;WIDTH:0.419999
G1 F1200
G1 X54.587 Y115.513 E.96653
G1 X54.587 Y64.487 E1.59988
G1 X72.478 Y64.487 E.56096
G1 X73.194 Y64.587 E.02267
M73 P10 R38
G1 X82.106 Y64.587 E.27943
G1 X82.671 Y64.487 E.01799
G1 X85.413 Y64.487 E.08597
G1 X85.413 Y115.453 E1.598
M204 P1000
G1 X85.79 Y115.89 F9000
M204 P600
;TYPE:External perimeter
G1 F1200
G1 X54.21 Y115.89 E.99017
G1 X54.21 Y64.11 E1.62352
G1 X72.688 Y64.11 E.57936
G1 X72.888 Y64.175 E.00659
G1 X73.194 Y64.21 E.00966
G1 X82.106 Y64.21 E.27943
G1 X82.374 Y64.183 E.00845
G1 X82.612 Y64.11 E.00781
G1 X85.79 Y64.11 E.09964
G1 X85.79 Y115.83 E1.62164
M204 P1000
G1 X85.44 Y115.697 F9000
G1 E-2.24 F4200
;WIPE_START
G1 F7200
G1 X84.058 Y115.833 E-.96
;WIPE_END
G1 Z.4 F720
G1 X56.759 Y72.794 F9000
G1 Z.2 F720
G1 E3.2 F2400
M204 P600
;TYPE:Perimeter
G1 F1200
G1 X56.517 Y72.373 E.01523
G1 X56.398 Y71.966 E.0133
G1 X56.363 Y71.606 E.01134
G1 X56.363 Y67.594 E.12579
G1 X56.432 Y67.091 E.01592
G1 X56.598 Y66.661 E.01445
G1 X56.976 Y66.15 E.01993
G1 X57.297 Y65.891 E.01293
G1 X57.883 Y65.636 E.02004
G1 X58.378 Y65.564 E.01568
G1 X58.938 Y65.641 E.01772
G1 X59.366 Y65.809 E.01442
G1 X59.805 Y66.128 E.01701
G1 X60.081 Y66.452 E.01334
G1 X60.283 Y66.827 E.01336
G1 X60.402 Y67.234 E.0133
G1 X60.437 Y67.594 E.01134
G1 X60.437 Y71.606 E.12579
G1 X60.378 Y72.081 E.01501
G1 X60.219 Y72.506 E.01423
G1 X59.932 Y72.942 E.01637
G1 X59.523 Y73.294 E.01692
G1 X59.066 Y73.525 E.01606
G1 X58.489 Y73.63 E.01839
G1 X57.919 Y73.578 E.01795
G1 X57.494 Y73.419 E.01423
G1 X56.995 Y73.072 E.01906
G1 X56.798 Y72.84 E.00954
M204 P1000
G1 X57.096 Y72.617 F9000
M204 P600
;TYPE:External perimeter
G1 F1200
G1 X57.046 Y72.559 E.0024
G1 X56.876 Y72.257 E.01087
G1 X56.773 Y71.926 E.01087
G1 X56.74 Y71.606 E.01009
G1 X56.74 Y67.594 E.12579
G1 X56.784 Y67.226 E.01162
G1 X56.95 Y66.796 E.01445
G1 X57.269 Y66.388 E.01624
G1 X57.562 Y66.171 E.01143
G1 X58.061 Y65.975 E.01681
G1 X58.406 Y65.943 E.01086
G1 X58.932 Y66.028 E.01671
G1 X59.247 Y66.173 E.01087
G1 X59.525 Y66.38 E.01087
G1 X59.754 Y66.641 E.01089
G1 X59.924 Y66.943 E.01087
G1 X60.027 Y67.274 E.01087
G1 X60.06 Y67.594 E.01009
G1 X60.06 Y71.606 E.12579
G1 X60.019 Y71.964 E.0113
G1 X59.903 Y72.301 E.01117
G1 X59.627 Y72.718 E.01568
G1 X59.351 Y72.958 E.01147
G1 X58.885 Y73.186 E.01627
G1 X58.38 Y73.259 E.016
G1 X58.036 Y73.219 E.01086
G1 X57.699 Y73.103 E.01117
G1 X57.275 Y72.82 E.01598
G1 X57.136 Y72.662 E.0066
M204 P1000
G1 X57.023 Y72.636 F9000
G1 E-2.24 F4200
;WIPE_START
G1 F7200
G1 X57.046 Y72.559 E-.0758
G1 X56.876 Y72.257 E-.19205
G1 X56.773 Y71.926 E-.1921
G1 X56.74 Y71.606 E-.17827
G1 X56.74 Y71.025 E-.32178
;WIPE_END
G1 Z.4 F720
G1 X84.479 Y64.657 F9000
G1 Z.2 F720
G1 E3.2 F2400
M204 P600
;TYPE:Solid infill
;WIDTH:0.420889
G1 F1200
G1 X85.074 Y65.251 E.02642
G1 X85.074 Y65.786 E.01681
G1 X84.114 Y64.826 E.04267
G1 X83.58 Y64.826 E.01678
G1 X85.074 Y66.32 E.0664
G1 X85.074 Y66.855 E.01681
G1 X83.045 Y64.826 E.09018
G1 X82.724 Y64.826 E.01009
G1 X82.56 Y64.876 E.00539
G1 X85.074 Y67.389 E.11172
