; generated by PrusaSlicer 2.6.0+linux-x64-GTK3 on 2023-08-02 at 13:01:40 UTC


;
;

;
;
; 

; external perimeters extrusion width = 0.45mm
; perimeters extrusion width = 0.45mm
; infill extrusion width = 0.45mm
; solid infill extrusion width = 0.45mm
; top infill extrusion width = 0.40mm
; first layer extrusion width = 0.42mm

M73 P0 R21
M201 X2500 Y2500 Z400 E5000 ; sets maximum accelerations, mm/sec^2
M203 X180 Y180 Z12 E80 ; sets maximum feedrates, mm / sec
M204 P2000 R1250 T2500 ; sets acceleration (P, T) and retract acceleration (R), mm/sec^2
M205 X8.00 Y8.00 Z2.00 E10.00 ; sets the jerk limits, mm/sec
M205 S0 T0 ; sets the minimum extruding and travel feed rate, mm/sec
;TYPE:Custom
M862.3 P "MINI" ; printer model check
G90 ; use absolute coordinates
M83 ; extruder relative mode
M104 S170 ; set extruder temp for bed leveling
M140 S60 ; set bed temp
M109 R170 ; wait for bed leveling temp
M190 S60 ; wait for bed temp
M204 T1250 ; set travel acceleration
G28 ; home all without mesh bed level
G29 ; mesh bed leveling 
M204 T2500 ; restore travel acceleration
M104 S215 ; set extruder temp
G92 E0
G1 Y-2 X179 F2400
G1 Z3 F720
M109 S215 ; wait for extruder temp

; intro line
G1 X170 F1000
G1 Z0.2 F720
G1 X110 E8 F900
G1 X40 E10 F700
G92 E0

M221 S95 ; set flow
G21 ; set units to millimeters
G90 ; use absolute coordinates
M83 ; use relative distances for extrusion
M900 K0.2 ; Filament gcode LA 1.5
; ; Filament gcode LA 1.0
M107
;LAYER_CHANGE
;Z:0.2
;HEIGHT:0.2
;BEFORE_LAYER_CHANGE
G92 E0.0
;0.2


G1 E-3.2 F4200
M73 P1 R21
G1 Z.2 F720
;AFTER_LAYER_CHANGE
;0.2
G1 Z.4
G1 X71.719 Y62.119 F9000
G1 Z.2 F720
G1 E3.2 F2400
M204 P600
;TYPE:Skirt/Brim
;WIDTH:0.42
G1 F1200
G1 X72.219 Y61.619 E.02217
G1 X73.9 Y60.923 E.05705
G1 X106.1 Y60.923 E1.00961
G1 X107.781 Y61.619 E.05705
G1 X108.281 Y62.119 E.02217
G1 X108.977 Y63.8 E.05705
G1 X108.977 Y116.2 E1.64297
G1 X108.281 Y117.881 E.05705
G1 X107.781 Y118.381 E.02217
G1 X106.1 Y119.077 E.05705
G1 X73.9 Y119.077 E1.00961
G1 X72.219 Y118.381 E.05705
G1 X71.719 Y117.881 E.02217
G1 X71.023 Y116.2 E.05705
G1 X71.023 Y63.8 E1.64297
G1 X71.696 Y62.175 E.05515
M204 P1000
; printing object tfsik_box.stl id:0 copy 0
G1 E-2.24 F4200
;WIPE_START
G1 F7200
G1 X72.219 Y61.619 E-.42301
G1 X73.114 Y61.248 E-.53699
;WIPE_END
G1 Z.4 F720
G1 X105.413 Y64.487 F9000
G1 Z.2 F720
G1 E3.2 F2400
M204 P600
;TYPE:Perimeter
;WIDTH:0.419999
G1 F1200
M73 P2 R21
G1 X105.413 Y115.513 E1.59988
G1 X74.587 Y115.513 E.96653
G1 X74.587 Y64.487 E1.59988
G1 X105.353 Y64.487 E.96464
M204 P1000
G1 X105.79 Y64.11 F9000
M204 P600
;TYPE:External perimeter
G1 F1200
G1 X105.79 Y115.89 E1.62352
G1 X74.21 Y115.89 E.99017
G1 X74.21 Y64.11 E1.62352
G1 X105.73 Y64.11 E.98829
M204 P1000
M73 P3 R21
G1 X105.717 Y64.503 F9000
G1 X105.243 Y65.421
M204 P600
;TYPE:Solid infill
;WIDTH:0.420888
G1 F1200
G1 X104.649 Y64.826 E.02642
G1 X104.114 Y64.826 E.01681
G1 X105.074 Y65.786 E.04267
G1 X105.074 Y66.32 E.01678
G1 X103.58 Y64.826 E.0664
G1 X103.045 Y64.826 E.01681
G1 X105.074 Y66.855 E.09018
G1 X105.074 Y67.389 E.01678
G1 X102.511 Y64.826 E.11392
G1 X101.976 Y64.826 E.01681
G1 X105.074 Y67.924 E.13769
G1 X105.074 Y68.458 E.01678
G1 X101.442 Y64.826 E.16143
G1 X100.907 Y64.826 E.01681
G1 X105.074 Y68.993 E.18521
G1 X105.074 Y69.527 E.01678
G1 X100.373 Y64.826 E.20894
G1 X99.838 Y64.826 E.01681
G1 X105.074 Y70.062 E.23272
G1 X105.074 Y70.597 E.01681
G1 X99.303 Y64.826 E.2565
G1 X98.769 Y64.826 E.01678
G1 X105.074 Y71.131 E.28023
G1 X105.074 Y71.666 E.01681
G1 X98.234 Y64.826 E.30401
G1 X97.7 Y64.826 E.01678
G1 X105.074 Y72.2 E.32775
G1 X105.074 Y72.735 E.01681
G1 X97.165 Y64.826 E.35152
G1 X96.631 Y64.826 E.01678
G1 X105.074 Y73.269 E.37526
G1 X105.074 Y73.804 E.01681
G1 X96.096 Y64.826 E.39904
G1 X95.562 Y64.826 E.01678
G1 X105.074 Y74.338 E.42277
G1 X105.074 Y74.873 E.01681
M73 P3 R20
G1 X95.027 Y64.826 E.44655
G1 X94.493 Y64.826 E.01678
G1 X105.074 Y75.407 E.47028
G1 X105.074 Y75.942 E.01681
G1 X93.958 Y64.826 E.49406
G1 X93.424 Y64.826 E.01678
M73 P4 R20
G1 X105.074 Y76.476 E.5178
G1 X105.074 Y77.011 E.01681
G1 X92.889 Y64.826 E.54158
G1 X92.355 Y64.826 E.01678
G1 X105.074 Y77.545 E.56531
G1 X105.074 Y78.08 E.01681
G1 X91.82 Y64.826 E.58909
G1 X91.286 Y64.826 E.01678
G1 X105.074 Y78.614 E.61282
G1 X105.074 Y79.149 E.01681
G1 X90.751 Y64.826 E.6366
G1 X90.217 Y64.826 E.01678
G1 X105.074 Y79.683 E.66034
G1 X105.074 Y80.218 E.01681
G1 X89.682 Y64.826 E.68412
G1 X89.147 Y64.826 E.01681
G1 X105.074 Y80.753 E.70789
G1 X105.074 Y81.287 E.01678
G1 X88.613 Y64.826 E.73163
G1 X88.078 Y64.826 E.01681
G1 X105.074 Y81.822 E.75541
G1 X105.074 Y82.356 E.01678
G1 X87.544 Y64.826 E.77914
G1 X87.009 Y64.826 E.01681
G1 X105.074 Y82.891 E.80292
G1 X105.074 Y83.425 E.01678
M73 P5 R20
G1 X86.475 Y64.826 E.82665
G1 X85.94 Y64.826 E.01681
G1 X105.074 Y83.96 E.85043
G1 X105.074 Y84.494 E.01678
G1 X85.406 Y64.826 E.87417
G1 X84.871 Y64.826 E.01681
G1 X105.074 Y85.029 E.89795
G1 X105.074 Y85.563 E.01678
G1 X84.337 Y64.826 E.92168
G1 X83.802 Y64.826 E.01681
G1 X105.074 Y86.098 E.94546
G1 X105.074 Y86.632 E.01678
G1 X83.268 Y64.826 E.96919
G1 X82.733 Y64.826 E.01681
G1 X105.074 Y87.167 E.99297
G1 X105.074 Y87.701 E.01678
M73 P6 R20
G1 X82.199 Y64.826 E1.01671
G1 X81.664 Y64.826 E.01681
G1 X105.074 Y88.236 E1.04048
G1 X105.074 Y88.77 E.01678
G1 X81.13 Y64.826 E1.06422
G1 X80.595 Y64.826 E.01681
G1 X105.074 Y89.305 E1.088
G1 X105.074 Y89.839 E.01678
G1 X80.061 Y64.826 E1.11173
G1 X79.526 Y64.826 E.01681
G1 X105.074 Y90.374 E1.13551
G1 X105.074 Y90.909 E.01681
G1 X78.991 Y64.826 E1.15929
G1 X78.457 Y64.826 E.01678
G1 X105.074 Y91.443 E1.18302
G1 X105.074 Y91.978 E.01681
M73 P7 R20
G1 X77.922 Y64.826 E1.2068
G1 X77.388 Y64.826 E.01678
G1 X105.074 Y92.512 E1.23054
G1 X105.074 Y93.047 E.01681
G1 X76.853 Y64.826 E1.25431
G1 X76.319 Y64.826 E.01678
G1 X105.074 Y93.581 E1.27805
G1 X105.074 Y94.116 E.01681
G1 X75.784 Y64.826 E1.30183
G1 X75.25 Y64.826 E.01678
G1 X105.074 Y94.65 E1.32556
G1 X105.074 Y95.185 E.01681
M73 P8 R20
G1 X74.926 Y65.038 E1.33994
G1 X74.926 Y65.572 E.01678
G1 X105.074 Y95.719 E1.33994
G1 X105.074 Y96.254 E.01681
M73 P8 R19
G1 X74.926 Y66.107 E1.33994
G1 X74.926 Y66.641 E.01678
G1 X105.074 Y96.788 E1.33994
G1 X105.074 Y97.323 E.01681
G1 X74.926 Y67.176 E1.33994
G1 X74.926 Y67.71 E.01678
G1 X105.074 Y97.857 E1.33994
G1 X105.074 Y98.392 E.01681
M73 P9 R19
G1 X74.926 Y68.245 E1.33994
G1 X74.926 Y68.779 E.01678
G1 X105.074 Y98.926 E1.33994
G1 X105.074 Y99.461 E.01681
G1 X74.926 Y69.314 E1.33994
G1 X74.926 Y69.848 E.01678
G1 X105.074 Y99.996 E1.33996
G1 X105.074 Y100.53 E.01678
G1 X74.926 Y70.383 E1.33994
G1 X74.926 Y70.917 E.01678
G1 X105.074 Y101.065 E1.33996
G1 X105.074 Y101.599 E.01678
M73 P10 R19
G1 X74.926 Y71.452 E1.33994
G1 X74.926 Y71.987 E.01681
G1 X105.074 Y102.134 E1.33994
G1 X105.074 Y102.668 E.01678
G1 X74.926 Y72.521 E1.33994
G1 X74.926 Y73.056 E.01681
G1 X105.074 Y103.203 E1.33994
G1 X105.074 Y103.737 E.01678
G1 X74.926 Y73.59 E1.33994
G1 X74.926 Y74.125 E.01681
G1 X105.074 Y104.272 E1.33994
G1 X105.074 Y104.806 E.01678
M73 P11 R19
G1 X74.926 Y74.659 E1.33994
G1 X74.926 Y75.194 E.01681
G1 X105.074 Y105.341 E1.33994
G1 X105.074 Y105.875 E.01678
G1 X74.926 Y75.728 E1.33994
G1 X74.926 Y76.263 E.01681
G1 X105.074 Y106.41 E1.33994
G1 X105.074 Y106.944 E.01678
G1 X74.926 Y76.797 E1.33994
G1 X74.926 Y77.332 E.01681
G1 X105.074 Y107.479 E1.33994
G1 X105.074 Y108.013 E.01678
M73 P12 R19
G1 X74.926 Y77.866 E1.33994
G1 X74.926 Y78.401 E.01681
G1 X105.074 Y108.548 E1.33994
G1 X105.074 Y109.082 E.01678
G1 X74.926 Y78.935 E1.33994
G1 X74.926 Y79.47 E.01681
G1 X105.074 Y109.617 E1.33994
G1 X105.074 Y110.152 E.01681
G1 X74.926 Y80.004 E1.33996
G1 X74.926 Y80.539 E.01681
G1 X105.074 Y110.686 E1.33994
G1 X105.074 Y111.221 E.01681
M73 P13 R18
G1 X74.926 Y81.073 E1.33996
G1 X74.926 Y81.608 E.01681
G1 X105.074 Y111.755 E1.33994
G1 X105.074 Y112.29 E.01681
G1 X74.926 Y82.143 E1.33994
G1 X74.926 Y82.677 E.01678
G1 X105.074 Y112.824 E1.33994
G1 X105.074 Y113.359 E.01681
G1 X74.926 Y83.212 E1.33994
G1 X74.926 Y83.746 E.01678
G1 X105.074 Y113.893 E1.33994
G1 X105.074 Y114.428 E.01681
M73 P14 R18
G1 X74.926 Y84.281 E1.33994
G1 X74.926 Y84.815 E.01678
G1 X105.074 Y114.962 E1.33994
G1 X105.074 Y115.174 E.00666
G1 X104.75 Y115.174 E.01018
G1 X74.926 Y85.35 E1.32556
G1 X74.926 Y85.884 E.01678
G1 X104.216 Y115.174 E1.30183
G1 X103.681 Y115.174 E.01681
G1 X74.926 Y86.419 E1.27805
G1 X74.926 Y86.953 E.01678
G1 X103.147 Y115.174 E1.25431
G1 X102.612 Y115.174 E.01681
M73 P15 R18
G1 X74.926 Y87.488 E1.23054
G1 X74.926 Y88.022 E.01678
G1 X102.078 Y115.174 E1.2068
G1 X101.543 Y115.174 E.01681
G1 X74.926 Y88.557 E1.18302
G1 X74.926 Y89.091 E.01678
G1 X101.009 Y115.174 E1.15929
G1 X100.474 Y115.174 E.01681
G1 X74.926 Y89.626 E1.13551
G1 X74.926 Y90.16 E.01678
G1 X99.94 Y115.174 E1.11178
G1 X99.405 Y115.174 E.01681
G1 X74.926 Y90.695 E1.088
G1 X74.926 Y91.23 E.01681
M73 P16 R18
G1 X98.87 Y115.174 E1.06422
G1 X98.336 Y115.174 E.01678
G1 X74.926 Y91.764 E1.04048
G1 X74.926 Y92.299 E.01681
G1 X97.801 Y115.174 E1.01671
G1 X97.267 Y115.174 E.01678
G1 X74.926 Y92.833 E.99297
G1 X74.926 Y93.368 E.01681
G1 X96.732 Y115.174 E.96919
G1 X96.198 Y115.174 E.01678
G1 X74.926 Y93.902 E.94546
G1 X74.926 Y94.437 E.01681
G1 X95.663 Y115.174 E.92168
G1 X95.129 Y115.174 E.01678
G1 X74.926 Y94.971 E.89795
G1 X74.926 Y95.506 E.01681
G1 X94.594 Y115.174 E.87417
M73 P17 R18
G1 X94.06 Y115.174 E.01678
G1 X74.926 Y96.04 E.85043
G1 X74.926 Y96.575 E.01681
G1 X93.525 Y115.174 E.82665
G1 X92.991 Y115.174 E.01678
G1 X74.926 Y97.109 E.80292
G1 X74.926 Y97.644 E.01681
G1 X92.456 Y115.174 E.77914
G1 X91.922 Y115.174 E.01678
G1 X74.926 Y98.178 E.75541
G1 X74.926 Y98.713 E.01681
M73 P17 R17
G1 X91.387 Y115.174 E.73163
G1 X90.853 Y115.174 E.01678
G1 X74.926 Y99.247 E.70789
G1 X74.926 Y99.782 E.01681
G1 X90.318 Y115.174 E.68412
G1 X89.784 Y115.174 E.01678
G1 X74.926 Y100.316 E.66038
G1 X74.926 Y100.851 E.01681
G1 X89.249 Y115.174 E.6366
G1 X88.714 Y115.174 E.01681
M73 P18 R17
G1 X74.926 Y101.386 E.61282
G1 X74.926 Y101.92 E.01678
G1 X88.18 Y115.174 E.58909
G1 X87.645 Y115.174 E.01681
G1 X74.926 Y102.455 E.56531
G1 X74.926 Y102.989 E.01678
G1 X87.111 Y115.174 E.54158
G1 X86.576 Y115.174 E.01681
G1 X74.926 Y103.524 E.5178
G1 X74.926 Y104.058 E.01678
G1 X86.042 Y115.174 E.49406
G1 X85.507 Y115.174 E.01681
G1 X74.926 Y104.593 E.47028
G1 X74.926 Y105.127 E.01678
G1 X84.973 Y115.174 E.44655
G1 X84.438 Y115.174 E.01681
G1 X74.926 Y105.662 E.42277
G1 X74.926 Y106.196 E.01678
G1 X83.904 Y115.174 E.39904
G1 X83.369 Y115.174 E.01681
G1 X74.926 Y106.731 E.37526
G1 X74.926 Y107.265 E.01678
G1 X82.835 Y115.174 E.35152
G1 X82.3 Y115.174 E.01681
G1 X74.926 Y107.8 E.32775
G1 X74.926 Y108.334 E.01678
G1 X81.766 Y115.174 E.30401
G1 X81.231 Y115.174 E.01681
G1 X74.926 Y108.869 E.28023
G1 X74.926 Y109.403 E.01678
G1 X80.697 Y115.174 E.2565
G1 X80.162 Y115.174 E.01681
G1 X74.926 Y109.938 E.23272
G1 X74.926 Y110.473 E.01681
G1 X79.627 Y115.174 E.20894
G1 X79.093 Y115.174 E.01678
M73 P19 R17
G1 X74.926 Y111.007 E.18521
G1 X74.926 Y111.542 E.01681
G1 X78.558 Y115.174 E.16143
G1 X78.024 Y115.174 E.01678
G1 X74.926 Y112.076 E.13769
G1 X74.926 Y112.611 E.01681
G1 X77.489 Y115.174 E.11392
G1 X76.955 Y115.174 E.01678
G1 X74.926 Y113.145 E.09018
G1 X74.926 Y113.68 E.01681
G1 X76.42 Y115.174 E.0664
G1 X75.886 Y115.174 E.01678
G1 X74.926 Y114.214 E.04267
G1 X74.926 Y114.749 E.01681
G1 X75.521 Y115.343 E.02642
M204 P1000
; stop printing object tfsik_box.stl id:0 copy 0
M106 S84.15
;LAYER_CHANGE
;Z:0.4
;HEIGHT:0.2
;BEFORE_LAYER_CHANGE
G92 E0.0
;0.4


G1 E-2.24 F4200
;WIPE_START
G1 F7200
G1 X74.926 Y114.749 E-.46592
G1 X74.926 Y114.214 E-.29648
G1 X75.178 Y114.466 E-.1976
;WIPE_END
G1 Z.4 F720
;AFTER_LAYER_CHANGE
;0.4
M104 S210 ; set temperature
G1 Z.6
G1 X71.023 Y114.466 F9000
G1 Z.4 F720
G1 E3.2 F2400
;TYPE:Skirt/Brim
;WIDTH:0.42
G1 X71.023 Y63.8 E1.5886
G1 X71.719 Y62.119 E.05705
G1 X72.219 Y61.619 E.02217
G1 X73.9 Y60.923 E.05705
G1 X106.1 Y60.923 E1.00961
G1 X107.781 Y61.619 E.05705
G1 X108.281 Y62.119 E.02217
G1 X108.977 Y63.8 E.05705
G1 X108.977 Y116.2 E1.64297
G1 X108.281 Y117.881 E.05705
G1 X107.781 Y118.381 E.02217
G1 X106.1 Y119.077 E.05705
G1 X73.9 Y119.077 E1.00961
G1 X72.219 Y118.381 E.05705
G1 X71.719 Y117.881 E.02217
G1 X71.023 Y116.2 E.05705
G1 X71.023 Y114.526 E.05249
; printing object tfsik_box.stl id:0 copy 0
G1 E-2.24 F4200
;WIPE_START
G1 F7200
G1 X71.023 Y112.794 E-.96
;WIPE_END
G1 Z.6 F720
G1 X105.768 Y64.132 F9000
G1 Z.4 F720
G1 E3.2 F2400
;TYPE:Perimeter
;WIDTH:0.449999
G1 F3000
G1 X105.768 Y115.868 E1.7512
G1 X74.232 Y115.868 E1.06745
G1 X74.232 Y64.132 E1.7512
G1 X105.708 Y64.132 E1.06542
G1 X106.175 Y63.725 F9000
M204 P800
;TYPE:External perimeter
G1 F1266.664

G1 X106.175 Y64.375 E.022
G1 X106.175 Y115.625 E1.73475
G1 X106.175 Y116.275 E.022
M73 P20 R17
G1 X105.525 Y116.275 E.022
G1 X74.475 Y116.275 E1.051
G1 X73.825 Y116.275 E.022
G1 X73.825 Y115.625 E.022
G1 X73.825 Y64.375 E1.73475
G1 X73.825 Y63.725 E.022
G1 X74.475 Y63.725 E.022
G1 X105.465 Y63.725 E1.04897
G1 X106.115 Y63.725 E.022

M204 P1000
G1 X106.102 Y64.118 F9000
G1 E-2.24 F4200
;WIPE_START
G1 F7200
G1 X106.117 Y65.457 E-.96
;WIPE_END
G1 Z.6 F720
G1 X74.709 Y64.531 F9000
G1 Z.4 F720
G1 E3.2 F2400
M204 P1500
;TYPE:Solid infill
;WIDTH:0.548766
G1 F8400
G1 X74.664 Y64.487 E.00265
G1 X74.603 Y64.503 E.00265
G1 X74.587 Y64.564 E.00265
G1 X74.631 Y64.609 E.00265
G1 X74.693 Y64.593 E.00269
M204 P1000
G1 X74.466 Y65.388 F9000
M204 P1500
;WIDTH:0.38292
G1 F8400
G1 X74.395 Y65.369 E.00208
G1 X74.414 Y65.44 E.00208
G1 X74.455 Y65.429 E.0012
;WIDTH:0.41646
G1 X74.527 Y65.336 E.00365
;WIDTH:0.449999
G1 X74.598 Y65.243 E.00396
G1 X75.343 Y64.498 E.03566
G1 X75.436 Y64.427 E.00396
;WIDTH:0.41646
G1 X75.529 Y64.355 E.00365
;WIDTH:0.38292
G1 X75.488 Y64.366 E.0012
G1 X75.469 Y64.295 E.00208
G1 X75.54 Y64.314 E.00208
;WIDTH:0.449999
G1 X75.918 Y64.498 E.01423
G1 X74.598 Y65.818 E.06319
G1 X74.598 Y66.394 E.0195
G1 X76.494 Y64.498 E.09076
G1 X77.07 Y64.498 E.0195
G1 X74.598 Y66.97 E.11833
G1 X74.598 Y67.546 E.0195
G1 X77.646 Y64.498 E.14591
G1 X78.221 Y64.498 E.01946
G1 X74.598 Y68.121 E.17343
G1 X74.598 Y68.697 E.0195
G1 X78.797 Y64.498 E.201
G1 X79.373 Y64.498 E.0195
G1 X74.598 Y69.273 E.22858
G1 X74.598 Y69.848 E.01946
G1 X79.948 Y64.498 E.2561
G1 X80.524 Y64.498 E.0195
G1 X74.598 Y70.424 E.28367
G1 X74.598 Y71 E.0195
G1 X81.1 Y64.498 E.31125
G1 X81.675 Y64.498 E.01946
G1 X74.598 Y71.575 E.33877
G1 X74.598 Y72.151 E.0195
G1 X82.251 Y64.498 E.36634
G1 X82.827 Y64.498 E.0195
G1 X74.598 Y72.727 E.39392
G1 X74.598 Y73.303 E.0195
G1 X83.403 Y64.498 E.42149
G1 X83.978 Y64.498 E.01946
G1 X74.598 Y73.878 E.44901
G1 X74.598 Y74.454 E.0195
G1 X84.554 Y64.498 E.47659
G1 X85.13 Y64.498 E.0195
G1 X74.598 Y75.03 E.50416
G1 X74.598 Y75.605 E.01946
G1 X85.705 Y64.498 E.53169
G1 X86.281 Y64.498 E.0195
G1 X74.598 Y76.181 E.55926
G1 X74.598 Y76.757 E.0195
G1 X86.857 Y64.498 E.58683
G1 X87.432 Y64.498 E.01946
G1 X74.598 Y77.332 E.61436
G1 X74.598 Y77.908 E.0195
G1 X88.008 Y64.498 E.64193
G1 X88.584 Y64.498 E.0195
G1 X74.598 Y78.484 E.6695
G1 X74.598 Y79.059 E.01946
G1 X89.159 Y64.498 E.69703
G1 X89.735 Y64.498 E.0195
G1 X74.598 Y79.635 E.7246
G1 X74.598 Y80.211 E.0195
G1 X90.311 Y64.498 E.75217
G1 X90.887 Y64.498 E.0195
G1 X74.598 Y80.787 E.77974
G1 X74.598 Y81.362 E.01946
G1 X91.462 Y64.498 E.80727
G1 X92.038 Y64.498 E.0195
G1 X74.598 Y81.938 E.83484
G1 X74.598 Y82.514 E.0195
G1 X92.614 Y64.498 E.86241
G1 X93.189 Y64.498 E.01946
G1 X74.598 Y83.089 E.88994
G1 X74.598 Y83.665 E.0195
M73 P21 R17
G1 X93.765 Y64.498 E.91751
G1 X94.341 Y64.498 E.0195
G1 X74.598 Y84.241 E.94509
G1 X74.598 Y84.816 E.01946
G1 X94.916 Y64.498 E.97261
G1 X95.492 Y64.498 E.0195
G1 X74.598 Y85.392 E1.00018
G1 X74.598 Y85.968 E.0195
G1 X96.068 Y64.498 E1.02776
G1 X96.644 Y64.498 E.0195
G1 X74.598 Y86.544 E1.05533
G1 X74.598 Y87.119 E.01946
G1 X97.219 Y64.498 E1.08285
G1 X97.795 Y64.498 E.0195
G1 X74.598 Y87.695 E1.11043
G1 X74.598 Y88.271 E.0195
G1 X98.371 Y64.498 E1.138
G1 X98.946 Y64.498 E.01946
