; generated by PrusaSlicer 2.6.1+linux-x64-GTK3 on 2023-10-01 at 10:42:39 UTC


;
;

;
;

;
;
; 

; external perimeters extrusion width = 0.45mm
; perimeters extrusion width = 0.45mm
; infill extrusion width = 0.45mm
; solid infill extrusion width = 0.45mm
; top infill extrusion width = 0.42mm
; first layer extrusion width = 0.50mm

M73 P0 R9
M201 X4000 Y4000 Z400 E5000 ; sets maximum accelerations, mm/sec^2
M203 X400 Y400 Z12 E80 ; sets maximum feedrates, mm / sec
M204 P4000 R1250 T4000 ; sets acceleration (P, T) and retract acceleration (R), mm/sec^2
M205 X8.00 Y8.00 Z2.00 E10.00 ; sets the jerk limits, mm/sec
M205 S0 T0 ; sets the minimum extruding and travel feed rate, mm/sec
;TYPE:Custom
M862.3 P "MINI" ; printer model check
M862.1 P0.4 ; nozzle diameter check
M862.5 P2 ; g-code level check
M862.6 P"Input shaper" ; FW feature check
G90 ; use absolute coordinates
M83 ; extruder relative mode
M104 S170 ; set extruder temp for bed leveling
M140 S60 ; set bed temp
M109 R170 ; wait for bed leveling temp
M190 S60 ; wait for bed temp
M569 S1 X Y ; set stealthchop for X Y
M204 T1250 ; set travel acceleration
G28 ; home all without mesh bed level
G29 ; mesh bed leveling 
M104 S215 ; set extruder temp
G92 E0
G1 Y-2 X179 F2400
G1 Z3 F720
M109 S215 ; wait for extruder temp

; intro line
G1 X170 F1000
G1 Z0.2 F720
G1 X110 E8 F900
G1 X40 E10 F700
G92 E0

M569 S0 X Y ; set spreadcycle for X Y
M204 T4000 ; restore travel acceleration
M572 W0.06 ; set smooth time
M221 S95 ; set flow
G21 ; set units to millimeters
G90 ; use absolute coordinates
M83 ; use relative distances for extrusion
M900 K0.2 ; Filament gcode LA 1.5
; ; Filament gcode LA 1.0
M107
;LAYER_CHANGE
;Z:0.2
;HEIGHT:0.2
;BEFORE_LAYER_CHANGE
G92 E0.0
;0.2
M201 X4000 Y4000
M74 W0

M73 P1 R9
G1 E-2.5 F4200
M73 P2 R9
G1 Z.2 F720
;AFTER_LAYER_CHANGE
;0.2
; printing object tfsik_antenna_holder.stl id:0 copy 0
G1 Z.4
M204 T4000
G1 X96.882 Y94.183 F24000
G1 Z.2 F720
G1 E2.5 F2400
M204 P500
;TYPE:Perimeter
;WIDTH:0.619936
G1 X96.64 Y94.203 E.01165
;WIDTH:0.579957
G1 X96.398 Y94.223 E.01084
;WIDTH:0.539978
G1 X96.156 Y94.243 E.01004
;WIDTH:0.499999
G1 X83.844 Y94.243 E.46793
;WIDTH:0.538274
G1 X83.593 Y94.224 E.01037
;WIDTH:0.576548
G1 X83.342 Y94.205 E.01117
;WIDTH:0.614822
G1 X83.091 Y94.186 E.01197
G1 X83.117 Y94.177 E.00131
;WIDTH:0.607141
G1 X83.395 Y94.094 E.01361
;WIDTH:0.571427
G1 X83.674 Y94.012 E.01278
;WIDTH:0.535713
G1 X83.952 Y93.929 E.01189
;WIDTH:0.499999
G1 X84.739 Y93.562 E.033
G1 X85.433 Y93.039 E.03303
G1 X86.003 Y92.384 E.033
G1 X86.425 Y91.624 E.03304
G1 X86.649 Y90.934 E.02757
G1 X86.701 Y90.579 E.01364
G1 X86.755 Y89.928 E.02483
G1 X86.649 Y89.066 E.03301
G1 X86.366 Y88.245 E.033
G1 X85.919 Y87.5 E.03302
G1 X85.327 Y86.865 E.033
G1 X84.615 Y86.366 E.03304
G1 X83.816 Y86.027 E.03299
;WIDTH:0.539979
G1 X83.583 Y85.957 E.01006
;WIDTH:0.579959
G1 X83.351 Y85.887 E.01082
;WIDTH:0.619938
G1 X83.118 Y85.817 E.01167
G1 X83.36 Y85.797 E.01165
;WIDTH:0.579959
G1 X83.602 Y85.777 E.01084
;WIDTH:0.539979
G1 X83.844 Y85.757 E.01004
;WIDTH:0.499999
G1 X96.156 Y85.757 E.46793
;WIDTH:0.538274
G1 X96.407 Y85.776 E.01037
;WIDTH:0.576548
M73 P3 R9
G1 X96.658 Y85.795 E.01117
;WIDTH:0.614822
G1 X96.909 Y85.814 E.01197
G1 X96.883 Y85.823 E.00131
;WIDTH:0.607141
G1 X96.605 Y85.906 E.01361
;WIDTH:0.571427
G1 X96.326 Y85.988 E.01278
;WIDTH:0.535713
G1 X96.048 Y86.071 E.01189
;WIDTH:0.499999
G1 X95.261 Y86.438 E.033
G1 X94.567 Y86.961 E.03303
G1 X93.997 Y87.616 E.033
G1 X93.575 Y88.376 E.03304
G1 X93.351 Y89.066 E.02757
G1 X93.299 Y89.421 E.01364
G1 X93.245 Y90.072 E.02483
G1 X93.351 Y90.934 E.03301
G1 X93.634 Y91.755 E.033
G1 X94.081 Y92.5 E.03302
G1 X94.673 Y93.135 E.033
G1 X95.385 Y93.634 E.03304
G1 X96.184 Y93.973 E.03299
;WIDTH:0.539978
G1 X96.417 Y94.043 E.01006
;WIDTH:0.579957
G1 X96.649 Y94.113 E.01082
;WIDTH:0.619936
G1 X96.825 Y94.166 E.00882
M204 P2000
G1 E-2.5 F4200
G1 Z.4 F720
G1 X99.539 Y93.562 F24000
G1 Z.2 F720
G1 E2.5 F2400
M204 P500
;WIDTH:0.499999
G1 X100.233 Y93.039 E.03303
G1 X100.803 Y92.384 E.033
G1 X101.23 Y91.607 E.0337
G1 X101.479 Y90.794 E.03232
G1 X101.555 Y89.928 E.03304
G1 X101.449 Y89.066 E.03301
G1 X101.166 Y88.245 E.033
G1 X100.719 Y87.5 E.03302
G1 X100.233 Y86.961 E.02758
G1 X100.037 Y86.799 E.00966
G1 X99.415 Y86.366 E.0288
G1 X98.616 Y86.027 E.03299
;WIDTH:0.539979
G1 X98.383 Y85.957 E.01006
;WIDTH:0.579959
G1 X98.151 Y85.887 E.01082
;WIDTH:0.619938
G1 X97.918 Y85.817 E.01167
G1 X98.16 Y85.797 E.01165
;WIDTH:0.579959
G1 X98.402 Y85.777 E.01084
;WIDTH:0.539979
G1 X98.644 Y85.757 E.01004
;WIDTH:0.499999
G1 X100.657 Y85.757 E.07651
G1 X107.267 Y94.243 E.40882
G1 X98.644 Y94.243 E.32773
;WIDTH:0.538274
G1 X98.393 Y94.224 E.01037
;WIDTH:0.576548
G1 X98.142 Y94.205 E.01117
;WIDTH:0.614822
G1 X97.891 Y94.186 E.01197
G1 X97.917 Y94.177 E.00131
;WIDTH:0.607141
G1 X98.195 Y94.094 E.01361
;WIDTH:0.571427
G1 X98.474 Y94.012 E.01278
;WIDTH:0.535713
G1 X98.752 Y93.929 E.01189
;WIDTH:0.499999
G1 X99.485 Y93.587 E.03074
M204 P2000
G1 X99.271 Y93.192 F24000
M204 P500
;TYPE:External perimeter
G1 F2400
G1 X98.566 Y93.511 E.02941
G1 X97.811 Y93.677 E.02938
G1 X97.037 Y93.682 E.02942
G1 X96.279 Y93.526 E.02941
G1 X95.571 Y93.216 E.02937
G1 X94.942 Y92.766 E.02939
G1 X94.421 Y92.194 E.02941
G1 X94.03 Y91.527 E.02938
G1 X93.786 Y90.793 E.0294
G1 X93.7 Y89.98 E.03107
G1 X93.786 Y89.207 E.02956
G1 X94.01 Y88.517 E.02757
G1 X94.393 Y87.845 E.0294
G1 X94.906 Y87.266 E.0294
G1 X95.529 Y86.808 E.02939
G1 X96.234 Y86.489 E.02941
G1 X96.989 Y86.323 E.02938
G1 X97.763 Y86.318 E.02942
G1 X98.521 Y86.474 E.02941
G1 X99.229 Y86.784 E.02937
G1 X99.768 Y87.169 E.02517
G1 X100.379 Y87.806 E.03355
G1 X100.77 Y88.473 E.02938
G1 X101.014 Y89.207 E.0294
G1 X101.1 Y89.976 E.02941
G1 X101.024 Y90.746 E.02941
G1 X100.796 Y91.466 E.0287
G1 X100.407 Y92.155 E.03007
G1 X99.894 Y92.734 E.0294
G1 X99.319 Y93.157 E.02713
M204 P2000
G1 X99.273 Y93.592 F24000
G1 E-2.5 F4200
G1 Z.4 F720
G1 X96.909 Y85.814 F24000
G1 Z.2 F720
G1 E2.5 F2400
M204 P500
;TYPE:Perimeter
;WIDTH:0.614822
G1 X97.763 Y85.809 E.04061
;WIDTH:0.619938
G1 X97.918 Y85.817 E.00745
M204 P2000
G1 E-2.5 F4200
G1 Z.4 F720
G1 X97.891 Y94.186 F24000
G1 Z.2 F720
G1 E2.5 F2400
M204 P500
;WIDTH:0.614822
G1 X97.037 Y94.191 E.04061
;WIDTH:0.619936
G1 X96.882 Y94.183 E.00745
M204 P2000
G1 E-2.5 F4200
G1 Z.4 F720
G1 X78.459 Y89.913 F24000
G1 Z.2 F720
G1 E2.5 F2400
M204 P500
;WIDTH:0.499999
G1 X78.445 Y90.072 E.00607
G1 X78.551 Y90.934 E.03301
G1 X78.834 Y91.755 E.033
G1 X79.281 Y92.5 E.03302
G1 X79.873 Y93.135 E.033
G1 X80.585 Y93.634 E.03304
G1 X81.384 Y93.973 E.03299
;WIDTH:0.539978
G1 X81.617 Y94.043 E.01006
;WIDTH:0.579957
G1 X81.849 Y94.113 E.01082
;WIDTH:0.619936
G1 X82.082 Y94.183 E.01167
G1 X81.84 Y94.203 E.01165
;WIDTH:0.579957
G1 X81.598 Y94.223 E.01084
;WIDTH:0.539978
G1 X81.356 Y94.243 E.01004
;WIDTH:0.499999
G1 X72.733 Y94.243 E.32773
G1 X79.343 Y85.757 E.40882
G1 X81.356 Y85.757 E.07651
;WIDTH:0.538274
G1 X81.607 Y85.776 E.01037
;WIDTH:0.576548
G1 X81.858 Y85.795 E.01117
;WIDTH:0.614822
G1 X82.109 Y85.814 E.01197
G1 X82.083 Y85.823 E.00131
;WIDTH:0.607141
G1 X81.805 Y85.906 E.01361
;WIDTH:0.571427
G1 X81.526 Y85.988 E.01278
;WIDTH:0.535713
G1 X81.248 Y86.071 E.01189
;WIDTH:0.499999
G1 X80.461 Y86.438 E.033
G1 X79.767 Y86.961 E.03303
G1 X79.197 Y87.616 E.033
G1 X78.775 Y88.376 E.03304
G1 X78.521 Y89.206 E.03299
G1 X78.465 Y89.854 E.02472
M204 P2000
G1 X78.906 Y89.96 F24000
M204 P500
;TYPE:External perimeter
G1 F2400
G1 X78.976 Y89.254 E.02696
G1 X79.21 Y88.517 E.02939
G1 X79.593 Y87.845 E.0294
G1 X80.106 Y87.266 E.0294
G1 X80.729 Y86.808 E.02939
G1 X81.434 Y86.489 E.02941
G1 X82.189 Y86.323 E.02938
G1 X82.963 Y86.318 E.02942
G1 X83.721 Y86.474 E.02941
G1 X84.429 Y86.784 E.02937
G1 X85.058 Y87.234 E.02939
G1 X85.579 Y87.806 E.02941
G1 X85.97 Y88.473 E.02938
G1 X86.214 Y89.207 E.0294
G1 X86.3 Y89.976 E.02941
G1 X86.214 Y90.793 E.03122
G1 X85.99 Y91.483 E.02757
G1 X85.607 Y92.155 E.0294
G1 X85.094 Y92.734 E.0294
G1 X84.471 Y93.192 E.02939
G1 X83.766 Y93.511 E.02941
G1 X83.011 Y93.677 E.02938
G1 X82.237 Y93.682 E.02942
G1 X81.479 Y93.526 E.02941
G1 X80.771 Y93.216 E.02937
G1 X80.142 Y92.766 E.02939
G1 X79.621 Y92.194 E.02941
G1 X79.23 Y91.527 E.02938
G1 X78.986 Y90.793 E.0294
G1 X78.9 Y90.02 E.02956
M204 P2000
G1 X78.559 Y89.761 F24000
G1 E-2.5 F4200
G1 Z.4 F720
G1 X83.091 Y94.186 F24000
G1 Z.2 F720
G1 E2.5 F2400
M204 P500
;TYPE:Perimeter
;WIDTH:0.614822
G1 X82.237 Y94.191 E.04061
;WIDTH:0.619936
G1 X82.082 Y94.183 E.00745
M204 P2000
M73 P4 R9
G1 E-2.5 F4200
G1 Z.4 F720
G1 X82.109 Y85.814 F24000
G1 Z.2 F720
G1 E2.5 F2400
M204 P500
;WIDTH:0.614822
G1 X82.963 Y85.809 E.04061
;WIDTH:0.619938
G1 X83.118 Y85.817 E.00745
M204 P2000
G1 E-2.5 F4200
G1 Z.4 F720
G1 X71.95 Y94.505 F24000
G1 Z.2 F720
G1 E2.5 F2400
M204 P500
;TYPE:External perimeter
;WIDTH:0.499999
G1 X79.12 Y85.3 E.44346
G1 X100.88 Y85.3 E.82702
G1 X108.019 Y94.465 E.44153
G1 X108.05 Y94.555 E.00362
G1 X108.05 Y94.7 E.00551
G1 X71.95 Y94.7 E1.37203
G1 X71.95 Y94.565 E.00513
M204 P2000
G1 X72.279 Y94.277 F24000
G1 E-2.5 F4200
G1 Z.4 F720
G1 X79.487 Y85.94 F24000
G1 Z.2 F720
G1 E2.5 F2400
M204 P500
;TYPE:Solid infill
;WIDTH:0.500797
G1 X79.907 Y86.36 E.02261
G1 X79.638 Y86.555 E.01265
G1 X79.542 Y86.642 E.00493
G1 X79.319 Y86.42 E.01198
G1 X79.036 Y86.784 E.01755
G1 X79.229 Y86.977 E.01039
G1 X78.987 Y87.246 E.01378
G1 X78.93 Y87.325 E.00371
G1 X78.752 Y87.148 E.00956
G1 X78.469 Y87.512 E.01755
G1 X78.684 Y87.727 E.01158
G1 X78.453 Y88.143 E.01812
G1 X78.185 Y87.876 E.0144
G1 X77.902 Y88.24 E.01755
G1 X78.286 Y88.624 E.02068
G1 X78.179 Y88.954 E.01321
G1 X78.142 Y89.128 E.00677
G1 X77.618 Y88.604 E.02821
G1 X77.335 Y88.968 E.01755
G1 X78.078 Y89.711 E.04001
G1 X78.058 Y89.896 E.00708
G1 X78.058 Y90.104 E.00792
G1 X78.086 Y90.367 E.01007
G1 X77.051 Y89.332 E.05573
G1 X76.768 Y89.696 E.01755
G1 X78.209 Y91.137 E.07759
G1 X78.409 Y91.752 E.02462
G1 X78.493 Y91.942 E.00791
G1 X78.666 Y92.242 E.01318
G1 X76.484 Y90.06 E.11749
G1 X76.201 Y90.424 E.01755
G1 X79.631 Y93.854 E.18468
G1 X78.984 Y93.854 E.02463
G1 X75.917 Y90.788 E.16511
G1 X75.633 Y91.152 E.01758
G1 X78.336 Y93.854 E.14551
G1 X77.688 Y93.854 E.02467
G1 X75.35 Y91.516 E.12588
G1 X75.066 Y91.88 E.01758
G1 X77.041 Y93.854 E.10631
G1 X76.393 Y93.854 E.02467
G1 X74.783 Y92.244 E.08669
G1 X74.499 Y92.608 E.01758
G1 X75.746 Y93.854 E.06712
G1 X75.098 Y93.854 E.02467
G1 X74.216 Y92.972 E.04749
G1 X73.932 Y93.336 E.01758
G1 X74.451 Y93.854 E.02792
G1 X73.803 Y93.854 E.02467
G1 X73.502 Y93.553 E.01621
M204 P2000
G1 E-2.5 F4200
G1 Z.4 F720
M73 P5 R9
G1 X94.26 Y85.94 F24000
G1 Z.2 F720
M73 P5 R8
G1 E2.5 F2400
M204 P500
;WIDTH:0.513574
G1 X94.691 Y86.371 E.02385
G1 X94.438 Y86.555 E.01224
G1 X94.318 Y86.664 E.00634
G1 X93.8 Y86.146 E.02867
G1 X93.134 Y86.146 E.02606
G1 X93.999 Y87.01 E.04785
G1 X93.787 Y87.246 E.01242
G1 X93.695 Y87.372 E.00611
G1 X92.469 Y86.146 E.06785
G1 X91.803 Y86.146 E.02606
G1 X93.448 Y87.79 E.09102
G1 X93.293 Y88.058 E.01212
G1 X93.218 Y88.226 E.0072
G1 X91.138 Y86.146 E.11512
G1 X90.472 Y86.146 E.02606
G1 X93.053 Y88.727 E.14285
G1 X92.979 Y88.954 E.00934
G1 X92.925 Y89.264 E.01231
G1 X89.806 Y86.146 E.17259
G1 X89.141 Y86.146 E.02602
G1 X92.865 Y89.87 E.20611
G1 X92.852 Y90 E.00511
G1 X92.91 Y90.58 E.02281
G1 X88.475 Y86.146 E.24543
G1 X87.81 Y86.146 E.02602
G1 X93.448 Y91.784 E.31204
M204 P2000
G1 E-2.5 F4200
G1 Z.4 F720
G1 X95.058 Y94.06 F24000
G1 Z.2 F720
G1 E2.5 F2400
M204 P500
G1 X87.144 Y86.146 E.438
G1 X86.478 Y86.146 E.02606
G1 X94.187 Y93.854 E.42663
G1 X93.522 Y93.854 E.02602
G1 X85.813 Y86.146 E.42663
G1 X85.147 Y86.146 E.02606
G1 X92.856 Y93.854 E.42663
G1 X92.19 Y93.854 E.02606
G1 X86.891 Y88.556 E.29325
G1 X87.021 Y88.954 E.01639
G1 X87.064 Y89.158 E.00816
G1 X87.09 Y89.42 E.0103
G1 X91.525 Y93.854 E.24543
G1 X90.859 Y93.854 E.02606
G1 X87.135 Y90.13 E.20611
G1 X87.075 Y90.736 E.02383
G1 X90.194 Y93.854 E.17259
G1 X89.528 Y93.854 E.02606
G1 X86.947 Y91.273 E.14285
G1 X86.782 Y91.774 E.02064
G1 X88.862 Y93.854 E.11512
G1 X88.197 Y93.854 E.02602
G1 X86.552 Y92.21 E.09102
G1 X86.305 Y92.628 E.019
G1 X87.531 Y93.854 E.06785
G1 X86.866 Y93.854 E.02602
G1 X86.001 Y92.99 E.04785
G1 X85.682 Y93.337 E.01845
G1 X86.2 Y93.854 E.02864
G1 X85.534 Y93.854 E.02606
G1 X85.161 Y93.481 E.02064
M204 P2000
G1 E-2.5 F4200
G1 Z.4 F720
M73 P6 R8
G1 X99.618 Y85.94 F24000
G1 Z.2 F720
G1 E2.5 F2400
M204 P500
;WIDTH:0.506582
G1 X102.734 Y89.056 E.16989
G1 X105.045 Y92.023 E.14499
G1 X101.746 Y88.724 E.17987
G1 X101.821 Y88.954 E.00933
G1 X101.864 Y89.157 E.008
G1 X101.904 Y89.538 E.01477
G1 X106.221 Y93.854 E.23535
G1 X105.565 Y93.854 E.02529
G1 X101.93 Y90.219 E.19819
G1 X101.867 Y90.812 E.02299
G1 X104.909 Y93.854 E.16586
G1 X104.254 Y93.854 E.02525
G1 X101.729 Y91.329 E.13767
G1 X101.562 Y91.818 E.01992
G1 X103.598 Y93.854 E.11101
G1 X102.942 Y93.854 E.02529
G1 X101.332 Y92.244 E.08778
G1 X101.086 Y92.654 E.01843
G1 X102.287 Y93.854 E.06545
G1 X101.631 Y93.854 E.02529
G1 X100.784 Y93.008 E.04615
G1 X100.469 Y93.348 E.01787
G1 X100.975 Y93.854 E.02759
G1 X100.319 Y93.854 E.02529
G1 X99.953 Y93.488 E.01996
M204 P2000
; stop printing object tfsik_antenna_holder.stl id:0 copy 0
M106 S84.15
;LAYER_CHANGE
;Z:0.4
;HEIGHT:0.2
;BEFORE_LAYER_CHANGE
G92 E0.0
;0.4
M201 X3999.87 Y3999.87
M74 W0.0554613

G1 E-2.5 F4200
G1 Z.4 F720
;AFTER_LAYER_CHANGE
;0.4
; printing object tfsik_antenna_holder.stl id:0 copy 0
G1 X99.672 Y94.518 F24000
G1 E2.5 F2400
;TYPE:Perimeter
;WIDTH:0.449999
G1 F4800
G1 X98.623 Y94.518 E.03551
;WIDTH:0.491094
G1 X98.329 Y94.497 E.01098
;WIDTH:0.532189
G1 X98.036 Y94.477 E.01195
;WIDTH:0.573283
G1 X97.742 Y94.456 E.013
;WIDTH:0.583638
G1 X96.861 Y94.451 E.03961
G1 X96.633 Y94.473 E.0103
;WIDTH:0.539092
G1 X96.405 Y94.496 E.00945
;WIDTH:0.494546
G1 X96.177 Y94.518 E.0086
;WIDTH:0.449999
G1 X83.823 Y94.518 E.41817
;WIDTH:0.491094
G1 X83.529 Y94.497 E.01098
;WIDTH:0.532189
G1 X83.236 Y94.477 E.01195
;WIDTH:0.573283
G1 X82.942 Y94.456 E.013
;WIDTH:0.583638
G1 X82.061 Y94.451 E.03961
G1 X81.833 Y94.473 E.0103
;WIDTH:0.539092
G1 X81.605 Y94.496 E.00945
;WIDTH:0.494546
G1 X81.377 Y94.518 E.0086
;WIDTH:0.449999
G1 X72.17 Y94.518 E.31165
G1 X79.209 Y85.482 E.38771
G1 X81.377 Y85.482 E.07338
;WIDTH:0.491094
G1 X81.671 Y85.503 E.01098
;WIDTH:0.532189
G1 X81.964 Y85.523 E.01195
;WIDTH:0.573283
G1 X82.258 Y85.544 E.013
;WIDTH:0.583638
G1 X83.139 Y85.549 E.03961
G1 X83.367 Y85.527 E.0103
;WIDTH:0.539092
G1 X83.595 Y85.504 E.00945
;WIDTH:0.494546
G1 X83.823 Y85.482 E.0086
;WIDTH:0.449999
G1 X96.177 Y85.482 E.41817
;WIDTH:0.491094
G1 X96.471 Y85.503 E.01098
;WIDTH:0.532189
G1 X96.764 Y85.523 E.01195
;WIDTH:0.573283
G1 X97.058 Y85.544 E.013
;WIDTH:0.583639
G1 X97.939 Y85.549 E.03961
G1 X98.167 Y85.527 E.0103
;WIDTH:0.539093
G1 X98.395 Y85.504 E.00945
;WIDTH:0.494546
G1 X98.623 Y85.482 E.0086
;WIDTH:0.449999
G1 X100.791 Y85.482 E.07338
G1 X107.83 Y94.518 E.38771
G1 X99.732 Y94.518 E.27411
G1 E-2.5 F4200
G1 Z.6 F720
G1 X71.737 Y94.411 F24000
G1 Z.4 F720
G1 E2.5 F2400
M204 P1500
;TYPE:External perimeter
G1 F2700

G1 X72.014 Y94.056 E.01524
G1 X78.733 Y85.43 E.3701
G1 F2699.997
G1 X79.01 Y85.075 E.01524
G1 X79.46 Y85.075 E.01523
G1 X100.54 Y85.075 E.71353
G1 F2700
G1 X100.99 Y85.075 E.01523
G1 X108.275 Y94.427 E.40126
G1 X108.275 Y94.925 E.01686
G1 X107.825 Y94.925 E.01523
G1 F2699.997
G1 X72.175 Y94.925 E1.20671
G1 X71.725 Y94.925 E.01523
M73 P7 R8
G1 X71.725 Y94.467 E.0155

M204 P2000
G1 X72.067 Y94.185 F24000
G1 E-2.5 F4200
G1 Z.6 F720
G1 X99.395 Y93.327 F24000
G1 Z.4 F720
G1 E2.5 F2400
;TYPE:Perimeter
G1 F2700
G1 X98.659 Y93.669 E.02747
;WIDTH:0.489766
G1 X98.4 Y93.749 E.01007
;WIDTH:0.529533
G1 X98.141 Y93.829 E.01097
;WIDTH:0.569299
G1 X97.881 Y93.909 E.01191
;WIDTH:0.573283
G1 X97.058 Y93.926 E.0363
;WIDTH:0.583638
G1 X96.917 Y93.916 E.00636
G1 X96.699 Y93.847 E.01028
;WIDTH:0.539092
G1 X96.48 Y93.778 E.00947
;WIDTH:0.494546
G1 X96.262 Y93.709 E.00859
;WIDTH:0.449999
G1 X95.516 Y93.391 E.02745
G1 X94.852 Y92.925 E.02746
G1 X94.299 Y92.332 E.02745
G1 X93.882 Y91.636 E.02746
G1 X93.831 Y91.519 E.00432
