; generated by PrusaSlicer 2.6.1+linux-x64-GTK3 on 2023-10-01 at 09:38:33 UTC


;
;

;
;
; 

; external perimeters extrusion width = 0.45mm
; perimeters extrusion width = 0.45mm
; infill extrusion width = 0.45mm
; solid infill extrusion width = 0.45mm
; top infill extrusion width = 0.40mm
; first layer extrusion width = 0.42mm

M73 P0 R12
M201 X2500 Y2500 Z400 E5000 ; sets maximum accelerations, mm/sec^2
M203 X180 Y180 Z12 E80 ; sets maximum feedrates, mm / sec
M204 P2000 R1250 T2500 ; sets acceleration (P, T) and retract acceleration (R), mm/sec^2
M205 X8.00 Y8.00 Z2.00 E10.00 ; sets the jerk limits, mm/sec
M205 S0 T0 ; sets the minimum extruding and travel feed rate, mm/sec
;TYPE:Custom
M862.3 P "MINI" ; printer model check
G90 ; use absolute coordinates
M83 ; extruder relative mode
M104 S170 ; set extruder temp for bed leveling
M140 S60 ; set bed temp
M109 R170 ; wait for bed leveling temp
M190 S60 ; wait for bed temp
M204 T1250 ; set travel acceleration
G28 ; home all without mesh bed level
G29 ; mesh bed leveling 
M204 T2500 ; restore travel acceleration
M104 S215 ; set extruder temp
G92 E0
G1 Y-2 X179 F2400
G1 Z3 F720
M109 S215 ; wait for extruder temp

; intro line
G1 X170 F1000
G1 Z0.2 F720
G1 X110 E8 F900
G1 X40 E10 F700
G92 E0

M221 S95 ; set flow
G21 ; set units to millimeters
G90 ; use absolute coordinates
M83 ; use relative distances for extrusion
M900 K0.2 ; Filament gcode LA 1.5
; ; Filament gcode LA 1.0
M107
;LAYER_CHANGE
;Z:0.2
;HEIGHT:0.2
;BEFORE_LAYER_CHANGE
G92 E0.0
;0.2


M73 P1 R12
G1 E-3.2 F4200
M73 P2 R12
G1 Z.2 F720
;AFTER_LAYER_CHANGE
;0.2
G1 Z.4
G1 X76.763 Y83.512 F9000
G1 Z.2 F720
G1 E3.2 F2400
M204 P600
;TYPE:Skirt/Brim
;WIDTH:0.42
G1 F1200
G1 X77.962 Y82.66 E.04612
G1 X78.9 Y82.496 E.02986
G1 X101.1 Y82.496 E.69607
G1 X102.517 Y82.889 E.04611
G1 X103.237 Y83.512 E.02985
G1 X110.637 Y92.612 E.36776
G1 X111.254 Y94.35 E.05783
G1 X111.254 Y94.75 E.01254
G1 X110.861 Y96.167 E.04611
G1 X109.795 Y97.181 E.04613
G1 X108.5 Y97.504 E.04185
G1 X71.5 Y97.504 E1.16011
G1 X70.083 Y97.111 E.04611
G1 X69.069 Y96.045 E.04613
G1 X68.746 Y94.75 E.04185
G1 X68.746 Y94.35 E.01254
G1 X69.363 Y92.612 E.05783
G1 X76.725 Y83.559 E.36586
M204 P1000
G1 X77.018 Y83.797 F9000
M204 P600
G1 F1200
G1 X77.056 Y83.75 E.0019
G1 X78.184 Y82.983 E.04277
G1 X78.9 Y82.873 E.02271
G1 X101.1 Y82.873 E.69607
G1 X102.407 Y83.265 E.04278
M73 P3 R12
G1 X102.944 Y83.75 E.02269
G1 X110.344 Y92.85 E.36776
G1 X110.877 Y94.35 E.04991
G1 X110.877 Y94.75 E.01254
G1 X110.485 Y96.057 E.04278
G1 X109.44 Y96.933 E.04275
G1 X108.5 Y97.127 E.03009
G1 X71.5 Y97.127 E1.16011
G1 X70.193 Y96.735 E.04278
G1 X69.317 Y95.69 E.04275
G1 X69.123 Y94.75 E.03009
G1 X69.123 Y94.35 E.01254
G1 X69.656 Y92.85 E.04991
G1 X76.98 Y83.843 E.36399
M204 P1000
; printing object tfsik_antenna_holder.stl id:0 copy 0
G1 E-2.24 F4200
;WIPE_START
G1 F7200
G1 X77.056 Y83.75 E-.06656
G1 X78.184 Y82.983 E-.75592
G1 X78.429 Y82.945 E-.13752
;WIPE_END
G1 Z.4 F720
G1 X93.381 Y90.004 F9000
G1 Z.2 F720
G1 E3.2 F2400
M204 P600
;TYPE:Perimeter
;WIDTH:0.419999
G1 F1200
G1 X93.381 Y90.208 E.0064
G1 X93.465 Y90.897 E.02176
G1 X93.738 Y91.695 E.02644
G1 X94.17 Y92.42 E.02646
G1 X94.744 Y93.038 E.02645
G1 X95.434 Y93.524 E.02646
G1 X96.209 Y93.856 E.02644
G1 X96.924 Y93.985 E.02278
G1 X96.198 Y93.963 E.02277
G1 X83.802 Y93.963 E.38867
G1 X83.076 Y93.985 E.02277
G1 X83.903 Y93.819 E.02645
G1 X84.669 Y93.465 E.02646
G1 X85.344 Y92.959 E.02645
G1 X85.899 Y92.324 E.02644
G1 X86.31 Y91.587 E.02646
G1 X86.559 Y90.781 E.02645
G1 X86.62 Y90.208 E.01807
G1 X86.62 Y89.792 E.01304
G1 X86.535 Y89.103 E.02177
G1 X86.262 Y88.305 E.02644
G1 X85.83 Y87.58 E.02646
G1 X85.256 Y86.962 E.02645
G1 X84.566 Y86.476 E.02646
G1 X83.791 Y86.144 E.02644
G1 X83.076 Y86.015 E.02278
G1 X83.802 Y86.037 E.02277
G1 X96.198 Y86.037 E.38867
G1 X96.943 Y86.013 E.02337
;WIDTH:0.37414
G1 X96.924 Y86.015 E.00053
;WIDTH:0.419999
G1 X96.097 Y86.181 E.02645
G1 X95.331 Y86.535 E.02646
G1 X94.656 Y87.041 E.02645
G1 X94.101 Y87.676 E.02644
G1 X93.69 Y88.413 E.02646
G1 X93.441 Y89.219 E.02645
G1 X93.381 Y89.792 E.01806
G1 X93.381 Y89.944 E.00477
M204 P1000
G1 E-2.24 F4200
;WIPE_START
G1 F7200
G1 X93.381 Y90.208 E-.1463
G1 X93.465 Y90.897 E-.38465
G1 X93.716 Y91.63 E-.42905
;WIPE_END
G1 Z.4 F720
G1 X97.876 Y93.985 F9000
G1 Z.2 F720
G1 E3.2 F2400
M204 P600
G1 F1200
G1 X98.703 Y93.819 E.02645
G1 X99.469 Y93.465 E.02646
G1 X100.144 Y92.959 E.02645
G1 X100.699 Y92.324 E.02644
G1 X101.062 Y91.695 E.02277
G1 X101.359 Y90.781 E.03013
G1 X101.435 Y89.941 E.02645
G1 X101.335 Y89.103 E.02646
G1 X101.062 Y88.305 E.02644
G1 X100.63 Y87.58 E.02646
M73 P4 R12
G1 X100.056 Y86.962 E.02645
G1 X99.366 Y86.476 E.02646
G1 X98.591 Y86.144 E.02644
G1 X97.876 Y86.015 E.02278
G1 X98.602 Y86.037 E.02277
G1 X100.726 Y86.037 E.0666
G1 X107.171 Y93.963 E.3203
G1 X98.602 Y93.963 E.26867
G1 X97.936 Y93.983 E.02089
M204 P1000
G1 E-2.24 F4200
;WIPE_START
G1 F7200
G1 X98.703 Y93.819 E-.43465
G1 X99.469 Y93.465 E-.46763
G1 X99.552 Y93.403 E-.05772
;WIPE_END
G1 Z.4 F720
G1 X93.756 Y90.004 F9000
G1 Z.2 F720
G1 E3.2 F2400
M204 P600
;TYPE:External perimeter
G1 F1200
G1 X93.756 Y89.831 E.00542
G1 X93.816 Y89.258 E.01806
G1 X94.048 Y88.529 E.02399
G1 X94.427 Y87.865 E.02397
G1 X94.936 Y87.293 E.02401
G1 X95.553 Y86.84 E.024
G1 X96.25 Y86.525 E.02398
G1 X96.998 Y86.362 E.024
G1 X97.763 Y86.358 E.02399
G1 X98.512 Y86.513 E.02398
G1 X99.213 Y86.82 E.02399
G1 X99.835 Y87.267 E.02402
G1 X100.35 Y87.833 E.02399
G1 X100.736 Y88.493 E.02397
G1 X100.976 Y89.22 E.024
G1 X101.06 Y89.98 E.02397
G1 X100.984 Y90.742 E.02401
G1 X100.736 Y91.507 E.02521
G1 X100.373 Y92.135 E.02274
G1 X99.864 Y92.707 E.02401
G1 X99.247 Y93.16 E.024
G1 X98.55 Y93.475 E.02398
G1 X97.802 Y93.638 E.024
G1 X97.037 Y93.642 E.02399
G1 X96.288 Y93.487 E.02398
G1 X95.587 Y93.18 E.02399
G1 X94.966 Y92.733 E.02399
G1 X94.45 Y92.167 E.02401
G1 X94.064 Y91.507 E.02397
G1 X93.824 Y90.78 E.024
G1 X93.756 Y90.064 E.02255
M204 P1000
G1 X93.6 Y89.928 F9000
G1 E-2.24 F4200
;WIPE_START
G1 F7200
G1 X93.756 Y89.831 E-.12912
G1 X93.816 Y89.258 E-.31927
G1 X94.048 Y88.529 E-.42395
G1 X94.126 Y88.392 E-.08766
;WIPE_END
G1 Z.4 F720
G1 X96.943 Y86.013 F9000
G1 Z.2 F720
G1 E3.2 F2400
M204 P600
;TYPE:Perimeter
;WIDTH:0.37179
G1 F1200
G1 X97.763 Y86.009 E.02242
;WIDTH:0.37552
G1 X97.876 Y86.015 E.00313
M204 P1000
G1 E-2.24 F4200
;WIPE_START
G1 F7200
G1 X97.763 Y86.009 E-.06271
G1 X96.943 Y86.013 E-.45442
;WIPE_END
G1 E-.44287 F4200
G1 Z.4 F720
G1 X97.857 Y93.987 F9000
G1 Z.2 F720
G1 E3.2 F2400
M204 P600
;WIDTH:0.37179
G1 F1200
G1 X97.037 Y93.991 E.02242
;WIDTH:0.37552
G1 X96.924 Y93.985 E.00313
M204 P1000
G1 E-2.24 F4200
;WIPE_START
G1 F7200
G1 X97.037 Y93.991 E-.06271
G1 X97.857 Y93.987 E-.45442
;WIPE_END
G1 E-.44287 F4200
G1 Z.4 F720
G1 X78.565 Y90.059 F9000
G1 Z.2 F720
G1 E3.2 F2400
M204 P600
;WIDTH:0.419999
G1 F1200
G1 X78.665 Y90.897 E.02646
G1 X78.938 Y91.695 E.02644
G1 X79.37 Y92.42 E.02646
G1 X79.944 Y93.038 E.02645
G1 X80.634 Y93.524 E.02646
G1 X81.409 Y93.856 E.02644
G1 X82.124 Y93.985 E.02278
G1 X81.398 Y93.963 E.02277
G1 X72.829 Y93.963 E.26867
G1 X79.274 Y86.037 E.3203
G1 X81.398 Y86.037 E.0666
G1 X82.143 Y86.013 E.02337
;WIDTH:0.37414
G1 X82.124 Y86.015 E.00053
;WIDTH:0.419999
G1 X81.297 Y86.181 E.02645
G1 X80.531 Y86.535 E.02646
G1 X79.856 Y87.041 E.02645
G1 X79.301 Y87.676 E.02644
G1 X78.89 Y88.413 E.02646
G1 X78.641 Y89.219 E.02645
G1 X78.57 Y89.999 E.02456
M204 P1000
G1 X78.94 Y90.02 F9000
M204 P600
;TYPE:External perimeter
G1 F1200
G1 X79.016 Y89.258 E.02401
G1 X79.248 Y88.529 E.02399
G1 X79.627 Y87.865 E.02397
G1 X80.136 Y87.293 E.02401
G1 X80.753 Y86.84 E.024
G1 X81.45 Y86.525 E.02398
G1 X82.198 Y86.362 E.024
G1 X82.963 Y86.358 E.02399
G1 X83.712 Y86.513 E.02398
G1 X84.413 Y86.82 E.02399
G1 X85.035 Y87.267 E.02402
G1 X85.55 Y87.833 E.02399
G1 X85.936 Y88.493 E.02397
G1 X86.176 Y89.22 E.024
G1 X86.244 Y89.831 E.01928
G1 X86.244 Y90.169 E.0106
G1 X86.184 Y90.742 E.01806
G1 X85.952 Y91.471 E.02399
G1 X85.573 Y92.135 E.02397
G1 X85.064 Y92.707 E.02401
M73 P4 R11
G1 X84.447 Y93.16 E.024
G1 X83.75 Y93.475 E.02398
G1 X83.002 Y93.638 E.024
G1 X82.237 Y93.642 E.02399
G1 X81.488 Y93.487 E.02398
G1 X80.787 Y93.18 E.02399
G1 X80.166 Y92.733 E.02399
G1 X79.65 Y92.167 E.02401
G1 X79.264 Y91.507 E.02397
G1 X79.024 Y90.78 E.024
G1 X78.946 Y90.079 E.02211
M204 P1000
G1 X78.592 Y89.822 F9000
G1 E-2.24 F4200
;WIPE_START
G1 F7200
G1 X79.016 Y89.258 E-.45662
G1 X79.248 Y88.529 E-.42395
G1 X79.319 Y88.405 E-.07943
;WIPE_END
G1 Z.4 F720
G1 X83.057 Y93.987 F9000
G1 Z.2 F720
G1 E3.2 F2400
M204 P600
;TYPE:Perimeter
;WIDTH:0.37179
G1 F1200
M73 P5 R11
G1 X82.237 Y93.991 E.02242
;WIDTH:0.37552
G1 X82.124 Y93.985 E.00313
M204 P1000
G1 E-2.24 F4200
;WIPE_START
G1 F7200
G1 X82.237 Y93.991 E-.06271
G1 X83.057 Y93.987 E-.45442
;WIPE_END
G1 E-.44287 F4200
G1 Z.4 F720
G1 X82.143 Y86.013 F9000
G1 Z.2 F720
G1 E3.2 F2400
M204 P600
;WIDTH:0.37179
G1 F1200
G1 X82.963 Y86.009 E.02242
;WIDTH:0.37552
G1 X83.076 Y86.015 E.00313
M204 P1000
G1 E-2.24 F4200
;WIPE_START
G1 F7200
G1 X82.963 Y86.009 E-.06271
G1 X82.143 Y86.013 E-.45442
;WIPE_END
G1 E-.44287 F4200
G1 Z.4 F720
G1 X79.263 Y85.66 F9000
G1 Z.2 F720
G1 E3.2 F2400
M204 P600
;TYPE:External perimeter
;WIDTH:0.419999
G1 F1200
G1 X100.905 Y85.66 E.67857
G1 X107.963 Y94.34 E.35077
G1 X72.037 Y94.34 E1.12643
G1 X79.095 Y85.66 E.35077
G1 X79.203 Y85.66 E.00339
M204 P1000
G1 X79.554 Y85.934 F9000
G1 X80.056 Y86.673
M204 P600
;TYPE:Solid infill
;WIDTH:0.432508
G1 F1200
G1 X79.76 Y86.376 E.01358
G1 X79.436 Y86.376 E.0105
G1 X79.334 Y86.502 E.00525
G1 X79.627 Y86.794 E.0134
G1 X79.364 Y87.083 E.01266
G1 X79.087 Y86.805 E.01271
G1 X78.84 Y87.109 E.01269
G1 X79.103 Y87.372 E.01205
G1 X78.889 Y87.71 E.01296
G1 X78.593 Y87.413 E.01358
G1 X78.346 Y87.717 E.01269
G1 X78.688 Y88.059 E.01567
G1 X78.631 Y88.157 E.00367
G1 X78.53 Y88.452 E.0101
G1 X78.099 Y88.021 E.01975
G1 X77.852 Y88.325 E.01269
G1 X78.389 Y88.862 E.0246
G1 X78.34 Y89.005 E.0049
G1 X78.29 Y89.314 E.01014
G1 X77.604 Y88.629 E.0314
G1 X77.357 Y88.932 E.01266
G1 X78.237 Y89.812 E.04032
G1 X78.226 Y90.087 E.00892
G1 X78.258 Y90.384 E.00968
G1 X77.11 Y89.236 E.05259
G1 X76.863 Y89.54 E.01269
G1 X78.351 Y91.028 E.06817
G1 X78.569 Y91.7 E.02289
G1 X78.653 Y91.881 E.00646
G1 X76.616 Y89.844 E.09332
G1 X76.369 Y90.148 E.01269
G1 X79.845 Y93.624 E.15924
G1 X79.294 Y93.624 E.01785
G1 X76.122 Y90.452 E.14532
G1 X75.875 Y90.756 E.01269
G1 X78.743 Y93.624 E.13139
G1 X78.192 Y93.624 E.01785
G1 X75.628 Y91.059 E.11749
G1 X75.381 Y91.363 E.01269
G1 X77.641 Y93.624 E.10356
G1 X77.09 Y93.624 E.01785
G1 X75.134 Y91.667 E.08963
G1 X74.886 Y91.971 E.01271
G1 X76.539 Y93.624 E.07573
M73 P6 R11
G1 X75.988 Y93.624 E.01785
G1 X74.639 Y92.275 E.0618
G1 X74.392 Y92.579 E.01269
G1 X75.437 Y93.624 E.04787
G1 X74.886 Y93.624 E.01785
G1 X74.145 Y92.883 E.03395
G1 X73.898 Y93.186 E.01266
G1 X74.335 Y93.624 E.02004
G1 X73.784 Y93.624 E.01785
G1 X73.53 Y93.37 E.01164
M204 P1000
G1 E-2.24 F4200
;WIPE_START
G1 F7200
G1 X73.784 Y93.624 E-.19906
G1 X74.335 Y93.624 E-.30535
G1 X73.898 Y93.186 E-.34287
G1 X74.027 Y93.028 E-.11272
;WIPE_END
G1 Z.4 F720
G1 X94.859 Y86.668 F9000
G1 Z.2 F720
G1 E3.2 F2400
M204 P600
;WIDTH:0.429033
G1 F1200
G1 X94.567 Y86.376 E.01326
G1 X94.021 Y86.376 E.01753
G1 X94.432 Y86.787 E.01866
G1 X94.171 Y87.072 E.01241
G1 X93.475 Y86.376 E.0316
G1 X92.929 Y86.376 E.01753
G1 X93.912 Y87.36 E.04465
G1 X93.699 Y87.693 E.01269
G1 X92.383 Y86.376 E.05977
G1 X91.837 Y86.376 E.01753
G1 X93.499 Y88.039 E.07548
G1 X93.369 Y88.3 E.00936
G1 X93.331 Y88.417 E.00395
G1 X91.291 Y86.376 E.09265
G1 X90.745 Y86.376 E.01753
G1 X93.197 Y88.829 E.11135
G1 X93.14 Y89.006 E.00597
G1 X93.094 Y89.272 E.00867
G1 X90.199 Y86.376 E.13147
G1 X89.653 Y86.376 E.01753
G1 X93.045 Y89.769 E.15403
G1 X93.022 Y90 E.00745
G1 X93.054 Y90.324 E.01045
G1 X89.107 Y86.376 E.17923
G1 X88.561 Y86.376 E.01753
G1 X93.13 Y90.946 E.20747
G1 X93.395 Y91.757 E.02739
G1 X88.015 Y86.376 E.2443
G1 X87.468 Y86.376 E.01756
G1 X94.716 Y93.624 E.32909
G1 X94.17 Y93.624 E.01753
G1 X86.922 Y86.376 E.32909
G1 X86.376 Y86.376 E.01753
G1 X93.623 Y93.624 E.32906
G1 X93.077 Y93.624 E.01753
G1 X85.83 Y86.376 E.32906
G1 X85.284 Y86.376 E.01753
G1 X92.531 Y93.624 E.32906
G1 X91.985 Y93.624 E.01753
G1 X86.605 Y88.244 E.24427
G1 X86.87 Y89.055 E.02739
G1 X91.439 Y93.624 E.20745
G1 X90.893 Y93.624 E.01753
G1 X86.946 Y89.676 E.17923
G1 X86.978 Y90 E.01045
M73 P7 R11
G1 X86.955 Y90.232 E.00748
G1 X90.347 Y93.624 E.15401
G1 X89.801 Y93.624 E.01753
G1 X86.906 Y90.728 E.13147
G1 X86.86 Y90.994 E.00867
G1 X86.802 Y91.171 E.00598
G1 X89.255 Y93.624 E.11138
G1 X88.709 Y93.624 E.01753
G1 X86.669 Y91.583 E.09265
G1 X86.631 Y91.7 E.00395
G1 X86.501 Y91.961 E.00936
G1 X88.163 Y93.624 E.07548
G1 X87.617 Y93.624 E.01753
G1 X86.301 Y92.307 E.05977
G1 X86.088 Y92.64 E.01269
G1 X87.071 Y93.624 E.04465
G1 X86.525 Y93.624 E.01753
G1 X85.829 Y92.928 E.0316
G1 X85.568 Y93.213 E.01241
G1 X85.979 Y93.624 E.01866
G1 X85.433 Y93.624 E.01753
G1 X85.141 Y93.332 E.01326
M204 P1000
G1 E-2.24 F4200
;WIPE_START
G1 F7200
G1 X85.433 Y93.624 E-.22884
G1 X85.979 Y93.624 E-.30257
G1 X85.568 Y93.213 E-.3221
G1 X85.698 Y93.071 E-.10649
;WIPE_END
G1 Z.4 F720
G1 X99.859 Y86.207 F9000
G1 Z.2 F720
G1 E3.2 F2400
M204 P600
;WIDTH:0.426334
G1 F1200
G1 X102.894 Y89.241 E.13682
G1 X105.254 Y92.144 E.11928
G1 X101.422 Y88.312 E.17277
G1 X101.683 Y89.115 E.02692
G1 X106.192 Y93.624 E.2033
G1 X105.649 Y93.624 E.01731
G1 X101.754 Y89.728 E.17563
G1 X101.774 Y89.913 E.00593
G1 X101.754 Y90.271 E.01143
G1 X105.107 Y93.624 E.15118
G1 X104.565 Y93.624 E.01728
G1 X101.703 Y90.761 E.12906
G1 X101.66 Y90.994 E.00755
G1 X101.595 Y91.195 E.00673
G1 X104.023 Y93.624 E.10949
G1 X103.48 Y93.624 E.01731
G1 X101.458 Y91.601 E.09119
G1 X101.362 Y91.854 E.00863
G1 X101.292 Y91.977 E.00451
G1 X102.938 Y93.624 E.07424
G1 X102.396 Y93.624 E.01728
G1 X101.093 Y92.321 E.05875
G1 X100.88 Y92.649 E.01247
G1 X101.854 Y93.624 E.04394
G1 X101.312 Y93.624 E.01728
G1 X100.623 Y92.935 E.03106
G1 X100.363 Y93.217 E.01223
G1 X100.769 Y93.624 E.01833
G1 X100.227 Y93.624 E.01728
G1 X99.938 Y93.334 E.01305
M204 P1000
; stop printing object tfsik_antenna_holder.stl id:0 copy 0
M106 S84.15
;LAYER_CHANGE
;Z:0.4
;HEIGHT:0.2
;BEFORE_LAYER_CHANGE
G92 E0.0
;0.4


G1 E-2.24 F4200
;WIPE_START
G1 F7200
G1 X100.227 Y93.624 E-.22688
G1 X100.769 Y93.624 E-.30036
G1 X100.363 Y93.217 E-.31858
G1 X100.503 Y93.066 E-.11418
;WIPE_END
G1 Z.4 F720
;AFTER_LAYER_CHANGE
;0.4
G1 Z.6
G1 X100.503 Y97.504 F9000
G1 Z.4 F720
G1 E3.2 F2400
;TYPE:Skirt/Brim
;WIDTH:0.42
G1 X71.5 Y97.504 E.90937
G1 X70.083 Y97.111 E.04611
G1 X69.069 Y96.045 E.04613
G1 X68.746 Y94.75 E.04185
G1 X68.746 Y94.35 E.01254
G1 X69.363 Y92.612 E.05783
G1 X76.763 Y83.512 E.36776
G1 X77.962 Y82.66 E.04612
G1 X78.9 Y82.496 E.02986
G1 X101.1 Y82.496 E.69607
G1 X102.517 Y82.889 E.04611
G1 X103.237 Y83.512 E.02985
G1 X110.637 Y92.612 E.36776
G1 X111.254 Y94.35 E.05783
M73 P8 R11
G1 X111.254 Y94.75 E.01254
G1 X110.861 Y96.167 E.04611
G1 X109.795 Y97.181 E.04613
G1 X108.5 Y97.504 E.04185
G1 X100.563 Y97.504 E.24886
G1 X100.563 Y97.127 F9000
G1 F2400
G1 X71.5 Y97.127 E.91125
G1 X70.193 Y96.735 E.04278
G1 X69.317 Y95.69 E.04275
G1 X69.123 Y94.75 E.03009
G1 X69.123 Y94.35 E.01254
G1 X69.656 Y92.85 E.04991
G1 X77.056 Y83.75 E.36776
G1 X78.184 Y82.983 E.04277
G1 X78.9 Y82.873 E.02271
G1 X101.1 Y82.873 E.69607
G1 X102.407 Y83.265 E.04278
G1 X102.944 Y83.75 E.02269
G1 X110.344 Y92.85 E.36776
G1 X110.877 Y94.35 E.04991
G1 X110.877 Y94.75 E.01254
G1 X110.485 Y96.057 E.04278
G1 X109.44 Y96.933 E.04275
G1 X108.5 Y97.127 E.03009
G1 X100.623 Y97.127 E.24698
; printing object tfsik_antenna_holder.stl id:0 copy 0
G1 E-2.24 F4200
;WIPE_START
G1 F7200
G1 X98.891 Y97.127 E-.96
;WIPE_END
G1 Z.6 F720
G1 X93.641 Y85.882 F9000
G1 Z.4 F720
G1 E3.2 F2400
M204 P900
;TYPE:Perimeter
;WIDTH:0.449999
G1 X96.219 Y85.882 E.08726
G1 X96.639 Y85.863 E.01423
;WIDTH:0.411641
G1 X97.058 Y85.844 E.01286
;WIDTH:0.38143
G1 X97.897 Y85.848 E.02362
;WIDTH:0.415715
G1 X98.239 Y85.865 E.01061
