; generated by PrusaSlicer 2.6.1+linux-x64-GTK3 on 2023-10-01 at 10:15:06 UTC


;
;

;
;

;
;
; 

; external perimeters extrusion width = 0.45mm
; perimeters extrusion width = 0.45mm
; infill extrusion width = 0.45mm
; solid infill extrusion width = 0.45mm
; top infill extrusion width = 0.42mm
; first layer extrusion width = 0.50mm

M73 P0 R9
M201 X4000 Y4000 Z400 E5000 ; sets maximum accelerations, mm/sec^2
M203 X400 Y400 Z12 E80 ; sets maximum feedrates, mm / sec
M204 P4000 R1250 T4000 ; sets acceleration (P, T) and retract acceleration (R), mm/sec^2
M205 X8.00 Y8.00 Z2.00 E10.00 ; sets the jerk limits, mm/sec
M205 S0 T0 ; sets the minimum extruding and travel feed rate, mm/sec
;TYPE:Custom
M862.3 P "MINI" ; printer model check
M862.1 P0.4 ; nozzle diameter check
M862.5 P2 ; g-code level check
M862.6 P"Input shaper" ; FW feature check
G90 ; use absolute coordinates
M83 ; extruder relative mode
M104 S170 ; set extruder temp for bed leveling
M140 S60 ; set bed temp
M109 R170 ; wait for bed leveling temp
M190 S60 ; wait for bed temp
M569 S1 X Y ; set stealthchop for X Y
M204 T1250 ; set travel acceleration
G28 ; home all without mesh bed level
G29 ; mesh bed leveling 
M104 S215 ; set extruder temp
G92 E0
G1 Y-2 X179 F2400
G1 Z3 F720
M109 S215 ; wait for extruder temp

; intro line
G1 X170 F1000
G1 Z0.2 F720
G1 X110 E8 F900
G1 X40 E10 F700
G92 E0

M569 S0 X Y ; set spreadcycle for X Y
M204 T4000 ; restore travel acceleration
M572 W0.06 ; set smooth time
M221 S95 ; set flow
G21 ; set units to millimeters
G90 ; use absolute coordinates
M83 ; use relative distances for extrusion
M900 K0.2 ; Filament gcode LA 1.5
; ; Filament gcode LA 1.0
M107
;LAYER_CHANGE
;Z:0.2
;HEIGHT:0.2
;BEFORE_LAYER_CHANGE
G92 E0.0
;0.2
M201 X4000 Y4000
M74 W0

M73 P1 R9
G1 E-2.5 F4200
M73 P2 R9
G1 Z.2 F720
;AFTER_LAYER_CHANGE
;0.2
; printing object tfsik_antenna_holder.stl id:0 copy 0
G1 Z.4
M204 T4000
G1 X98.945 Y93.843 F24000
G1 Z.2 F720
G1 E2.5 F2400
M204 P500
;TYPE:Perimeter
;WIDTH:0.499999
G1 X99.539 Y93.562 E.02497
G1 X100.233 Y93.039 E.03303
G1 X100.803 Y92.384 E.033
G1 X101.166 Y91.755 E.0276
G1 X101.288 Y91.429 E.01323
G1 X101.479 Y90.794 E.0252
G1 X101.555 Y89.928 E.03304
G1 X101.449 Y89.066 E.03301
;WIDTH:0.542672
G1 X101.378 Y88.834 E.01008
;WIDTH:0.585345
G1 X101.306 Y88.601 E.011
;WIDTH:0.628018
G1 X101.235 Y88.368 E.01185
;WIDTH:0.670691
G1 X101.164 Y88.136 E.01266
;WIDTH:0.713364
G1 X101.092 Y87.903 E.0136
G1 X100.784 Y87.441 E.03095
;WIDTH:0.700577
G1 X100.186 Y86.783 E.04862
G1 X99.417 Y86.257 E.05095
G1 X100.621 Y86.257 E.06584
G1 X100.8 Y86.472 E.0153
;WIDTH:0.69404
G1 X101.3 Y87.072 E.04229
;WIDTH:0.713364
G1 X101.643 Y87.524 E.03163
G1 X101.709 Y87.572 E.00455
;WIDTH:0.670691
G1 X101.776 Y87.621 E.00433
;WIDTH:0.628018
G1 X101.843 Y87.669 E.00401
;WIDTH:0.585345
G1 X101.91 Y87.718 E.00374
;WIDTH:0.542672
G1 X101.977 Y87.766 E.00342
;WIDTH:0.499999
G1 X106.919 Y93.843 E.2977
G1 X99.005 Y93.843 E.30078
M204 P2000
G1 E-2.5 F4200
M73 P3 R9
G1 Z.4 F720
G1 X93.261 Y89.989 F24000
G1 Z.2 F720
G1 E2.5 F2400
M204 P500
G1 X93.261 Y90.221 E.00882
G1 X93.351 Y90.934 E.02731
G1 X93.634 Y91.755 E.033
G1 X94.081 Y92.5 E.03302
G1 X94.673 Y93.135 E.033
G1 X95.385 Y93.634 E.03304
G1 X95.855 Y93.843 E.01955
G1 X84.145 Y93.843 E.44505
G1 X84.739 Y93.562 E.02497
G1 X85.433 Y93.039 E.03303
G1 X86.003 Y92.384 E.033
G1 X86.425 Y91.624 E.03304
G1 X86.679 Y90.794 E.03299
G1 X86.739 Y90.221 E.0219
G1 X86.739 Y89.779 E.0168
G1 X86.649 Y89.066 E.02731
G1 X86.366 Y88.245 E.033
G1 X85.919 Y87.5 E.03302
G1 X85.327 Y86.865 E.033
G1 X84.615 Y86.366 E.03304
G1 X84.145 Y86.157 E.01955
G1 X95.855 Y86.157 E.44505
G1 X95.261 Y86.438 E.02497
G1 X94.567 Y86.961 E.03303
G1 X93.997 Y87.616 E.033
G1 X93.575 Y88.376 E.03304
G1 X93.321 Y89.206 E.03299
G1 X93.261 Y89.779 E.0219
G1 X93.261 Y89.929 E.0057
M204 P2000
G1 X93.699 Y90 F24000
M204 P500
;TYPE:External perimeter
G1 F2400
G1 X93.776 Y89.254 E.0285
G1 X94.01 Y88.517 E.02939
G1 X94.393 Y87.845 E.0294
G1 X94.906 Y87.266 E.0294
G1 X95.529 Y86.808 E.02939
G1 X96.234 Y86.489 E.02941
;WIDTH:0.540158
G1 X96.608 Y86.386 E.01604
;WIDTH:0.580317
G1 X96.981 Y86.284 E.01728
G1 X97.763 Y86.278 E.03494
G1 X98.142 Y86.376 E.01749
;WIDTH:0.540181
G1 X98.521 Y86.474 E.01619
;WIDTH:0.499999
G1 X99.229 Y86.784 E.02937
G1 X99.858 Y87.234 E.02939
G1 X100.379 Y87.806 E.02941
G1 X100.77 Y88.473 E.02938
G1 X101.014 Y89.207 E.0294
G1 X101.1 Y89.976 E.02941
G1 X101.024 Y90.746 E.02941
G1 X100.853 Y91.288 E.0216
G1 X100.77 Y91.527 E.00962
G1 X100.407 Y92.155 E.02757
G1 X99.894 Y92.734 E.0294
G1 X99.271 Y93.192 E.02939
G1 X98.566 Y93.511 E.02941
;WIDTH:0.540158
G1 X98.192 Y93.614 E.01604
;WIDTH:0.580317
G1 X97.819 Y93.716 E.01728
G1 X97.037 Y93.722 E.03494
G1 X96.658 Y93.624 E.01749
;WIDTH:0.540181
G1 X96.279 Y93.526 E.01619
;WIDTH:0.499999
G1 X95.571 Y93.216 E.02937
G1 X94.942 Y92.766 E.02939
G1 X94.421 Y92.194 E.02941
G1 X94.03 Y91.527 E.02938
G1 X93.786 Y90.793 E.0294
G1 X93.705 Y90.06 E.02803
M204 P2000
G1 X93.352 Y89.801 F24000
G1 E-2.5 F4200
G1 Z.4 F720
G1 X78.447 Y90.053 F24000
G1 Z.2 F720
G1 E2.5 F2400
M204 P500
;TYPE:Perimeter
G1 X78.551 Y90.934 E.03372
G1 X78.834 Y91.755 E.033
G1 X79.281 Y92.5 E.03302
G1 X79.873 Y93.135 E.033
G1 X80.585 Y93.634 E.03304
G1 X81.055 Y93.843 E.01955
G1 X73.081 Y93.843 E.30306
G1 X78.025 Y87.767 E.29772
;WIDTH:0.542672
G1 X78.091 Y87.719 E.00339
;WIDTH:0.585345
G1 X78.158 Y87.67 E.00374
;WIDTH:0.628018
G1 X78.224 Y87.621 E.004
;WIDTH:0.670691
G1 X78.291 Y87.573 E.0043
;WIDTH:0.713364
G1 X78.357 Y87.524 E.00458
G1 X78.735 Y87.03 E.03468
;WIDTH:0.700578
G1 X79.379 Y86.257 E.05502
G1 X80.583 Y86.257 E.06584
G1 X80.402 Y86.357 E.01131
G1 X79.695 Y86.896 E.04862
;WIDTH:0.694041
G1 X79.191 Y87.471 E.0414
;WIDTH:0.713364
G1 X78.908 Y87.903 E.02879
G1 X78.881 Y87.998 E.00551
;WIDTH:0.670691
G1 X78.855 Y88.092 E.00509
;WIDTH:0.628018
G1 X78.828 Y88.187 E.0048
;WIDTH:0.585345
G1 X78.802 Y88.281 E.0044
;WIDTH:0.542672
G1 X78.775 Y88.376 E.0041
;WIDTH:0.499999
G1 X78.521 Y89.206 E.03299
G1 X78.452 Y89.994 E.03006
M204 P2000
G1 X78.9 Y90.024 F24000
M204 P500
;TYPE:External perimeter
G1 F2400
G1 X78.976 Y89.254 E.02941
G1 X79.21 Y88.517 E.02939
G1 X79.396 Y88.185 E.01446
G1 X79.621 Y87.806 E.01675
G1 X80.106 Y87.266 E.02759
G1 X80.729 Y86.808 E.02939
G1 X81.434 Y86.489 E.02941
;WIDTH:0.540158
G1 X81.808 Y86.386 E.01604
;WIDTH:0.580317
G1 X82.181 Y86.284 E.01728
G1 X82.963 Y86.278 E.03494
G1 X83.342 Y86.376 E.01749
;WIDTH:0.540181
G1 X83.721 Y86.474 E.01619
;WIDTH:0.499999
G1 X84.429 Y86.784 E.02937
G1 X85.058 Y87.234 E.02939
G1 X85.579 Y87.806 E.02941
G1 X85.97 Y88.473 E.02938
G1 X86.214 Y89.207 E.0294
G1 X86.284 Y89.827 E.02371
G1 X86.284 Y90.173 E.01315
G1 X86.224 Y90.746 E.0219
G1 X85.99 Y91.483 E.02939
G1 X85.607 Y92.155 E.0294
G1 X85.094 Y92.734 E.0294
G1 X84.471 Y93.192 E.02939
G1 X83.766 Y93.511 E.02941
;WIDTH:0.540158
G1 X83.392 Y93.614 E.01604
;WIDTH:0.580317
G1 X83.019 Y93.716 E.01728
G1 X82.237 Y93.722 E.03494
G1 X81.858 Y93.624 E.01749
;WIDTH:0.540181
G1 X81.479 Y93.526 E.01619
;WIDTH:0.499999
G1 X80.771 Y93.216 E.02937
G1 X80.142 Y92.766 E.02939
G1 X79.621 Y92.194 E.02941
G1 X79.23 Y91.527 E.02938
G1 X78.986 Y90.793 E.0294
G1 X78.907 Y90.084 E.02711
M204 P2000
G1 X78.552 Y89.826 F24000
G1 E-2.5 F4200
G1 Z.4 F720
G1 X79.278 Y85.7 F24000
G1 Z.2 F720
G1 E2.5 F2400
M204 P500
G1 X81.398 Y85.7 E.08057
;WIDTH:0.540181
G1 X81.818 Y85.72 E.01739
;WIDTH:0.580362
G1 X82.237 Y85.74 E.01875
;WIDTH:0.586298
G1 X83.076 Y85.743 E.03791
G1 X83.439 Y85.722 E.01643
;WIDTH:0.543149
G1 X83.802 Y85.7 E.01513
;WIDTH:0.499999
G1 X96.198 Y85.7 E.47113
;WIDTH:0.540181
G1 X96.618 Y85.72 E.01739
;WIDTH:0.580362
M73 P3 R8
G1 X97.037 Y85.74 E.01875
;WIDTH:0.586299
G1 X97.876 Y85.743 E.03791
G1 X98.239 Y85.722 E.01643
;WIDTH:0.543149
G1 X98.602 Y85.7 E.01513
;WIDTH:0.499999
G1 X100.886 Y85.7 E.08681
G1 X107.879 Y94.3 E.42127
G1 X98.602 Y94.3 E.35258
;WIDTH:0.540181
M73 P4 R8
G1 X98.182 Y94.28 E.01739
;WIDTH:0.580362
G1 X97.763 Y94.26 E.01875
;WIDTH:0.586298
G1 X96.924 Y94.257 E.03791
G1 X96.561 Y94.278 E.01643
;WIDTH:0.543149
G1 X96.198 Y94.3 E.01513
;WIDTH:0.499999
G1 X83.802 Y94.3 E.47113
;WIDTH:0.540181
G1 X83.382 Y94.28 E.01739
;WIDTH:0.580362
G1 X82.963 Y94.26 E.01875
;WIDTH:0.586298
G1 X82.124 Y94.257 E.03791
G1 X81.761 Y94.278 E.01643
;WIDTH:0.543149
G1 X81.398 Y94.3 E.01513
;WIDTH:0.499999
G1 X72.121 Y94.3 E.35258
G1 X79.114 Y85.7 E.42127
G1 X79.218 Y85.7 E.00395
M204 P2000
G1 X79.57 Y85.974 F24000
G1 E-2.5 F4200
G1 Z.4 F720
G1 X78.067 Y88.006 F24000
G1 Z.2 F720
G1 E2.5 F2400
M204 P500
;TYPE:Solid infill
;WIDTH:0.514017
G1 X78.384 Y88.323 E.01756
G1 X78.221 Y88.826 E.02071
G1 X77.915 Y88.52 E.01695
G1 X77.616 Y88.887 E.01854
G1 X78.112 Y89.383 E.02748
G1 X78.058 Y89.896 E.02021
G1 X78.058 Y89.996 E.00392
G1 X77.317 Y89.254 E.04108
G1 X77.018 Y89.621 E.01854
G1 X78.124 Y90.727 E.06127
G1 X78.179 Y91.046 E.01268
G1 X78.373 Y91.643 E.02459
G1 X76.719 Y89.989 E.09163
G1 X76.42 Y90.356 E.01854
G1 X79.518 Y93.454 E.17162
G1 X78.852 Y93.454 E.02609
G1 X76.121 Y90.723 E.15129
G1 X75.822 Y91.091 E.01857
G1 X78.186 Y93.454 E.13093
G1 X77.52 Y93.454 E.02609
G1 X75.523 Y91.458 E.1106
G1 X75.224 Y91.825 E.01854
G1 X76.853 Y93.454 E.09024
G1 X76.187 Y93.454 E.02609
G1 X74.925 Y92.193 E.06988
G1 X74.626 Y92.56 E.01854
G1 X75.521 Y93.454 E.04955
G1 X74.855 Y93.454 E.02609
G1 X74.327 Y92.927 E.02922
G1 X74.029 Y93.294 E.01852
G1 X74.394 Y93.66 E.02025
M204 P2000
G1 E-2.5 F4200
G1 Z.4 F720
G1 X93.692 Y86.34 F24000
G1 Z.2 F720
G1 E2.5 F2400
M204 P500
;WIDTH:0.515503
G1 X94.171 Y86.819 E.02662
G1 X93.854 Y87.171 E.01861
G1 X93.229 Y86.546 E.03473
G1 X92.561 Y86.546 E.02625
G1 X93.578 Y87.564 E.05654
G1 X93.334 Y87.987 E.01919
G1 X91.892 Y86.546 E.08011
G1 X91.224 Y86.546 E.02625
G1 X93.139 Y88.461 E.10642
G1 X92.976 Y88.966 E.02085
G1 X90.556 Y86.546 E.13448
G1 X89.887 Y86.546 E.02629
G1 X92.896 Y89.555 E.16722
G1 X92.852 Y90 E.01757
G1 X92.872 Y90.199 E.00786
G1 X89.219 Y86.546 E.20301
G1 X88.551 Y86.546 E.02625
G1 X92.96 Y90.955 E.24502
G1 X92.979 Y91.046 E.00365
G1 X93.209 Y91.752 E.02918
G1 X93.313 Y91.976 E.0097
G1 X87.882 Y86.546 E.30178
G1 X87.214 Y86.546 E.02625
G1 X94.123 Y93.454 E.38392
G1 X93.454 Y93.454 E.02629
M73 P5 R8
G1 X86.546 Y86.546 E.38389
G1 X85.877 Y86.546 E.02629
G1 X92.786 Y93.454 E.38392
G1 X92.118 Y93.454 E.02625
G1 X86.688 Y88.024 E.30176
G1 X86.791 Y88.248 E.00969
G1 X87.021 Y88.954 E.02918
G1 X87.04 Y89.045 E.00365
G1 X91.449 Y93.454 E.24502
G1 X90.781 Y93.454 E.02625
G1 X87.128 Y89.801 E.20301
G1 X87.148 Y90 E.00786
G1 X87.104 Y90.445 E.01757
G1 X90.113 Y93.454 E.16722
G1 X89.444 Y93.454 E.02629
G1 X87.024 Y91.034 E.13448
G1 X86.861 Y91.539 E.02085
G1 X88.776 Y93.454 E.10642
G1 X88.108 Y93.454 E.02625
G1 X86.666 Y92.013 E.08011
G1 X86.421 Y92.437 E.01924
G1 X87.439 Y93.454 E.05654
G1 X86.771 Y93.454 E.02625
G1 X86.146 Y92.829 E.03473
G1 X85.829 Y93.181 E.01861
G1 X86.308 Y93.66 E.02662
M204 P2000
G1 E-2.5 F4200
G1 Z.4 F720
G1 X103.176 Y89.53 F24000
G1 Z.2 F720
G1 E2.5 F2400
M204 P500
;WIDTH:0.527787
G1 X101.684 Y88.039 E.08504
G1 X101.553 Y87.983 E.00574
G1 X101.552 Y88.158 E.00706
G1 X101.592 Y88.248 E.00397
G1 X101.776 Y88.816 E.02407
G1 X104.741 Y91.781 E.16905
G1 X106.102 Y93.454 E.08695
G1 X105.729 Y93.454 E.01504
G1 X101.915 Y89.641 E.21743
G1 X101.942 Y89.896 E.01034
G1 X101.942 Y90.104 E.00839
G1 X101.918 Y90.33 E.00916
G1 X105.043 Y93.454 E.17815
G1 X104.357 Y93.454 E.02766
G1 X101.843 Y90.941 E.14331
G1 X101.821 Y91.046 E.00433
G1 X101.684 Y91.467 E.01785
G1 X103.672 Y93.454 E.11332
G1 X102.986 Y93.454 E.02766
G1 X101.495 Y91.963 E.08501
G1 X101.244 Y92.398 E.02025
G1 X102.3 Y93.454 E.06021
G1 X101.614 Y93.454 E.02766
G1 X100.966 Y92.806 E.03695
G1 X100.641 Y93.167 E.01958
G1 X101.134 Y93.66 E.02811
M204 P2000
; stop printing object tfsik_antenna_holder.stl id:0 copy 0
M106 S84.15
;LAYER_CHANGE
;Z:0.4
;HEIGHT:0.2
;BEFORE_LAYER_CHANGE
G92 E0.0
;0.4
M201 X3999.89 Y3999.89
M74 W0.0481986

G1 E-2.5 F4200
G1 Z.4 F720
;AFTER_LAYER_CHANGE
;0.4
; printing object tfsik_antenna_holder.stl id:0 copy 0
G1 Z.6
G1 X93.641 Y85.882 F24000
G1 Z.4 F720
G1 E2.5 F2400
;TYPE:Perimeter
;WIDTH:0.449999
G1 F4800
G1 X96.219 Y85.882 E.08726
G1 X96.639 Y85.863 E.01423
;WIDTH:0.411641
G1 X97.058 Y85.844 E.01286
;WIDTH:0.38143
G1 X97.897 Y85.848 E.02362
;WIDTH:0.415715
G1 X98.239 Y85.865 E.01061
;WIDTH:0.449999
G1 X98.581 Y85.882 E.01159
G1 X100.799 Y85.882 E.07508
G1 X107.497 Y94.118 E.35933
G1 X98.581 Y94.118 E.3018
G1 X98.161 Y94.137 E.01423
;WIDTH:0.411641
G1 X97.742 Y94.156 E.01286
;WIDTH:0.381429
G1 X96.903 Y94.152 E.02362
;WIDTH:0.415714
G1 X96.561 Y94.135 E.01061
;WIDTH:0.449999
G1 X96.219 Y94.118 E.01159
G1 X83.781 Y94.118 E.42101
G1 X83.361 Y94.137 E.01423
;WIDTH:0.411641
G1 X82.942 Y94.156 E.01286
;WIDTH:0.381429
G1 X82.103 Y94.152 E.02362
;WIDTH:0.415714
G1 X81.761 Y94.135 E.01061
;WIDTH:0.449999
G1 X81.419 Y94.118 E.01159
G1 X72.503 Y94.118 E.3018
G1 X79.201 Y85.882 E.35933
G1 X81.419 Y85.882 E.07508
G1 X81.839 Y85.863 E.01423
;WIDTH:0.411641
G1 X82.258 Y85.844 E.01286
;WIDTH:0.38143
G1 X83.097 Y85.848 E.02362
;WIDTH:0.415715
G1 X83.439 Y85.865 E.01061
;WIDTH:0.449999
G1 X83.781 Y85.882 E.01159
G1 X93.581 Y85.882 E.33172
G1 E-2.5 F4200
M73 P6 R8
G1 Z.6 F720
G1 X79.196 Y85.475 F24000
G1 Z.4 F720
G1 E2.5 F2400
M204 P1500
;TYPE:External perimeter
G1 F2700

G1 X100.993 Y85.475 E.7378
G1 X108.259 Y94.411 E.38984
G1 X108.275 Y94.455 E.00158
G1 X108.275 Y94.525 E.00237
G1 X107.825 Y94.525 E.01523
G1 F2699.997
G1 X72.175 Y94.525 E1.20671
G1 X71.725 Y94.525 E.01523
G1 X71.725 Y94.43 E.00322
G1 X72.009 Y94.081 E.01523
G1 X78.723 Y85.824 E.36022
G1 X79.007 Y85.475 E.01523
G1 X79.136 Y85.475 E.00437
G1 F2700

M204 P2000
G1 X79.488 Y85.749 F24000
G1 E-2.5 F4200
G1 Z.6 F720
G1 X93.518 Y90 F24000
G1 Z.4 F720
G1 E2.5 F2400
;TYPE:Perimeter
G1 F2700
G1 X93.593 Y89.256 E.02531
G1 X93.831 Y88.481 E.02744
G1 X94.224 Y87.772 E.02744
G1 X94.757 Y87.16 E.02747
G1 X95.405 Y86.673 E.02744
G1 X96.141 Y86.331 E.02747
G1 X96.539 Y86.256 E.01371
;WIDTH:0.416814
G1 X96.938 Y86.182 E.01262
;WIDTH:0.383628
G1 X97.742 Y86.174 E.02278
;WIDTH:0.411641
G1 X98.14 Y86.233 E.01234
;WIDTH:0.449999
G1 X98.538 Y86.291 E.01361
G1 X99.284 Y86.609 E.02745
G1 X99.948 Y87.075 E.02746
G1 X100.501 Y87.668 E.02745
G1 X100.918 Y88.364 E.02746
G1 X101.181 Y89.131 E.02745
G1 X101.279 Y89.936 E.02745
G1 X101.207 Y90.744 E.02746
G1 X101.026 Y91.344 E.02121
G1 X100.918 Y91.636 E.01054
G1 X100.576 Y92.228 E.02314
G1 X100.043 Y92.84 E.02747
G1 X99.395 Y93.327 E.02744
G1 X98.659 Y93.669 E.02747
G1 X98.261 Y93.744 E.01371
;WIDTH:0.416814
G1 X97.862 Y93.818 E.01262
;WIDTH:0.383628
G1 X97.058 Y93.826 E.02278
;WIDTH:0.411641
G1 X96.66 Y93.767 E.01234
;WIDTH:0.449999
G1 X96.262 Y93.709 E.01361
G1 X95.516 Y93.391 E.02745
G1 X94.852 Y92.925 E.02746
G1 X94.299 Y92.332 E.02745
G1 X93.882 Y91.636 E.02746
G1 X93.619 Y90.869 E.02745
G1 X93.523 Y90.06 E.02758
G1 X93.925 Y90 F24000
M204 P1500
;TYPE:External perimeter
G1 F2700

G1 X93.997 Y89.299 E.02385
G1 X94.218 Y88.606 E.02462
G1 X94.577 Y87.975 E.02457
G1 X95.06 Y87.433 E.02457
G1 X95.645 Y87.002 E.0246
G1 X96.306 Y86.703 E.02456
G1 X97.016 Y86.547 E.02461
G1 X97.742 Y86.543 E.02457
G1 X98.453 Y86.689 E.02457
G1 X99.119 Y86.981 E.02461
G1 X99.709 Y87.404 E.02457
G1 X100.198 Y87.941 E.02458
G1 X100.565 Y88.568 E.02459
G1 X100.794 Y89.257 E.02458
G1 X100.874 Y89.979 E.02459
G1 X100.803 Y90.701 E.02456
G1 X100.565 Y91.432 E.02602
G1 X100.223 Y92.025 E.02317
G1 X99.74 Y92.567 E.02457
G1 X99.155 Y92.998 E.0246
G1 X98.494 Y93.297 E.02456
G1 X97.784 Y93.453 E.02461
G1 X97.058 Y93.457 E.02457
G1 X96.347 Y93.311 E.02457
G1 X95.681 Y93.019 E.02461
G1 X95.091 Y92.596 E.02457
G1 X94.602 Y92.059 E.02458
G1 X94.235 Y91.432 E.02459
G1 X94.006 Y90.743 E.02458
G1 F2696.779
G1 X93.931 Y90.06 E.02326

M204 P2000
G1 X93.578 Y89.801 F24000
G1 E-2.5 F4200
G1 Z.6 F720
G1 X78.721 Y90.064 F24000
G1 Z.4 F720
G1 E2.5 F2400
;TYPE:Perimeter
G1 F2700
G1 X78.793 Y89.256 E.02746
G1 X79.031 Y88.481 E.02744
G1 X79.424 Y87.772 E.02744
