; generated by PrusaSlicer 2.6.1+linux-x64-GTK3 on 2023-10-01 at 08:47:17 UTC


;
;

;
;
; 

; external perimeters extrusion width = 0.45mm
; perimeters extrusion width = 0.45mm
; infill extrusion width = 0.45mm
; solid infill extrusion width = 0.45mm
; top infill extrusion width = 0.40mm
; first layer extrusion width = 0.42mm

M73 P0 R11
M201 X2500 Y2500 Z400 E5000 ; sets maximum accelerations, mm/sec^2
M203 X180 Y180 Z12 E80 ; sets maximum feedrates, mm / sec
M204 P2000 R1250 T2500 ; sets acceleration (P, T) and retract acceleration (R), mm/sec^2
M205 X8.00 Y8.00 Z2.00 E10.00 ; sets the jerk limits, mm/sec
M205 S0 T0 ; sets the minimum extruding and travel feed rate, mm/sec
;TYPE:Custom
M862.3 P "MINI" ; printer model check
G90 ; use absolute coordinates
M83 ; extruder relative mode
M104 S170 ; set extruder temp for bed leveling
M140 S60 ; set bed temp
M109 R170 ; wait for bed leveling temp
M190 S60 ; wait for bed temp
M204 T1250 ; set travel acceleration
G28 ; home all without mesh bed level
G29 ; mesh bed leveling 
M204 T2500 ; restore travel acceleration
M104 S215 ; set extruder temp
G92 E0
G1 Y-2 X179 F2400
G1 Z3 F720
M109 S215 ; wait for extruder temp

; intro line
G1 X170 F1000
G1 Z0.2 F720
G1 X110 E8 F900
G1 X40 E10 F700
G92 E0

M221 S95 ; set flow
G21 ; set units to millimeters
G90 ; use absolute coordinates
M83 ; use relative distances for extrusion
M900 K0.2 ; Filament gcode LA 1.5
; ; Filament gcode LA 1.0
M107
;LAYER_CHANGE
;Z:0.2
;HEIGHT:0.2
;BEFORE_LAYER_CHANGE
G92 E0.0
;0.2


M73 P1 R11
G1 E-3.2 F4200
M73 P2 R11
G1 Z.2 F720
;AFTER_LAYER_CHANGE
;0.2
G1 Z.4
G1 X76.745 Y83.435 F9000
G1 Z.2 F720
G1 E3.2 F2400
M204 P600
;TYPE:Skirt/Brim
;WIDTH:0.42
G1 F1200
G1 X77.935 Y82.571 E.04611
G1 X78.9 Y82.396 E.03075
G1 X101.1 Y82.396 E.69607
G1 X102.517 Y82.789 E.04611
G1 X103.255 Y83.435 E.03075
G1 X110.655 Y92.735 E.37264
G1 X111.254 Y94.45 E.05696
M73 P2 R10
G1 X111.254 Y94.85 E.01254
G1 X110.861 Y96.267 E.04611
G1 X109.795 Y97.281 E.04613
G1 X108.5 Y97.604 E.04185
G1 X71.5 Y97.604 E1.16011
G1 X70.083 Y97.211 E.04611
M73 P3 R10
G1 X69.069 Y96.145 E.04613
G1 X68.746 Y94.85 E.04185
G1 X68.746 Y94.45 E.01254
G1 X69.345 Y92.735 E.05696
G1 X76.708 Y83.482 E.37077
M204 P1000
G1 X77.003 Y83.717 F9000
M204 P600
G1 F1200
G1 X77.04 Y83.67 E.00188
G1 X78.16 Y82.891 E.04278
G1 X78.9 Y82.773 E.0235
G1 X101.1 Y82.773 E.69607
G1 X102.407 Y83.165 E.04278
G1 X102.96 Y83.67 E.02348
G1 X110.36 Y92.97 E.37264
G1 X110.877 Y94.45 E.04915
G1 X110.877 Y94.85 E.01254
G1 X110.485 Y96.157 E.04278
G1 X109.44 Y97.033 E.04275
G1 X108.5 Y97.227 E.03009
G1 X71.5 Y97.227 E1.16011
G1 X70.193 Y96.835 E.04278
G1 X69.317 Y95.79 E.04275
G1 X69.123 Y94.85 E.03009
G1 X69.123 Y94.45 E.01254
G1 X69.64 Y92.97 E.04915
G1 X76.965 Y83.764 E.36887
M204 P1000
; printing object tfsik_antenna_holder id:0 copy 0
G1 E-2.24 F4200
;WIPE_START
G1 F7200
G1 X77.04 Y83.67 E-.06664
G1 X78.16 Y82.891 E-.75603
G1 X78.405 Y82.852 E-.13733
;WIPE_END
G1 Z.4 F720
G1 X95.308 Y94.063 F9000
G1 Z.2 F720
G1 E3.2 F2400
M204 P600
;TYPE:Perimeter
;WIDTH:0.419999
G1 F1200
G1 X83.523 Y94.063 E.36951
G1 X83.903 Y93.969 E.01227
M73 P4 R10
G1 X84.669 Y93.615 E.02646
G1 X85.344 Y93.109 E.02645
G1 X85.899 Y92.474 E.02644
G1 X86.31 Y91.737 E.02646
G1 X86.559 Y90.931 E.02645
G1 X86.635 Y90.091 E.02645
G1 X86.535 Y89.253 E.02646
G1 X86.262 Y88.455 E.02644
G1 X85.83 Y87.73 E.02646
G1 X85.256 Y87.112 E.02645
G1 X84.566 Y86.626 E.02646
G1 X83.791 Y86.294 E.02644
;WIDTH:0.461656
G1 X83.653 Y86.243 E.00512
;WIDTH:0.503313
G1 X83.515 Y86.193 E.00562
;WIDTH:0.544969
G1 X83.378 Y86.142 E.0061
;WIDTH:0.586626
G1 X83.24 Y86.092 E.00664
;WIDTH:0.628282
G1 X83.102 Y86.041 E.00716
G1 X83.247 Y86.02 E.00713
;WIDTH:0.586626
G1 X83.393 Y86 E.00666
;WIDTH:0.544969
G1 X83.538 Y85.979 E.00612
;WIDTH:0.503313
G1 X83.683 Y85.958 E.00561
;WIDTH:0.461656
G1 X83.828 Y85.937 E.0051
;WIDTH:0.419999
G1 X96.172 Y85.937 E.38704
;WIDTH:0.460736
G1 X96.322 Y85.957 E.00526
;WIDTH:0.501473
G1 X96.472 Y85.978 E.00578
;WIDTH:0.54221
G1 X96.622 Y85.998 E.00628
;WIDTH:0.582947
G1 X96.772 Y86.019 E.0068
;WIDTH:0.623684
G1 X96.922 Y86.039 E.00731
G1 X96.9 Y86.049 E.00117
;WIDTH:0.611444
G1 X96.699 Y86.12 E.01008
;WIDTH:0.563583
G1 X96.498 Y86.19 E.00921
;WIDTH:0.515722
G1 X96.297 Y86.26 E.00837
;WIDTH:0.467861
G1 X96.097 Y86.331 E.0075
;WIDTH:0.419999
G1 X95.331 Y86.685 E.02646
G1 X94.656 Y87.191 E.02645
G1 X94.101 Y87.826 E.02644
G1 X93.69 Y88.563 E.02646
G1 X93.465 Y89.253 E.02276
G1 X93.404 Y89.718 E.0147
G1 X93.376 Y90.314 E.01871
G1 X93.465 Y91.047 E.02315
G1 X93.738 Y91.845 E.02644
G1 X94.17 Y92.57 E.02646
G1 X94.744 Y93.188 E.02645
G1 X95.434 Y93.674 E.02646
G1 X96.097 Y93.969 E.02275
G1 X96.477 Y94.063 E.01227
G1 X95.368 Y94.063 E.03477
M204 P1000
G1 E-2.24 F4200
;WIPE_START
G1 F7200
G1 X93.636 Y94.063 E-.96
;WIPE_END
G1 Z.4 F720
G1 X107.186 Y94.063 F9000
G1 Z.2 F720
G1 E3.2 F2400
M204 P600
G1 F1200
G1 X98.323 Y94.063 E.27789
G1 X98.703 Y93.969 E.01227
G1 X99.469 Y93.615 E.02646
G1 X100.144 Y93.109 E.02645
G1 X100.699 Y92.474 E.02644
G1 X101.062 Y91.845 E.02277
G1 X101.197 Y91.471 E.01247
G1 X101.359 Y90.931 E.01768
G1 X101.435 Y90.091 E.02645
G1 X101.335 Y89.253 E.02646
G1 X101.062 Y88.455 E.02644
G1 X100.63 Y87.73 E.02646
G1 X100.035 Y87.096 E.02726
G1 X99.366 Y86.626 E.02564
G1 X98.591 Y86.294 E.02644
;WIDTH:0.461656
G1 X98.453 Y86.243 E.00512
;WIDTH:0.503313
G1 X98.315 Y86.193 E.00562
;WIDTH:0.544969
G1 X98.178 Y86.142 E.0061
;WIDTH:0.586626
G1 X98.04 Y86.092 E.00664
;WIDTH:0.628282
G1 X97.902 Y86.041 E.00716
G1 X98.047 Y86.02 E.00713
;WIDTH:0.586626
G1 X98.193 Y86 E.00666
;WIDTH:0.544969
G1 X98.338 Y85.979 E.00612
;WIDTH:0.503313
G1 X98.483 Y85.958 E.00561
;WIDTH:0.461656
G1 X98.628 Y85.937 E.0051
;WIDTH:0.419999
G1 X100.72 Y85.937 E.06559
G1 X107.149 Y94.016 E.32373
M204 P1000
G1 E-2.24 F4200
;WIPE_START
G1 F7200
G1 X105.417 Y94.025 E-.96
;WIPE_END
G1 Z.4 F720
G1 X95.587 Y93.33 F9000
G1 Z.2 F720
G1 E3.2 F2400
M204 P600
;TYPE:External perimeter
G1 F1200
G1 X94.966 Y92.883 E.02399
G1 X94.45 Y92.317 E.02401
G1 X94.064 Y91.657 E.02397
G1 X93.824 Y90.93 E.024
G1 X93.739 Y90.134 E.0251
G1 X93.816 Y89.408 E.02289
G1 X94.048 Y88.679 E.02399
G1 X94.427 Y88.015 E.02397
G1 X94.936 Y87.443 E.02401
G1 X95.553 Y86.99 E.024
G1 X96.25 Y86.675 E.02398
G1 X96.998 Y86.512 E.024
G1 X97.763 Y86.508 E.02399
G1 X98.512 Y86.663 E.02398
G1 X99.213 Y86.97 E.02399
G1 X99.813 Y87.401 E.02316
G1 X100.35 Y87.983 E.02483
G1 X100.736 Y88.643 E.02397
G1 X100.976 Y89.37 E.024
G1 X101.06 Y90.13 E.02397
G1 X100.984 Y90.892 E.02401
G1 X100.752 Y91.621 E.02399
G1 X100.373 Y92.285 E.02397
G1 X99.864 Y92.857 E.02401
G1 X99.247 Y93.31 E.024
G1 X98.55 Y93.625 E.02398
;WIDTH:0.464257
G1 X98.305 Y93.701 E.00899
;WIDTH:0.508515
G1 X98.061 Y93.777 E.00989
;WIDTH:0.552772
G1 X97.816 Y93.853 E.01087
;WIDTH:0.555362
G1 X97.037 Y93.86 E.03319
G1 X96.787 Y93.786 E.01111
;WIDTH:0.510241
G1 X96.537 Y93.711 E.01014
;WIDTH:0.46512
G1 X96.288 Y93.637 E.00912
;WIDTH:0.419999
G1 X95.642 Y93.354 E.02211
M204 P1000
G1 E-2.24 F4200
;WIPE_START
G1 F7200
G1 X94.966 Y92.883 E-.45658
G1 X94.45 Y92.317 E-.42444
G1 X94.378 Y92.194 E-.07898
;WIPE_END
G1 Z.4 F720
G1 X96.922 Y86.039 F9000
G1 Z.2 F720
G1 E3.2 F2400
M204 P600
;TYPE:Perimeter
;WIDTH:0.623684
G1 F1200
G1 X97.763 Y86.034 E.04061
;WIDTH:0.628282
G1 X97.902 Y86.041 E.00677
M204 P1000
G1 E-2.24 F4200
;WIPE_START
G1 F7200
G1 X97.763 Y86.034 E-.07713
G1 X96.922 Y86.039 E-.46606
;WIPE_END
G1 E-.41681 F4200
G1 Z.4 F720
G1 X78.569 Y90.163 F9000
G1 Z.2 F720
M73 P5 R10
G1 E3.2 F2400
M204 P600
;WIDTH:0.419999
G1 F1200
G1 X78.665 Y91.047 E.02788
G1 X78.938 Y91.845 E.02644
G1 X79.37 Y92.57 E.02646
G1 X79.944 Y93.188 E.02645
G1 X80.634 Y93.674 E.02646
G1 X81.297 Y93.969 E.02275
G1 X81.677 Y94.063 E.01227
G1 X72.814 Y94.063 E.27789
G1 X79.28 Y85.937 E.3256
G1 X81.372 Y85.937 E.06559
;WIDTH:0.460736
G1 X81.522 Y85.957 E.00526
;WIDTH:0.501473
G1 X81.672 Y85.978 E.00578
;WIDTH:0.54221
G1 X81.822 Y85.998 E.00628
;WIDTH:0.582947
G1 X81.972 Y86.019 E.0068
;WIDTH:0.623684
G1 X82.122 Y86.039 E.00731
G1 X82.1 Y86.049 E.00117
;WIDTH:0.611444
G1 X81.899 Y86.12 E.01008
;WIDTH:0.563583
G1 X81.698 Y86.19 E.00921
;WIDTH:0.515722
G1 X81.497 Y86.26 E.00837
;WIDTH:0.467861
G1 X81.297 Y86.331 E.0075
;WIDTH:0.419999
G1 X80.531 Y86.685 E.02646
G1 X79.856 Y87.191 E.02645
G1 X79.301 Y87.826 E.02644
G1 X78.89 Y88.563 E.02646
G1 X78.641 Y89.369 E.02645
G1 X78.574 Y90.103 E.02311
M204 P1000
G1 X78.94 Y90.17 F9000
M204 P600
;TYPE:External perimeter
G1 F1200
G1 X79.016 Y89.408 E.02401
G1 X79.248 Y88.679 E.02399
G1 X79.627 Y88.015 E.02397
G1 X80.136 Y87.443 E.02401
G1 X80.753 Y86.99 E.024
G1 X81.45 Y86.675 E.02398
G1 X82.198 Y86.512 E.024
G1 X82.963 Y86.508 E.02399
G1 X83.712 Y86.663 E.02398
G1 X84.413 Y86.97 E.02399
G1 X85.035 Y87.417 E.02402
G1 X85.55 Y87.983 E.02399
G1 X85.936 Y88.643 E.02397
G1 X86.176 Y89.37 E.024
G1 X86.26 Y90.13 E.02397
G1 X86.184 Y90.892 E.02401
G1 X85.952 Y91.621 E.02399
G1 X85.573 Y92.285 E.02397
G1 X85.064 Y92.857 E.02401
G1 X84.447 Y93.31 E.024
G1 X83.75 Y93.625 E.02398
;WIDTH:0.464257
G1 X83.505 Y93.701 E.00899
;WIDTH:0.508515
G1 X83.261 Y93.777 E.00989
;WIDTH:0.552772
G1 X83.016 Y93.853 E.01087
;WIDTH:0.555362
G1 X82.237 Y93.86 E.03319
G1 X81.987 Y93.786 E.01111
;WIDTH:0.510241
G1 X81.737 Y93.711 E.01014
;WIDTH:0.46512
G1 X81.488 Y93.637 E.00912
;WIDTH:0.419999
G1 X80.787 Y93.33 E.02399
G1 X80.166 Y92.883 E.02399
G1 X79.65 Y92.317 E.02401
G1 X79.264 Y91.657 E.02397
G1 X79.016 Y90.892 E.02521
G1 X78.946 Y90.229 E.0209
M204 P1000
G1 E-2.24 F4200
;WIPE_START
G1 F7200
G1 X79.016 Y89.408 E-.45662
G1 X79.248 Y88.679 E-.42395
G1 X79.319 Y88.555 E-.07943
;WIPE_END
G1 Z.4 F720
G1 X82.122 Y86.039 F9000
G1 Z.2 F720
G1 E3.2 F2400
M204 P600
;TYPE:Perimeter
;WIDTH:0.623684
G1 F1200
G1 X82.963 Y86.034 E.04061
;WIDTH:0.628282
G1 X83.102 Y86.041 E.00677
M204 P1000
G1 E-2.24 F4200
;WIPE_START
G1 F7200
G1 X82.963 Y86.034 E-.07713
G1 X82.122 Y86.039 E-.46606
;WIPE_END
G1 E-.41681 F4200
G1 Z.4 F720
G1 X107.968 Y94.44 F9000
G1 Z.2 F720
G1 E3.2 F2400
M204 P600
;TYPE:External perimeter
;WIDTH:0.419999
G1 F1200
G1 X98.597 Y94.44 E.29382
;WIDTH:0.46512
G1 X98.319 Y94.417 E.00979
;WIDTH:0.510241
G1 X98.041 Y94.395 E.01084
;WIDTH:0.555362
G1 X97.763 Y94.372 E.01189
;WIDTH:0.561022
G1 X96.929 Y94.369 E.03593
G1 X96.687 Y94.393 E.01048
;WIDTH:0.514015
G1 X96.445 Y94.416 E.00952
;WIDTH:0.467007
G1 X96.203 Y94.44 E.00858
;WIDTH:0.419999
G1 X83.797 Y94.44 E.38898
;WIDTH:0.46512
G1 X83.519 Y94.417 E.00979
;WIDTH:0.510241
G1 X83.241 Y94.395 E.01084
;WIDTH:0.555362
G1 X82.963 Y94.372 E.01189
;WIDTH:0.561022
G1 X82.129 Y94.369 E.03593
G1 X81.887 Y94.393 E.01048
;WIDTH:0.514015
G1 X81.645 Y94.416 E.00952
;WIDTH:0.467007
G1 X81.403 Y94.44 E.00858
;WIDTH:0.419999
G1 X72.032 Y94.44 E.29382
G1 X79.098 Y85.56 E.35582
G1 X100.902 Y85.56 E.68365
G1 X107.931 Y94.393 E.35394
M204 P1000
M73 P6 R10
G1 X107.57 Y94.4 F9000
G1 E-2.24 F4200
;WIPE_START
G1 F7200
G1 X106.199 Y94.402 E-.96
;WIPE_END
G1 Z.4 F720
G1 X103.743 Y90.009 F9000
G1 Z.2 F720
G1 E3.2 F2400
M204 P600
;TYPE:Solid infill
;WIDTH:0.431861
G1 F1200
G1 X100.011 Y86.276 E.17071
G1 X99.461 Y86.276 E.01779
G1 X100.262 Y86.842 E.03172
G1 X100.391 Y86.958 E.00561
G1 X100.887 Y87.509 E.02398
G1 X100.989 Y87.65 E.00563
G1 X101.201 Y88.016 E.01368
G1 X104.824 Y91.64 E.16573
G1 X106.482 Y93.724 E.08613
G1 X106.358 Y93.724 E.00401
G1 X101.593 Y88.958 E.21796
G1 X101.696 Y89.326 E.01236
G1 X101.73 Y89.645 E.01038
G1 X105.808 Y93.724 E.18654
G1 X105.258 Y93.724 E.01779
G1 X101.773 Y90.239 E.15939
G1 X101.721 Y90.737 E.01619
G1 X104.708 Y93.724 E.13661
G1 X104.158 Y93.724 E.01779
G1 X101.631 Y91.197 E.11558
G1 X101.504 Y91.619 E.01425
G1 X103.608 Y93.724 E.09625
G1 X103.058 Y93.724 E.01779
G1 X101.354 Y92.019 E.07796
G1 X101.152 Y92.368 E.01304
G1 X102.508 Y93.724 E.06202
G1 X101.958 Y93.724 E.01779
G1 X100.945 Y92.711 E.04633
G1 X100.692 Y93.008 E.01262
G1 X101.408 Y93.724 E.03275
G1 X100.858 Y93.724 E.01779
G1 X100.431 Y93.297 E.01953
G1 X100.135 Y93.551 E.01261
G1 X100.477 Y93.893 E.01564
M204 P1000
G1 E-2.24 F4200
;WIPE_START
G1 F7200
G1 X100.135 Y93.551 E-.26803
G1 X100.431 Y93.297 E-.21615
G1 X100.858 Y93.724 E-.33464
G1 X101.113 Y93.724 E-.14118
;WIPE_END
G1 Z.4 F720
G1 X95.294 Y86.511 F9000
G1 Z.2 F720
G1 E3.2 F2400
M204 P600
;WIDTH:0.430719
G1 F1200
G1 X95.059 Y86.276 E.01072
G1 X94.511 Y86.276 E.01767
G1 X94.85 Y86.615 E.01546
G1 X94.533 Y86.847 E.01267
G1 X93.963 Y86.276 E.02602
G1 X93.414 Y86.276 E.0177
G1 X94.261 Y87.123 E.03863
G1 X94.001 Y87.411 E.01251
G1 X92.866 Y86.276 E.05176
G1 X92.317 Y86.276 E.0177
G1 X93.767 Y87.726 E.06612
G1 X93.566 Y88.074 E.01296
G1 X91.769 Y86.276 E.08197
G1 X91.22 Y86.276 E.0177
G1 X93.377 Y88.433 E.09836
G1 X93.241 Y88.845 E.01399
G1 X90.672 Y86.276 E.11715
G1 X90.124 Y86.276 E.01767
G1 X93.116 Y89.269 E.13646
G1 X93.058 Y89.76 E.01594
G1 X89.575 Y86.276 E.15886
M73 P7 R10
G1 X89.027 Y86.276 E.01767
G1 X93.043 Y90.293 E.18316
G1 X93.097 Y90.895 E.01949
G1 X88.478 Y86.276 E.21064
G1 X87.93 Y86.276 E.01767
G1 X93.601 Y91.947 E.25861
M204 P1000
G1 E-2.24 F4200
;WIPE_START
G1 F7200
G1 X92.376 Y90.722 E-.96
;WIPE_END
G1 Z.4 F720
G1 X94.998 Y93.893 F9000
G1 Z.2 F720
G1 E3.2 F2400
M204 P600
G1 F1200
G1 X87.381 Y86.276 E.34735
G1 X86.833 Y86.276 E.01767
G1 X94.28 Y93.724 E.33962
G1 X93.732 Y93.724 E.01767
G1 X86.285 Y86.276 E.33962
G1 X85.736 Y86.276 E.0177
G1 X93.183 Y93.724 E.33962
G1 X92.635 Y93.724 E.01767
G1 X85.188 Y86.276 E.33962
G1 X84.639 Y86.276 E.0177
G1 X84.862 Y86.406 E.00832
G1 X85.462 Y86.842 E.02392
G1 X85.591 Y86.958 E.00559
G1 X86.087 Y87.509 E.02391
G1 X86.189 Y87.649 E.00559
G1 X86.431 Y88.068 E.0156
G1 X92.086 Y93.724 E.2579
G1 X91.538 Y93.724 E.01767
G1 X86.807 Y88.992 E.21577
G1 X86.896 Y89.326 E.01115
G1 X86.932 Y89.666 E.01102
G1 X90.99 Y93.724 E.18505
G1 X90.441 Y93.724 E.0177
G1 X86.961 Y90.244 E.1587
G1 X86.916 Y90.747 E.01628
G1 X89.893 Y93.724 E.13576
G1 X89.344 Y93.724 E.0177
G1 X86.837 Y91.216 E.11435
G1 X86.702 Y91.63 E.01404
G1 X88.796 Y93.724 E.09549
G1 X88.247 Y93.724 E.0177
M73 P8 R10
G1 X86.55 Y92.026 E.07741
G1 X86.349 Y92.374 E.01296
G1 X87.699 Y93.724 E.06156
G1 X87.151 Y93.724 E.01767
G1 X86.142 Y92.715 E.04601
G1 X85.889 Y93.011 E.01256
G1 X86.602 Y93.724 E.03251
G1 X86.054 Y93.724 E.01767
G1 X85.629 Y93.299 E.01938
G1 X85.333 Y93.552 E.01256
G1 X85.675 Y93.893 E.01557
M204 P1000
G1 E-2.24 F4200
;WIPE_START
G1 F7200
G1 X85.333 Y93.552 E-.26764
G1 X85.629 Y93.299 E-.21579
G1 X86.054 Y93.724 E-.33308
G1 X86.313 Y93.724 E-.14349
;WIPE_END
G1 Z.4 F720
G1 X80.505 Y86.506 F9000
G1 Z.2 F720
G1 E3.2 F2400
M204 P600
;WIDTH:0.42308
G1 F1200
G1 X80.276 Y86.276 E.01026
G1 X79.738 Y86.276 E.01701
G1 X80.065 Y86.604 E.01464
G1 X79.754 Y86.83 E.01215
G1 X79.336 Y86.412 E.01869
G1 X79.097 Y86.711 E.0121
G1 X79.484 Y87.097 E.01728
G1 X79.23 Y87.381 E.01204
G1 X78.859 Y87.01 E.01659
G1 X78.621 Y87.31 E.0121
G1 X78.997 Y87.686 E.01681
G1 X78.798 Y88.024 E.0124
G1 X78.383 Y87.609 E.01855
G1 X78.144 Y87.909 E.01212
G1 X78.605 Y88.37 E.02061
G1 X78.466 Y88.768 E.01333
G1 X77.906 Y88.208 E.02503
G1 X77.668 Y88.507 E.01208
G1 X78.336 Y89.175 E.02986
G1 X78.27 Y89.647 E.01507
G1 X77.43 Y88.807 E.03755
G1 X77.192 Y89.106 E.01208
G1 X78.226 Y90.141 E.04625
G1 X78.278 Y90.731 E.01872
G1 X76.953 Y89.406 E.05923
G1 X76.715 Y89.705 E.01208
G1 X78.43 Y91.42 E.07667
G1 X78.569 Y91.85 E.01429
G1 X78.64 Y92.008 E.00548
G1 X78.858 Y92.385 E.01377
G1 X76.477 Y90.004 E.10644
G1 X76.239 Y90.304 E.0121
G1 X79.658 Y93.724 E.15287
G1 X79.121 Y93.724 E.01697
G1 X76 Y90.603 E.13952
G1 X75.762 Y90.903 E.0121
G1 X78.583 Y93.724 E.12611
G1 X78.045 Y93.724 E.01701
G1 X75.524 Y91.202 E.11272
G1 X75.286 Y91.501 E.01208
G1 X77.508 Y93.724 E.09935
G1 X76.97 Y93.724 E.01701
G1 X75.047 Y91.801 E.08597
G1 X74.809 Y92.1 E.01208
G1 X76.433 Y93.724 E.0726
G1 X75.895 Y93.724 E.01701
G1 X74.571 Y92.4 E.05919
G1 X74.333 Y92.699 E.01208
G1 X75.357 Y93.724 E.0458
G1 X74.82 Y93.724 E.01697
G1 X74.095 Y92.998 E.03243
G1 X73.856 Y93.298 E.01212
G1 X74.282 Y93.724 E.01904
